; HEADER_BLOCK_START
; generated by OrcaSlicer 1.6.4-beta3 on 2023-08-18 at 21:47:25
; total layer number: 192
; HEADER_BLOCK_END

; THUMBNAIL_BLOCK_START
; THUMBNAIL_BLOCK_END

; external perimeters extrusion width = 0.44mm
; perimeters extrusion width = 0.42mm
; infill extrusion width = 0.50mm
; solid infill extrusion width = 0.44mm
; top infill extrusion width = 0.42mm
; first layer extrusion width = 0.56mm

; EXECUTABLE_BLOCK_START
EXCLUDE_OBJECT_DEFINE NAME=3DBenchy.stl_id_0_copy_0 CENTER=110,110 POLYGON=[[79.9995,100.816],[80.0025,100.755],[80.0065,100.699],[80.0115,100.646],[80.0135,100.63],[80.0195,100.583],[80.0285,100.525],[80.0455,100.436],[80.0585,100.379],[80.0735,100.322],[80.0805,100.296],[80.0975,100.239],[80.1265,100.155],[80.1405,100.118],[80.1625,100.064],[80.1695,100.047],[80.1855,100.01],[80.2095,99.958],[80.2305,99.916],[80.2635,99.854],[80.2785,99.827],[80.2905,99.806],[80.3395,99.727],[80.3575,99.7],[80.3715,99.679],[80.4055,99.631],[80.4405,99.584],[80.4835,99.531],[80.5085,99.501],[80.5385,99.466],[80.5785,99.423],[80.5925,99.408],[80.6005,99.4],[80.6415,99.359],[80.6615,99.34],[80.7045,99.3],[80.7375,99.271],[80.7825,99.234],[80.7935,99.225],[80.8285,99.197],[80.8865,99.154],[80.9345,99.121],[80.9785,99.092],[81.0445,99.052],[81.0715,99.036],[81.1235,99.008],[81.1485,98.995],[81.1755,98.981],[81.1975,98.97],[81.2535,98.944],[81.3115,98.919],[81.3615,98.899],[81.4165,98.879],[81.4285,98.875],[81.4715,98.861],[81.4845,98.857],[81.5405,98.84],[81.5475,98.838],[81.5845,98.828],[81.5965,98.825],[81.6245,98.818],[81.6405,98.814],[81.7105,98.799],[81.7395,98.794],[81.7685,98.789],[81.7975,98.784],[109.812,94.886],[110.055,94.853],[110.299,94.821],[110.543,94.791],[110.882,94.752],[111.105,94.728],[111.35,94.702],[111.596,94.678],[111.842,94.656],[112.087,94.635],[112.253,94.622],[112.333,94.616],[112.523,94.602],[112.579,94.598],[112.826,94.581],[112.987,94.571],[113.071,94.566],[113.233,94.557],[113.489,94.544],[113.597,94.539],[113.619,94.538],[113.755,94.532],[113.906,94.526],[114.05,94.521],[114.167,94.517],[114.233,94.515],[114.342,94.512],[114.46,94.509],[114.548,94.507],[114.689,94.504],[114.881,94.501],[115.062,94.499],[115.18,94.498],[115.578,94.498],[115.934,94.5],[116.369,94.508],[116.45,94.51],[116.805,94.52],[116.912,94.524],[117.24,94.537],[117.676,94.558],[118.009,94.578],[118.092,94.583],[118.203,94.59],[118.375,94.602],[118.495,94.611],[118.641,94.622],[118.728,94.629],[118.909,94.644],[119.039,94.655],[119.832,94.78],[119.841,94.782],[120.269,94.888],[120.377,94.915],[120.595,94.97],[120.737,95.007],[120.813,95.027],[120.967,95.068],[121.248,95.145],[121.424,95.195],[121.68,95.27],[121.896,95.334],[122.11,95.4],[122.332,95.47],[122.558,95.543],[122.752,95.607],[123.008,95.694],[123.178,95.753],[123.232,95.772],[123.4,95.832],[123.601,95.905],[123.822,95.987],[124.033,96.067],[124.233,96.145],[124.343,96.188],[124.443,96.228],[124.453,96.232],[124.662,96.316],[124.871,96.402],[124.926,96.425],[125.134,96.513],[125.341,96.603],[125.547,96.693],[125.957,96.879],[126.16,96.974],[126.363,97.07],[126.565,97.168],[126.766,97.267],[126.967,97.367],[127.166,97.469],[127.366,97.572],[127.563,97.677],[127.762,97.783],[127.957,97.89],[128.153,97.999],[128.348,98.11],[128.543,98.221],[128.737,98.334],[128.93,98.449],[129.123,98.565],[129.314,98.683],[129.505,98.801],[129.696,98.922],[129.885,99.043],[130.075,99.167],[130.262,99.291],[130.451,99.417],[130.637,99.544],[130.824,99.673],[131.008,99.803],[131.193,99.934],[131.376,100.067],[131.56,100.201],[131.743,100.337],[131.923,100.474],[132.104,100.612],[132.284,100.752],[132.463,100.893],[132.642,101.036],[132.82,101.18],[132.998,101.325],[133.173,101.472],[133.523,101.77],[133.697,101.921],[133.87,102.074],[134.042,102.228],[134.214,102.384],[134.328,102.489],[134.498,102.645],[134.665,102.803],[134.832,102.962],[134.996,103.122],[135.161,103.283],[135.325,103.445],[135.486,103.609],[135.647,103.773],[135.807,103.939],[135.966,104.106],[136.124,104.274],[136.282,104.443],[136.438,104.614],[136.592,104.785],[136.745,104.958],[136.898,105.132],[137.05,105.306],[137.201,105.483],[137.349,105.66],[137.499,105.838],[137.645,106.017],[137.791,106.198],[137.936,106.38],[138.081,106.563],[138.223,106.747],[138.364,106.932],[138.505,107.118],[138.645,107.305],[138.784,107.493],[138.921,107.683],[139.056,107.874],[139.192,108.065],[139.326,108.258],[139.458,108.452],[139.589,108.647],[139.618,108.692],[139.651,108.745],[139.682,108.798],[139.713,108.852],[139.742,108.907],[139.769,108.962],[139.819,109.076],[139.834,109.117],[139.856,109.175],[139.876,109.233],[139.895,109.292],[139.912,109.351],[139.929,109.413],[139.943,109.47],[139.954,109.53],[139.966,109.593],[139.975,109.652],[139.984,109.713],[139.991,109.774],[139.995,109.836],[139.999,109.905],[140,109.966],[140,110.027],[139.999,110.088],[139.996,110.149],[139.992,110.209],[139.986,110.27],[139.977,110.331],[139.968,110.391],[139.958,110.449],[139.945,110.512],[139.932,110.569],[139.916,110.632],[139.901,110.686],[139.883,110.745],[139.863,110.803],[139.842,110.861],[139.82,110.918],[139.797,110.974],[139.771,111.03],[139.744,111.086],[139.716,111.14],[139.686,111.194],[139.655,111.248],[139.624,111.301],[139.589,111.353],[139.472,111.527],[139.339,111.721],[139.206,111.914],[139.071,112.106],[138.936,112.297],[138.797,112.487],[138.659,112.676],[138.52,112.864],[138.38,113.05],[138.237,113.236],[138.095,113.42],[137.951,113.604],[137.659,113.968],[137.51,114.148],[137.361,114.328],[137.21,114.506],[137.06,114.683],[136.907,114.86],[136.752,115.035],[136.597,115.209],[136.482,115.337],[136.326,115.509],[136.167,115.68],[136.008,115.85],[135.848,116.018],[135.688,116.186],[135.526,116.352],[135.2,116.68],[135.034,116.841],[134.869,117.002],[134.703,117.161],[134.535,117.319],[134.368,117.475],[134.199,117.63],[134.028,117.784],[133.857,117.937],[133.686,118.089],[133.512,118.239],[133.338,118.388],[133.164,118.536],[132.987,118.682],[132.811,118.827],[132.632,118.971],[132.454,119.114],[132.275,119.256],[132.093,119.396],[131.911,119.535],[131.728,119.673],[131.544,119.81],[131.359,119.945],[131.173,120.08],[130.799,120.344],[130.611,120.474],[130.421,120.603],[130.23,120.731],[130.039,120.857],[129.846,120.982],[129.653,121.106],[129.458,121.228],[129.263,121.349],[129.067,121.469],[128.869,121.587],[128.672,121.704],[128.472,121.819],[128.272,121.934],[128.072,122.046],[127.87,122.158],[127.595,122.307],[127.395,122.412],[127.196,122.516],[126.996,122.618],[126.796,122.719],[126.595,122.818],[126.392,122.916],[126.19,123.012],[125.987,123.107],[125.783,123.2],[125.579,123.292],[125.374,123.383],[125.169,123.472],[124.963,123.559],[124.756,123.645],[124.666,123.682],[124.549,123.73],[124.341,123.813],[124.122,123.898],[124.003,123.944],[123.704,124.057],[123.493,124.134],[123.293,124.206],[123.071,124.284],[122.884,124.348],[122.869,124.353],[122.656,124.424],[122.443,124.494],[122.206,124.57],[122.005,124.632],[121.979,124.64],[121.751,124.709],[121.523,124.776],[121.295,124.841],[121.142,124.884],[121.066,124.905],[120.924,124.943],[120.706,125.001],[120.606,125.027],[120.488,125.057],[120.269,125.112],[119.843,125.218],[119.316,125.319],[119.306,125.32],[119.05,125.344],[119.003,125.348],[118.81,125.364],[118.725,125.371],[118.561,125.384],[118.481,125.39],[118.134,125.414],[117.688,125.441],[117.649,125.443],[117.264,125.462],[117.126,125.468],[116.778,125.481],[116.564,125.487],[116.343,125.493],[115.907,125.5],[115.521,125.502],[115.177,125.502],[114.877,125.499],[114.821,125.498],[114.599,125.494],[114.456,125.491],[114.338,125.488],[114.166,125.483],[114.076,125.48],[113.93,125.475],[113.752,125.468],[113.728,125.467],[113.57,125.46],[113.462,125.455],[113.332,125.448],[113.133,125.437],[112.889,125.423],[112.644,125.407],[112.629,125.406],[112.342,125.385],[112.096,125.366],[111.849,125.345],[111.667,125.328],[111.603,125.322],[111.423,125.305],[111.179,125.28],[111.111,125.273],[110.935,125.254],[110.619,125.218],[110.373,125.188],[110.204,125.166],[109.882,125.124],[81.8275,121.22],[81.7925,121.215],[81.7425,121.207],[81.6855,121.196],[81.6535,121.189],[81.5965,121.175],[81.5845,121.172],[81.5475,121.162],[81.5365,121.159],[81.4805,121.142],[81.4285,121.125],[81.4165,121.121],[81.3615,121.101],[81.3115,121.081],[81.2535,121.056],[81.1975,121.03],[81.1555,121.009],[81.1045,120.982],[81.0865,120.972],[81.0445,120.948],[80.9925,120.917],[80.9785,120.908],[80.9435,120.885],[80.9345,120.879],[80.8865,120.846],[80.8475,120.817],[80.8395,120.811],[80.7935,120.775],[80.7555,120.744],[80.7485,120.738],[80.7045,120.7],[80.6615,120.66],[80.6405,120.64],[80.5925,120.592],[80.5575,120.555],[80.5385,120.534],[80.5185,120.511],[80.4805,120.466],[80.4445,120.42],[80.4305,120.402],[80.4095,120.374],[80.4065,120.37],[80.3725,120.322],[80.3575,120.3],[80.3425,120.278],[80.3085,120.224],[80.2785,120.173],[80.2505,120.122],[80.2305,120.084],[80.2185,120.06],[80.1955,120.012],[80.1695,119.954],[80.1485,119.903],[80.1275,119.849],[80.1085,119.793],[80.1075,119.79],[80.0905,119.738],[80.0745,119.682],[80.0595,119.625],[80.0455,119.564],[80.0345,119.507],[80.0255,119.454],[80.0245,119.448],[80.0165,119.396],[80.0115,119.353],[80.0085,119.325],[80.0025,119.245],[80.0005,119.208],[79.9995,119.179],[79.9995,100.816]]
M73 P0 R23
;TYPE:Custom
M190 S0 ; Remove this if autoemit_temperature_commands is off in Prusa Slicer 2.6 and later
M109 S0 ; Remove this if autoemit_temperature_commands is off in Prusa Slicer 2.6 and later
_PRINT_START_PHASE_INIT EXTRUDER=230 BED=60 MESH_MIN=84.0896,101.844 MESH_MAX=123.217,118.155 LAYERS=192 NOZZLE_SIZE=0.4
; Insert custom gcode here.
_PRINT_START_PHASE_PREHEAT
; Insert custom gcode here.
_PRINT_START_PHASE_PROBING
; Insert custom gcode here.
_PRINT_START_PHASE_EXTRUDER
; Insert custom gcode here.
_PRINT_START_PHASE_PURGE

; This is the place to put slicer purge lines if you haven't set a non-zero
; variable_start_purge_length to have START_PRINT automatically calculate and 
; perform the purge (e.g. if using a Mosaic Palette, which requires the slicer
; to generate the purge).
G90
G21
M83 ; use relative distances for extrusion
; filament start gcode
;LAYER_CHANGE
;Z:0.36
;HEIGHT:0.36
;BEFORE_LAYER_CHANGE
;0.36
BEFORE_LAYER_CHANGE HEIGHT=0.36 LAYER=0
G1 E-.4 F1800
;AFTER_LAYER_CHANGE
;0.36
AFTER_LAYER_CHANGE
SET_VELOCITY_LIMIT ACCEL=3000 ACCEL_TO_DECEL=1500
; printing object 3DBenchy.stl id:0 copy 0
EXCLUDE_OBJECT_START NAME=3DBenchy.stl_id_0_copy_0
G1 Z.4 F15000
G1 X110.889 Y113.301
G1 Z.4
G1 Z.36
G1 E.4 F1200
;TYPE:Outer wall
;WIDTH:0.56
G1 F3000
G3 X110.605 Y113.05 I.344 J-.677 E.0285
G1 X110.11 Y112.185 E.07407
G3 X109.591 Y113.064 I-3.407 J-1.419 E.07615
G3 X108.843 Y113.333 I-.564 J-.395 E.063
G3 X108.328 Y112.544 I.189 J-.686 E.0766
G1 X108.43 Y112.227 E.02472
G3 X109.317 Y110.768 I20.731 J11.599 E.12701
G3 X108.847 Y109.97 I42.084 J-25.345 E.06883
G3 X108.433 Y109.169 I3.188 J-2.153 E.06719
G3 X108.394 Y108.776 I.824 J-.281 E.02964
G3 X109.064 Y108.203 I.719 J.163 E.07023
G3 X109.569 Y108.355 I.054 J.737 E.0401
G3 X110.188 Y109.271 I-1.859 J1.922 E.08277
G3 X110.845 Y108.325 I1.899 J.619 E.08683
G3 X111.56 Y108.3 I.377 J.524 E.05638
G3 X111.838 Y109.266 I-.416 J.643 E.08153
G1 X111.243 Y110.274 E.08704
G1 X111.084 Y110.588 E.02617
G2 X111.071 Y110.801 I.38 J.131 E.01608
G2 X111.874 Y112.194 I28.221 J-15.349 E.11954
G3 X111.914 Y112.961 I-.985 J.436 E.05838
G3 X110.926 Y113.318 I-.68 J-.336 E.0863
G1 E-.4 F1800
G1 Z.76 F15000
G1 X107.702 Y113.238 Z.76
G1 Z.36
G1 E.4 F1200
G1 F3000
G3 X106.684 Y111.087 I-.933 J-.874 E.37012
G1 X106.797 Y111.085 E.00839
G3 X107.729 Y113.208 I-.028 J1.279 E.2159
G1 E-.28 F1800
;WIPE_START
G1 F3000
G1 X107.532 Y113.393 E-.03079
G1 X107.238 Y113.556 E-.03831
G1 X107.021 Y113.62 E-.02581
G1 X106.855 Y113.638 E-.01909
;WIPE_END
G1 E-.006 F1800
G1 Z.76 F15000
G1 X101.37 Y113.172 Z.76
G1 Z.36
G1 E.4 F1200
G1 F3000
G3 X101.044 Y112.98 I.206 J-.724 E.02842
G3 X100.836 Y112.367 I1.017 J-.687 E.04869
G1 X100.845 Y108.518 E.28615
G2 X100.816 Y107.597 I-4.343 J-.326 E.0687
G3 X101.117 Y106.905 I.676 J-.117 E.05936
G3 X101.728 Y106.754 I.605 J1.136 E.04728
G3 X103.342 Y106.791 I-1.117 J84.508 E.12004
G3 X104.476 Y107.058 I-.22 J3.468 E.08704
G3 X105.709 Y108.587 I-1.203 J2.232 E.14992
G3 X105.793 Y110.981 I-4.945 J1.373 E.17977
G1 X105.715 Y111.274 E.02252
G3 X104.154 Y112.984 I-2.474 J-.691 E.17858
G3 X102.646 Y113.164 I-1.379 J-5.132 E.1133
G2 X101.685 Y113.192 I-.359 J4.138 E.07161
G3 X101.409 Y113.181 I-.109 J-.745 E.02066
G1 E-.28 F1800
;WIPE_START
G1 F3000
G1 X101.211 Y113.119 E-.02365
G1 X101.044 Y112.98 E-.02477
G1 X100.928 Y112.79 E-.02539
G1 X100.857 Y112.547 E-.0288
G1 X100.846 Y112.448 E-.0114
;WIPE_END
G1 E-.006 F1800
G1 Z.76 F15000
G1 X99.926 Y109.468 Z.76
G1 Z.36
G1 E.4 F1200
;TYPE:Inner wall
G1 F3000
G2 X100.127 Y109.056 I-1.54 J-1.003 E.03421
G1 X100.361 Y109.101 E.01775
G1 X100.361 Y109.769 E.04969
G1 X100.136 Y109.821 E.01716
G1 X99.946 Y109.503 E.02755
G1 X99.163 Y109.501 F15000
;TYPE:Outer wall
G1 F3000
G3 X99.522 Y109.751 I-.336 J.863 E.03284
G1 X99.707 Y110.043 E.0257
G1 X99.91 Y110.667 E.04882
G3 X99.255 Y112.831 I-2.081 J.55 E.17694
G1 X98.878 Y113.087 E.03387
G1 X98.676 Y113.179 E.01649
G3 X96.659 Y113.154 I-.973 J-2.867 E.15287
G1 X96.337 Y112.973 E.02752
G1 X96.132 Y112.773 E.02131
G3 X96.076 Y111.682 I.729 J-.584 E.08672
G3 X96.881 Y111.416 I.65 J.615 E.06565
G1 X97.187 Y111.513 E.02387
G1 X97.667 Y111.853 E.04374
G2 X97.789 Y111.89 I.137 J-.228 E.00954
G2 X98.348 Y111.272 I-.031 J-.59 E.06876
G2 X97.673 Y110.493 I-.977 J.164 E.0806
G1 X97.203 Y110.404 E.03553
G3 X96.912 Y110.306 I.155 J-.945 E.02297
G3 X96.622 Y109.548 I.362 J-.573 E.06472
G3 X97.191 Y108.905 I.809 J.143 E.06716
G1 X97.648 Y108.826 E.03445
G2 X98.049 Y108.45 I-.103 J-.512 E.04307
G1 X98.032 Y108.267 E.01367
G2 X97.682 Y108.059 I-.299 J.104 E.03291
G2 X97.121 Y108.34 I.239 J1.175 E.04719
G3 X96.608 Y108.502 I-.51 J-.721 E.04061
G3 X95.926 Y107.58 I.191 J-.855 E.09297
G3 X96.42 Y106.93 I.989 J.238 E.06244
G3 X97.565 Y106.595 I1.251 J2.156 E.08958
G3 X98.617 Y106.7 I.186 J3.474 E.07893
G3 X99.69 Y107.699 I-.398 J1.502 E.11347
G3 X99.712 Y108.68 I-2.66 J.551 E.07334
G3 X99.198 Y109.481 I-1.042 J-.102 E.07347
G1 E-.28 F1800
;WIPE_START
G1 F3000
G1 X99.406 Y109.64 E-.02979
G1 X99.522 Y109.751 E-.01834
G1 X99.707 Y110.043 E-.0394
G1 X99.779 Y110.264 E-.02647
;WIPE_END
G1 E-.006 F1800
G1 Z.76 F15000
G1 X101.084 Y112.948 Z.76
G1 X101.329 Y113.359
G1 X101.605 Y113.641
G1 X112.478 Y115.991
G1 X112.659 Y116.013
G1 X112.759 Y116.014
G1 X112.856 Y116.01
G1 X113.032 Y115.986
G1 X113.143 Y115.965
G1 X113.359 Y115.911
G1 X113.587 Y115.84
G1 X113.703 Y115.797
G1 X113.892 Y115.716
G1 X113.993 Y115.663
G1 X114.086 Y115.61
G1 X114.175 Y115.553
G1 X114.27 Y115.484
G1 X114.432 Y115.354
G1 X114.528 Y115.264
G1 X114.711 Y115.085
G1 X114.925 Y114.853
G1 X116.105 Y113.374
G1 Z.36
G1 E.4 F1200
;TYPE:Inner wall
G1 F3000
G1 X116.355 Y113.733 E.03253
G2 X117.7 Y114.355 I1.326 J-1.103 E.11385
G1 X117.751 Y114.555 E.01539
G3 X115.2 Y115.909 I-7.759 J-11.537 E.21505
G1 X115.065 Y115.74 E.01609
G1 X115.28 Y115.394 E.03031
G1 X115.601 Y114.69 E.05747
G1 X116.091 Y113.411 E.10184
G1 E-.28 F1800
;WIPE_START
G1 F3000
G1 X116.355 Y113.733 E-.04747
G1 X116.62 Y113.997 E-.04258
G1 X116.793 Y114.115 E-.02395
;WIPE_END
G1 E-.006 F1800
G1 Z.76 F15000
G1 X95.731 Y109.155 Z.76
G1 Z.36
G1 E.4 F1200
G1 F3000
G2 X95.862 Y110.625 I1.777 J.582 E.11279
G2 X94.961 Y112.335 I.828 J1.529 E.15242
G2 X96.301 Y114.052 I2.066 J-.231 E.17036
G2 X99.03 Y114.079 I1.402 J-3.743 E.20709
G2 X100.118 Y113.339 I-1.108 J-2.8 E.09864
G2 X101.759 Y114.155 I1.425 J-.808 E.14462
G3 X102.633 Y114.129 I.544 J3.64 E.0651
G2 X104.464 Y113.899 I.144 J-6.248 E.13776
G1 X104.951 Y113.686 E.03954
G2 X108.192 Y114.1 I1.819 J-1.346 E.27136
G2 X109.262 Y114.322 I.893 J-1.614 E.08247
G2 X110.089 Y113.932 I-.262 J-1.628 E.06891
G1 X110.443 Y114.169 E.03171
G1 X110.773 Y114.293 E.02618
G1 X111.186 Y114.35 E.03104
