; HEADER_BLOCK_START
; generated by OrcaSlicer 1.6.4-beta3 on 2023-08-17 at 19:04:34
; total layer number: 2
; HEADER_BLOCK_END

; THUMBNAIL_BLOCK_START
; THUMBNAIL_BLOCK_END

; external perimeters extrusion width = 0.44mm
; perimeters extrusion width = 0.42mm
; infill extrusion width = 0.50mm
; solid infill extrusion width = 0.44mm
; top infill extrusion width = 0.42mm
; first layer extrusion width = 0.56mm

; EXECUTABLE_BLOCK_START
EXCLUDE_OBJECT_DEFINE NAME=Cube_id_0_copy_0 CENTER=110,110 POLYGON=[[87.5,87.5],[132.5,87.5],[132.5,132.5],[87.5,132.5],[87.5,87.5]]
M73 P0 R2
;TYPE:Custom
M190 S0 ; Remove this if autoemit_temperature_commands is off in Prusa Slicer 2.6 and later
M109 S0 ; Remove this if autoemit_temperature_commands is off in Prusa Slicer 2.6 and later
_PRINT_START_PHASE_INIT EXTRUDER=230 BED=60 MESH_MIN=87.5,87.5 MESH_MAX=132.5,132.5 LAYERS=2 NOZZLE_SIZE=0.4
; Insert custom gcode here.
_PRINT_START_PHASE_PREHEAT
; Insert custom gcode here.
_PRINT_START_PHASE_PROBING
; Insert custom gcode here.
_PRINT_START_PHASE_EXTRUDER
; Insert custom gcode here.
_PRINT_START_PHASE_PURGE

; This is the place to put slicer purge lines if you haven't set a non-zero
; variable_start_purge_length to have START_PRINT automatically calculate and 
; perform the purge (e.g. if using a Mosaic Palette, which requires the slicer
; to generate the purge).
G90
G21
M83 ; use relative distances for extrusion
; filament start gcode
;LAYER_CHANGE
;Z:0.36
;HEIGHT:0.36
;BEFORE_LAYER_CHANGE
;0.36
BEFORE_LAYER_CHANGE HEIGHT=0.36 LAYER=0
G1 E-.4 F1800
;AFTER_LAYER_CHANGE
;0.36
AFTER_LAYER_CHANGE
SET_VELOCITY_LIMIT ACCEL=3000 ACCEL_TO_DECEL=1500
; printing object Cube id:0 copy 0
EXCLUDE_OBJECT_START NAME=Cube_id_0_copy_0
G1 Z.4 F9000
G1 X88.745 Y88.745
G1 Z.4
G1 Z.36
G1 E.4 F1200
;TYPE:Inner wall
;WIDTH:0.56
G1 F3000
G1 X131.255 Y88.745 E3.16045
M73 P1 R2
G1 X131.255 Y131.255 E3.16045
M73 P2 R2
G1 X88.745 Y131.255 E3.16045
G1 X88.745 Y88.785 E3.15748
M73 P3 R2
G1 X88.263 Y88.263 F9000
G1 F3000
G1 X131.737 Y88.263 E3.23224
M73 P4 R2
G1 X131.737 Y131.737 E3.23224
G1 X88.263 Y131.737 E3.23224
M73 P5 R2
G1 X88.263 Y88.303 E3.22926
M73 P6 R2
G1 X87.78 Y87.78 F9000
;TYPE:Outer wall
G1 F3000
G1 X132.22 Y87.78 E3.30402
G1 X132.22 Y132.22 E3.30402
M73 P7 R2
G1 X87.78 Y132.22 E3.30402
M73 P8 R2
G1 X87.78 Y87.82 E3.30104
G1 E-.4 F1800
G1 Z.76 F9000
G1 X130.127 Y88.89 Z.76
M73 P9 R2
G1 Z.36
G1 E.4 F1200
;TYPE:Internal solid infill
;WIDTH:0.563236
G1 F3000
G1 X130.892 Y89.656 E.08102
G1 X130.892 Y90.343 E.05144
G1 X129.657 Y89.108 E.13078
G1 X128.97 Y89.108 E.05144
G1 X130.892 Y91.03 E.20353
G1 X130.892 Y91.718 E.05144
G1 X128.282 Y89.108 E.27627
G1 X127.595 Y89.108 E.05144
G1 X130.892 Y92.405 E.34902
G1 X130.892 Y93.092 E.05144
G1 X126.908 Y89.108 E.42177
G1 X126.221 Y89.108 E.05144
M73 P9 R1
G1 X130.892 Y93.779 E.49451
G1 X130.892 Y94.467 E.05144
G1 X125.533 Y89.108 E.56726
M73 P10 R1
G1 X124.846 Y89.108 E.05144
G1 X130.892 Y95.154 E.64001
G1 X130.892 Y95.841 E.05144
G1 X124.159 Y89.108 E.71276
G1 X123.471 Y89.108 E.05144
G1 X130.892 Y96.529 E.7855
G1 X130.892 Y97.216 E.05144
G1 X122.784 Y89.108 E.85825
G1 X122.097 Y89.108 E.05144
G1 X130.892 Y97.903 E.931
M73 P11 R1
G1 X130.892 Y98.59 E.05144
G1 X121.41 Y89.108 E1.00375
G1 X120.722 Y89.108 E.05144
G1 X130.892 Y99.278 E1.07649
G1 X130.892 Y99.965 E.05144
G1 X120.035 Y89.108 E1.14924
G1 X119.348 Y89.108 E.05144
G1 X130.892 Y100.652 E1.22199
M73 P12 R1
G1 X130.892 Y101.34 E.05144
G1 X118.66 Y89.108 E1.29473
G1 X117.973 Y89.108 E.05144
G1 X130.892 Y102.027 E1.36748
G1 X130.892 Y102.714 E.05144
G1 X117.286 Y89.108 E1.44023
G1 X116.599 Y89.108 E.05144
M73 P13 R1
G1 X130.892 Y103.401 E1.51298
G1 X130.892 Y104.089 E.05144
G1 X115.911 Y89.108 E1.58572
G1 X115.224 Y89.108 E.05144
G1 X130.892 Y104.776 E1.65847
M73 P14 R1
G1 X130.892 Y105.463 E.05144
G1 X114.537 Y89.108 E1.73122
G1 X113.85 Y89.108 E.05144
G1 X130.892 Y106.15 E1.80397
G1 X130.892 Y106.838 E.05144
G1 X113.162 Y89.108 E1.87671
M73 P15 R1
G1 X112.475 Y89.108 E.05144
G1 X130.892 Y107.525 E1.94946
G1 X130.892 Y108.212 E.05144
G1 X111.788 Y89.108 E2.02221
M73 P16 R1
G1 X111.1 Y89.108 E.05144
G1 X130.892 Y108.9 E2.09496
G1 X130.892 Y109.587 E.05144
G1 X110.413 Y89.108 E2.1677
M73 P17 R1
G1 X109.726 Y89.108 E.05144
G1 X130.892 Y110.274 E2.24045
G1 X130.892 Y110.961 E.05144
G1 X109.039 Y89.108 E2.3132
M73 P18 R1
G1 X108.351 Y89.108 E.05144
G1 X130.892 Y111.649 E2.38594
G1 X130.892 Y112.336 E.05144
G1 X107.664 Y89.108 E2.45869
M73 P19 R1
G1 X106.977 Y89.108 E.05144
G1 X130.892 Y113.023 E2.53144
G1 X130.892 Y113.711 E.05144
G1 X106.289 Y89.108 E2.60419
M73 P20 R1
G1 X105.602 Y89.108 E.05144
G1 X130.892 Y114.398 E2.67693
G1 X130.892 Y115.085 E.05144
G1 X104.915 Y89.108 E2.74968
M73 P21 R1
G1 X104.228 Y89.108 E.05144
G1 X130.892 Y115.772 E2.82243
G1 X130.892 Y116.46 E.05144
G1 X103.54 Y89.108 E2.89518
M73 P22 R1
G1 X102.853 Y89.108 E.05144
G1 X130.892 Y117.147 E2.96792
M73 P23 R1
G1 X130.892 Y117.834 E.05144
G1 X102.166 Y89.108 E3.04067
G1 X101.479 Y89.108 E.05144
G1 X130.892 Y118.521 E3.11342
M73 P24 R1
G1 X130.892 Y119.209 E.05144
G1 X100.791 Y89.108 E3.18616
M73 P25 R1
G1 X100.104 Y89.108 E.05144
G1 X130.892 Y119.896 E3.25891
G1 X130.892 Y120.583 E.05144
G1 X99.417 Y89.108 E3.33166
M73 P26 R1
G1 X98.729 Y89.108 E.05144
G1 X130.892 Y121.271 E3.40441
M73 P27 R1
G1 X130.892 Y121.958 E.05144
G1 X98.042 Y89.108 E3.47715
M73 P28 R1
G1 X97.355 Y89.108 E.05144
G1 X130.892 Y122.645 E3.5499
G1 X130.892 Y123.332 E.05144
G1 X96.668 Y89.108 E3.62265
M73 P29 R1
G1 X95.98 Y89.108 E.05144
G1 X130.892 Y124.02 E3.6954
M73 P30 R1
G1 X130.892 Y124.707 E.05144
G1 X95.293 Y89.108 E3.76814
M73 P31 R1
G1 X94.606 Y89.108 E.05144
G1 X130.892 Y125.394 E3.84089
G1 X130.892 Y126.082 E.05144
G1 X93.918 Y89.108 E3.91364
M73 P32 R1
G1 X93.231 Y89.108 E.05144
G1 X130.892 Y126.769 E3.98639
M73 P33 R1
G1 X130.892 Y127.456 E.05144
G1 X92.544 Y89.108 E4.05913
M73 P34 R1
G1 X91.857 Y89.108 E.05144
G1 X130.892 Y128.143 E4.13188
M73 P35 R1
G1 X130.892 Y128.831 E.05144
G1 X91.169 Y89.108 E4.20463
M73 P36 R1
G1 X90.482 Y89.108 E.05144
G1 X130.892 Y129.518 E4.27737
M73 P37 R1
G1 X130.892 Y130.205 E.05144
G1 X89.795 Y89.108 E4.35012
G1 X89.108 Y89.108 E.05144
G1 X130.892 Y130.892 E4.42287
M73 P38 R1
G1 X130.205 Y130.892 E.05144
G1 X89.108 Y89.795 E4.35012
M73 P39 R1
G1 X89.108 Y90.482 E.05144
G1 X129.518 Y130.892 E4.27738
M73 P40 R1
G1 X128.831 Y130.892 E.05144
G1 X89.108 Y91.169 E4.20463
M73 P41 R1
G1 X89.108 Y91.857 E.05144
G1 X128.143 Y130.892 E4.13188
M73 P42 R1
G1 X127.456 Y130.892 E.05144
G1 X89.108 Y92.544 E4.05913
M73 P43 R1
G1 X89.108 Y93.231 E.05144
G1 X126.769 Y130.892 E3.98639
M73 P44 R1
G1 X126.082 Y130.892 E.05144
G1 X89.108 Y93.918 E3.91364
G1 X89.108 Y94.606 E.05144
G1 X125.394 Y130.892 E3.84089
M73 P45 R1
G1 X124.707 Y130.892 E.05144
G1 X89.108 Y95.293 E3.76815
M73 P46 R1
G1 X89.108 Y95.98 E.05144
G1 X124.02 Y130.892 E3.6954
M73 P47 R1
G1 X123.332 Y130.892 E.05144
G1 X89.108 Y96.668 E3.62265
M73 P48 R1
G1 X89.108 Y97.355 E.05144
G1 X122.645 Y130.892 E3.5499
G1 X121.958 Y130.892 E.05144
G1 X89.108 Y98.042 E3.47716
M73 P49 R1
G1 X89.108 Y98.729 E.05144
G1 X121.271 Y130.892 E3.40441
M73 P50 R1
G1 X120.583 Y130.892 E.05144
G1 X89.108 Y99.417 E3.33166
M73 P51 R1
G1 X89.108 Y100.104 E.05144
G1 X119.896 Y130.892 E3.25891
G1 X119.209 Y130.892 E.05144
G1 X89.108 Y100.791 E3.18617
M73 P52 R1
G1 X89.108 Y101.479 E.05144
G1 X118.521 Y130.892 E3.11342
M73 P53 R1
G1 X117.834 Y130.892 E.05144
G1 X89.108 Y102.166 E3.04067
G1 X89.108 Y102.853 E.05144
G1 X117.147 Y130.892 E2.96792
M73 P54 R1
G1 X116.46 Y130.892 E.05144
G1 X89.108 Y103.54 E2.89518
G1 X89.108 Y104.228 E.05144
G1 X115.772 Y130.892 E2.82243
M73 P55 R0
G1 X115.085 Y130.892 E.05144
G1 X89.108 Y104.915 E2.74968
M73 P56 R0
G1 X89.108 Y105.602 E.05144
G1 X114.398 Y130.892 E2.67694
G1 X113.711 Y130.892 E.05144
G1 X89.108 Y106.289 E2.60419
M73 P57 R0
G1 X89.108 Y106.977 E.05144
G1 X113.023 Y130.892 E2.53144
G1 X112.336 Y130.892 E.05144
G1 X89.108 Y107.664 E2.45869
M73 P58 R0
G1 X89.108 Y108.351 E.05144
G1 X111.649 Y130.892 E2.38595
G1 X110.961 Y130.892 E.05144
G1 X89.108 Y109.039 E2.3132
M73 P59 R0
G1 X89.108 Y109.726 E.05144
G1 X110.274 Y130.892 E2.24045
G1 X109.587 Y130.892 E.05144
G1 X89.108 Y110.413 E2.1677
M73 P60 R0
G1 X89.108 Y111.1 E.05144
G1 X108.9 Y130.892 E2.09496
G1 X108.212 Y130.892 E.05144
G1 X89.108 Y111.788 E2.02221
M73 P61 R0
G1 X89.108 Y112.475 E.05144
G1 X107.525 Y130.892 E1.94946
G1 X106.838 Y130.892 E.05144
G1 X89.108 Y113.162 E1.87672
M73 P62 R0
G1 X89.108 Y113.85 E.05144
G1 X106.15 Y130.892 E1.80397
G1 X105.463 Y130.892 E.05144
G1 X89.108 Y114.537 E1.73122
G1 X89.108 Y115.224 E.05144
G1 X104.776 Y130.892 E1.65847
M73 P63 R0
G1 X104.089 Y130.892 E.05144
G1 X89.108 Y115.911 E1.58573
G1 X89.108 Y116.599 E.05144
G1 X103.401 Y130.892 E1.51298
G1 X102.714 Y130.892 E.05144
G1 X89.108 Y117.286 E1.44023
M73 P64 R0
G1 X89.108 Y117.973 E.05144
G1 X102.027 Y130.892 E1.36748
G1 X101.34 Y130.892 E.05144
G1 X89.108 Y118.66 E1.29474
G1 X89.108 Y119.348 E.05144
G1 X100.652 Y130.892 E1.22199
M73 P65 R0
G1 X99.965 Y130.892 E.05144
G1 X89.108 Y120.035 E1.14924
G1 X89.108 Y120.722 E.05144
G1 X99.278 Y130.892 E1.0765
G1 X98.59 Y130.892 E.05144
G1 X89.108 Y121.41 E1.00375
G1 X89.108 Y122.097 E.05144
G1 X97.903 Y130.892 E.931
M73 P66 R0
G1 X97.216 Y130.892 E.05144
G1 X89.108 Y122.784 E.85825
G1 X89.108 Y123.471 E.05144
G1 X96.529 Y130.892 E.78551
G1 X95.841 Y130.892 E.05144
G1 X89.108 Y124.159 E.71276
G1 X89.108 Y124.846 E.05144
G1 X95.154 Y130.892 E.64001
G1 X94.467 Y130.892 E.05144
G1 X89.108 Y125.533 E.56726
G1 X89.108 Y126.221 E.05144
G1 X93.779 Y130.892 E.49452
M73 P67 R0
G1 X93.092 Y130.892 E.05144
G1 X89.108 Y126.908 E.42177
G1 X89.108 Y127.595 E.05144
G1 X92.405 Y130.892 E.34902
G1 X91.718 Y130.892 E.05144
G1 X89.108 Y128.282 E.27627
G1 X89.108 Y128.97 E.05144
G1 X91.03 Y130.892 E.20353
G1 X90.343 Y130.892 E.05144
G1 X89.108 Y129.657 E.13078
G1 X89.108 Y130.344 E.05144
G1 X89.873 Y131.11 E.08103
; stop printing object Cube id:0 copy 0
M106 S255

;LAYER_CHANGE
;Z:0.56
;HEIGHT:0.2
;BEFORE_LAYER_CHANGE
;0.56
BEFORE_LAYER_CHANGE HEIGHT=0.56 LAYER=1
G1 E-.28 F1800
;WIPE_START
G1 F3000
G1 X89.166 Y130.403 E-.114
;WIPE_END
G1 E-.006 F1800
EXCLUDE_OBJECT_END NAME=Cube_id_0_copy_0
;AFTER_LAYER_CHANGE
;0.56
AFTER_LAYER_CHANGE
M140 S60 ; set bed temperature
; printing object Cube id:0 copy 0
EXCLUDE_OBJECT_START NAME=Cube_id_0_copy_0
G1 Z.76 F18000
G1 X88.484 Y131.516 Z.76
G1 Z.56
G1 E.4 F1200
;TYPE:Inner wall
;WIDTH:0.42
G1 F14320.583
G1 X88.484 Y88.484 E1.38836
M73 P68 R0
G1 X131.516 Y88.484 E1.38836
G1 X131.516 Y131.516 E1.38836
G1 X88.524 Y131.516 E1.38707
G1 X88.107 Y131.893 F18000
G1 F14320.583
G1 X88.107 Y88.107 E1.41269
M73 P69 R0
G1 X131.893 Y88.107 E1.41269
G1 X131.893 Y131.893 E1.41269
G1 X88.147 Y131.893 E1.4114
G1 X87.72 Y132.28 F18000
;TYPE:Outer wall
;WIDTH:0.44
G1 F12000
G1 X87.72 Y87.72 E1.51392
M73 P70 R0
G1 X102.200 Y87.72 E0.49196
M106 S227
G1 X132.28 Y87.72 E1.02196
G1 X132.28 Y132.28 E1.51392
G1 X87.76 Y132.28 E1.51256
G1 E-.4 F1800
M73 P71 R0
G1 Z.96 F18000
G1 X130.639 Y131.405 Z.96
G1 Z.56
G1 E.4 F1200
;TYPE:Top surface
;WIDTH:0.421647
G1 F12000
G1 X131.236 Y130.809 E.02732
G1 X131.236 Y130.274 E.01736
G1 X130.274 Y131.236 E.04409
G1 X129.738 Y131.236 E.01736
G1 X131.236 Y129.738 E.06863
G1 X131.236 Y129.202 E.01736
G1 X129.202 Y131.236 E.09318
G1 X128.667 Y131.236 E.01736
G1 X131.236 Y128.667 E.11772
G1 X131.236 Y128.131 E.01736
G1 X128.131 Y131.236 E.14227
G1 X127.596 Y131.236 E.01736
G1 X131.236 Y127.596 E.16681
G1 X131.236 Y127.06 E.01736
G1 X127.06 Y131.236 E.19135
G1 X126.524 Y131.236 E.01736
G1 X131.236 Y126.524 E.2159
M73 P72 R0
G1 X131.236 Y125.989 E.01736
G1 X125.989 Y131.236 E.24044
G1 X125.453 Y131.236 E.01736
G1 X131.236 Y125.453 E.26499
G1 X131.236 Y124.918 E.01736
G1 X124.918 Y131.236 E.28953
G1 X124.382 Y131.236 E.01736
G1 X131.236 Y124.382 E.31408
G1 X131.236 Y123.846 E.01736
G1 X123.846 Y131.236 E.33862
G1 X123.311 Y131.236 E.01736
G1 X131.236 Y123.311 E.36317
G1 X131.236 Y122.775 E.01736
G1 X122.775 Y131.236 E.38771
G1 X122.24 Y131.236 E.01736
G1 X131.236 Y122.24 E.41226
G1 X131.236 Y121.704 E.01736
G1 X121.704 Y131.236 E.4368
G1 X121.168 Y131.236 E.01736
M73 P73 R0
G1 X131.236 Y121.168 E.46135
G1 X131.236 Y120.633 E.01736
G1 X120.633 Y131.236 E.48589
G1 X120.097 Y131.236 E.01736
G1 X131.236 Y120.097 E.51044
G1 X131.236 Y119.562 E.01736
G1 X119.562 Y131.236 E.53498
G1 X119.026 Y131.236 E.01736
G1 X131.236 Y119.026 E.55953
G1 X131.236 Y118.49 E.01736
G1 X118.49 Y131.236 E.58407
G1 X117.955 Y131.236 E.01736
G1 X131.236 Y117.955 E.60862
G1 X131.236 Y117.419 E.01736
G1 X117.419 Y131.236 E.63316
M73 P74 R0
G1 X116.884 Y131.236 E.01736
G1 X131.236 Y116.884 E.65771
G1 X131.236 Y116.348 E.01736
G1 X116.348 Y131.236 E.68225
G1 X115.812 Y131.236 E.01736
G1 X131.236 Y115.812 E.7068
G1 X131.236 Y115.277 E.01736
G1 X115.277 Y131.236 E.73134
G1 X114.741 Y131.236 E.01736
G1 X131.236 Y114.741 E.75589
G1 X131.236 Y114.206 E.01736
G1 X114.206 Y131.236 E.78043
G1 X113.67 Y131.236 E.01736
G1 X131.236 Y113.67 E.80498
M73 P75 R0
G1 X131.236 Y113.134 E.01736
G1 X113.134 Y131.236 E.82952
G1 X112.599 Y131.236 E.01736
G1 X131.236 Y112.599 E.85407
G1 X131.236 Y112.063 E.01736
G1 X112.063 Y131.236 E.87861
G1 X111.528 Y131.236 E.01736
G1 X131.236 Y111.528 E.90316
G1 X131.236 Y110.992 E.01736
G1 X110.992 Y131.236 E.9277
G1 X110.456 Y131.236 E.01736
G1 X131.236 Y110.456 E.95225
M73 P76 R0
G1 X131.236 Y109.921 E.01736
G1 X109.921 Y131.236 E.97679
G1 X109.385 Y131.236 E.01736
G1 X131.236 Y109.385 E1.00134
G1 X131.236 Y108.85 E.01736
G1 X108.85 Y131.236 E1.02588
G1 X108.314 Y131.236 E.01736
G1 X131.236 Y108.314 E1.05043
G1 X131.236 Y107.778 E.01736
G1 X107.778 Y131.236 E1.07497
M73 P77 R0
G1 X107.243 Y131.236 E.01736
G1 X131.236 Y107.243 E1.09952
G1 X131.236 Y106.707 E.01736
G1 X106.707 Y131.236 E1.12406
G1 X106.172 Y131.236 E.01736
G1 X131.236 Y106.172 E1.14861
G1 X131.236 Y105.636 E.01736
G1 X105.636 Y131.236 E1.17315
G1 X105.1 Y131.236 E.01736
G1 X131.236 Y105.1 E1.1977
M73 P78 R0
G1 X131.236 Y104.565 E.01736
G1 X104.565 Y131.236 E1.22224
G1 X104.029 Y131.236 E.01736
G1 X131.236 Y104.029 E1.24679
G1 X131.236 Y103.494 E.01736
G1 X103.494 Y131.236 E1.27133
G1 X102.958 Y131.236 E.01736
G1 X131.236 Y102.958 E1.29588
G1 X131.236 Y102.422 E.01736
G1 X102.422 Y131.236 E1.32042
M73 P79 R0
G1 X101.887 Y131.236 E.01736
G1 X131.236 Y101.887 E1.34497
G1 X131.236 Y101.351 E.01736
G1 X101.351 Y131.236 E1.36951
G1 X100.816 Y131.236 E.01736
G1 X131.236 Y100.816 E1.39406
G1 X131.236 Y100.28 E.01736
G1 X100.28 Y131.236 E1.4186
M73 P80 R0
G1 X99.744 Y131.236 E.01736
G1 X131.236 Y99.744 E1.44315
G1 X131.236 Y99.209 E.01736
G1 X99.209 Y131.236 E1.46769
G1 X98.673 Y131.236 E.01736
G1 X131.236 Y98.673 E1.49224
G1 X131.236 Y98.138 E.01736
G1 X98.137 Y131.236 E1.51678
M73 P81 R0
G1 X97.602 Y131.236 E.01736
G1 X131.236 Y97.602 E1.54133
G1 X131.236 Y97.066 E.01736
G1 X97.066 Y131.236 E1.56587
G1 X96.531 Y131.236 E.01736
G1 X131.236 Y96.531 E1.59042
G1 X131.236 Y95.995 E.01736
G1 X95.995 Y131.236 E1.61496
M73 P82 R0
G1 X95.459 Y131.236 E.01736
G1 X131.236 Y95.46 E1.63951
G1 X131.236 Y94.924 E.01736
G1 X94.924 Y131.236 E1.66405
G1 X94.388 Y131.236 E.01736
G1 X131.236 Y94.388 E1.6886
G1 X131.236 Y93.853 E.01736
G1 X93.853 Y131.236 E1.71314
M73 P83 R0
G1 X93.317 Y131.236 E.01736
G1 X131.236 Y93.317 E1.73769
G1 X131.236 Y92.781 E.01736
G1 X92.781 Y131.236 E1.76223
G1 X92.246 Y131.236 E.01736
G1 X131.236 Y92.246 E1.78678
G1 X131.236 Y91.71 E.01736
G1 X91.71 Y131.236 E1.81132
M73 P84 R0
G1 X91.175 Y131.236 E.01736
G1 X131.236 Y91.175 E1.83587
G1 X131.236 Y90.639 E.01736
G1 X90.639 Y131.236 E1.86041
G1 X90.103 Y131.236 E.01736
G1 X131.236 Y90.103 E1.88496
M73 P85 R0
G1 X131.236 Y89.568 E.01736
G1 X89.568 Y131.236 E1.9095
G1 X89.032 Y131.236 E.01736
G1 X131.236 Y89.032 E1.93405
G1 X131.236 Y88.764 E.00868
G1 X130.968 Y88.764 E.00868
G1 X88.764 Y130.968 E1.93405
G1 X88.764 Y130.432 E.01736
G1 X130.432 Y88.764 E1.9095
M73 P86 R0
