; HEADER_BLOCK_START
; generated by OrcaSlicer 1.6.4-beta3 on 2023-08-17 at 20:21:44
; total layer number: 4
; HEADER_BLOCK_END

; THUMBNAIL_BLOCK_START
; THUMBNAIL_BLOCK_END

; external perimeters extrusion width = 0.44mm
; perimeters extrusion width = 0.42mm
; infill extrusion width = 0.50mm
; solid infill extrusion width = 0.44mm
; top infill extrusion width = 0.42mm
; first layer extrusion width = 0.56mm

; EXECUTABLE_BLOCK_START
EXCLUDE_OBJECT_DEFINE NAME=Cube_id_0_copy_0 CENTER=67.9607,80.0068 POLYGON=[[65.4607,77.5068],[70.4607,77.5068],[70.4607,82.5068],[65.4607,82.5068],[65.4607,77.5068]]
M73 P0 R6
;TYPE:Custom
M190 S0 ; Remove this if autoemit_temperature_commands is off in Prusa Slicer 2.6 and later
M109 S0 ; Remove this if autoemit_temperature_commands is off in Prusa Slicer 2.6 and later
_PRINT_START_PHASE_INIT EXTRUDER=230 BED=60 MESH_MIN=65.4607,77.5068 MESH_MAX=70.4607,82.5068 LAYERS=4 NOZZLE_SIZE=0.4
; Insert custom gcode here.
_PRINT_START_PHASE_PREHEAT
; Insert custom gcode here.
_PRINT_START_PHASE_PROBING
; Insert custom gcode here.
_PRINT_START_PHASE_EXTRUDER
; Insert custom gcode here.
_PRINT_START_PHASE_PURGE

; This is the place to put slicer purge lines if you haven't set a non-zero
; variable_start_purge_length to have START_PRINT automatically calculate and 
; perform the purge (e.g. if using a Mosaic Palette, which requires the slicer
; to generate the purge).
G90
G21
M83 ; use relative distances for extrusion
; filament start gcode
;LAYER_CHANGE
;Z:0.25
;HEIGHT:0.25
;BEFORE_LAYER_CHANGE
;0.25
BEFORE_LAYER_CHANGE HEIGHT=0.25 LAYER=0
G1 E-.4 F1800
;AFTER_LAYER_CHANGE
;0.25
AFTER_LAYER_CHANGE
SET_VELOCITY_LIMIT ACCEL=3000 ACCEL_TO_DECEL=1500
;CUSTOM_GCODE
; start pressure advance pattern for layer
G1 E-.4
G1 X65.461 Y84.507 F9000
G1 E.4 F1200
G1 Z.25 F9000
SET_PRESSURE_ADVANCE ADVANCE=0; Override pressure advance value
G1 E-.4 F1800
G1 X65.461 Y84.507 F9000
G1 E.4 F1200
G1 F1800
G1 X65.461 Y126.933 E2.29761

G1 X149.539 Y126.933 E4.55329

M73 P1 R6
G1 X149.539 Y84.507 E2.29761

M73 P1 R5
G1 X65.461 Y84.507 E4.55329
M73 P2 R5
G1 E-.4
G1 X65.967 Y85.013 F9000
G1 E.4 F1200
G1 F1800
G1 X65.967 Y126.427 E2.24277

G1 X149.033 Y126.427 E4.49845

M73 P3 R5
G1 X149.033 Y85.013 E2.24277

M73 P4 R5
G1 X65.967 Y85.013 E4.49845
G1 E-.4
G1 X66.473 Y85.519 F9000
G1 E.4 F1200
G1 F1800
G1 X66.473 Y125.921 E2.18792

M73 P5 R5
G1 X148.527 Y125.921 E4.44361

M73 P6 R5
G1 X148.527 Y85.519 E2.18792

G1 X66.473 Y85.519 E4.44361
M73 P7 R5
G1 E-.4
G1 X65.461 Y127.44 F9000
G1 E.4 F1200
G1 F1800
G1 X65.461 Y140.946 E.73144

G1 X129.73 Y140.946 E3.48054

G1 X129.73 Y127.44 E.73144

M73 P8 R5
G1 X65.461 Y127.44 E3.48054
G1 E-.4
G1 X65.967 Y127.946 F9000
G1 E.4 F1200
G1 F1800
G1 X65.967 Y140.44 E.6766

G1 X129.224 Y140.44 E3.4257

M73 P9 R5
G1 X129.224 Y127.946 E.6766

G1 X65.967 Y127.946 E3.4257
M73 P10 R5
G1 E-.4
G1 X66.473 Y128.452 F9000
G1 E.4 F1200
G1 F1800
G1 X66.473 Y139.933 E.62175

G1 X128.718 Y139.933 E3.37086

G1 X128.718 Y128.452 E.62175

G1 X66.473 Y128.452 E3.37086
M73 P11 R5
G1 E-.4
G1 X66.847 Y128.826 F9000
G1 E.4 F1200
G1 E-.4 F1800
G1 X67.563 Y128.826 F9000
G1 E.4 F1200
G1 F1800
G1 X66.847 Y129.542 E.05484
G1 E-.4
G1 X66.847 Y130.258 F9000
G1 E.4 F1200
G1 F1800
G1 X68.279 Y128.826 E.10969
G1 E-.4
G1 X68.995 Y128.826 F9000
G1 E.4 F1200
G1 F1800
G1 X66.847 Y130.974 E.16453
G1 E-.4
G1 X66.847 Y131.69 F9000
G1 E.4 F1200
G1 F1800
G1 X69.711 Y128.826 E.21937
G1 E-.4
G1 X70.427 Y128.826 F9000
G1 E.4 F1200
G1 F1800
G1 X66.847 Y132.406 E.27421
G1 E-.4
G1 X66.847 Y133.122 F9000
G1 E.4 F1200
G1 F1800
G1 X71.143 Y128.826 E.32906
G1 E-.4
G1 X71.859 Y128.826 F9000
G1 E.4 F1200
G1 F1800
G1 X66.847 Y133.838 E.3839
G1 E-.4
G1 X66.847 Y134.554 F9000
G1 E.4 F1200
G1 F1800
G1 X72.575 Y128.826 E.43874
M73 P12 R5
G1 E-.4
G1 X73.291 Y128.826 F9000
G1 E.4 F1200
G1 F1800
G1 X66.847 Y135.27 E.49359
G1 E-.4
G1 X66.847 Y135.986 F9000
G1 E.4 F1200
G1 F1800
G1 X74.008 Y128.826 E.54843
G1 E-.4
G1 X74.724 Y128.826 F9000
G1 E.4 F1200
G1 F1800
G1 X66.847 Y136.703 E.60327
G1 E-.4
G1 X66.847 Y137.419 F9000
G1 E.4 F1200
G1 F1800
G1 X75.44 Y128.826 E.65811
G1 E-.4
G1 X76.156 Y128.826 F9000
G1 E.4 F1200
G1 F1800
G1 X66.847 Y138.135 E.71296
G1 E-.4
G1 X66.847 Y138.851 F9000
G1 E.4 F1200
G1 F1800
G1 X76.872 Y128.826 E.7678
G1 E-.4
G1 X77.588 Y128.826 F9000
G1 E.4 F1200
G1 F1800
G1 X66.854 Y139.56 E.82211
G1 E-.4
G1 X67.57 Y139.56 F9000
G1 E.4 F1200
G1 F1800
G1 X78.304 Y128.826 E.82211
M73 P13 R5
G1 E-.4
G1 X79.02 Y128.826 F9000
G1 E.4 F1200
G1 F1800
G1 X68.286 Y139.56 E.82211
G1 E-.4
G1 X69.002 Y139.56 F9000
G1 E.4 F1200
G1 F1800
G1 X79.736 Y128.826 E.82211
G1 E-.4
G1 X80.452 Y128.826 F9000
G1 E.4 F1200
G1 F1800
G1 X69.718 Y139.56 E.82211
G1 E-.4
G1 X70.434 Y139.56 F9000
G1 E.4 F1200
G1 F1800
G1 X81.168 Y128.826 E.82211
G1 E-.4
G1 X81.885 Y128.826 F9000
G1 E.4 F1200
G1 F1800
G1 X71.15 Y139.56 E.82211
G1 E-.4
G1 X71.866 Y139.56 F9000
G1 E.4 F1200
G1 F1800
G1 X82.601 Y128.826 E.82211
M73 P14 R5
G1 E-.4
G1 X83.317 Y128.826 F9000
G1 E.4 F1200
G1 F1800
G1 X72.582 Y139.56 E.82211
G1 E-.4
G1 X73.298 Y139.56 F9000
G1 E.4 F1200
G1 F1800
G1 X84.033 Y128.826 E.82211
G1 E-.4
G1 X84.749 Y128.826 F9000
G1 E.4 F1200
G1 F1800
G1 X74.015 Y139.56 E.82211
G1 E-.4
G1 X74.731 Y139.56 F9000
G1 E.4 F1200
G1 F1800
G1 X85.465 Y128.826 E.82211
G1 E-.4
G1 X86.181 Y128.826 F9000
G1 E.4 F1200
G1 F1800
G1 X75.447 Y139.56 E.82211
G1 E-.4
G1 X76.163 Y139.56 F9000
G1 E.4 F1200
G1 F1800
G1 X86.897 Y128.826 E.82211
M73 P15 R5
G1 E-.4
G1 X87.613 Y128.826 F9000
G1 E.4 F1200
G1 F1800
G1 X76.879 Y139.56 E.82211
G1 E-.4
G1 X77.595 Y139.56 F9000
G1 E.4 F1200
G1 F1800
G1 X88.329 Y128.826 E.82211
G1 E-.4
G1 X89.045 Y128.826 F9000
G1 E.4 F1200
G1 F1800
G1 X78.311 Y139.56 E.82211
G1 E-.4
G1 X79.027 Y139.56 F9000
G1 E.4 F1200
G1 F1800
G1 X89.761 Y128.826 E.82211
G1 E-.4
G1 X90.478 Y128.826 F9000
G1 E.4 F1200
G1 F1800
G1 X79.743 Y139.56 E.82211
G1 E-.4
G1 X80.459 Y139.56 F9000
G1 E.4 F1200
G1 F1800
G1 X91.194 Y128.826 E.82211
M73 P16 R5
G1 E-.4
G1 X91.91 Y128.826 F9000
G1 E.4 F1200
G1 F1800
G1 X81.175 Y139.56 E.82211
G1 E-.4
G1 X81.892 Y139.56 F9000
G1 E.4 F1200
G1 F1800
G1 X92.626 Y128.826 E.82211
G1 E-.4
G1 X93.342 Y128.826 F9000
G1 E.4 F1200
G1 F1800
G1 X82.608 Y139.56 E.82211
G1 E-.4
G1 X83.324 Y139.56 F9000
G1 E.4 F1200
G1 F1800
G1 X94.058 Y128.826 E.82211
G1 E-.4
G1 X94.774 Y128.826 F9000
G1 E.4 F1200
G1 F1800
G1 X84.04 Y139.56 E.82211
G1 E-.4
G1 X84.756 Y139.56 F9000
G1 E.4 F1200
G1 F1800
G1 X95.49 Y128.826 E.82211
M73 P17 R5
G1 E-.4
G1 X96.206 Y128.826 F9000
G1 E.4 F1200
G1 F1800
G1 X85.472 Y139.56 E.82211
G1 E-.4
G1 X86.188 Y139.56 F9000
G1 E.4 F1200
G1 F1800
G1 X96.922 Y128.826 E.82211
G1 E-.4
G1 X97.638 Y128.826 F9000
G1 E.4 F1200
G1 F1800
G1 X86.904 Y139.56 E.82211
G1 E-.4
G1 X87.62 Y139.56 F9000
G1 E.4 F1200
G1 F1800
G1 X98.354 Y128.826 E.82211
G1 E-.4
G1 X99.071 Y128.826 F9000
G1 E.4 F1200
G1 F1800
G1 X88.336 Y139.56 E.82211
G1 E-.4
G1 X89.052 Y139.56 F9000
G1 E.4 F1200
G1 F1800
G1 X99.787 Y128.826 E.82211
M73 P18 R4
G1 E-.4
G1 X100.503 Y128.826 F9000
G1 E.4 F1200
G1 F1800
G1 X89.768 Y139.56 E.82211
G1 E-.4
G1 X90.485 Y139.56 F9000
G1 E.4 F1200
G1 F1800
G1 X101.219 Y128.826 E.82211
G1 E-.4
G1 X101.935 Y128.826 F9000
G1 E.4 F1200
G1 F1800
G1 X91.201 Y139.56 E.82211
G1 E-.4
G1 X91.917 Y139.56 F9000
G1 E.4 F1200
G1 F1800
G1 X102.651 Y128.826 E.82211
G1 E-.4
G1 X103.367 Y128.826 F9000
G1 E.4 F1200
G1 F1800
G1 X92.633 Y139.56 E.82211
G1 E-.4
G1 X93.349 Y139.56 F9000
G1 E.4 F1200
G1 F1800
G1 X104.083 Y128.826 E.82211
G1 E-.4
G1 X104.799 Y128.826 F9000
G1 E.4 F1200
M73 P19 R4
G1 F1800
G1 X94.065 Y139.56 E.82211
G1 E-.4
G1 X94.781 Y139.56 F9000
G1 E.4 F1200
G1 F1800
G1 X105.515 Y128.826 E.82211
G1 E-.4
G1 X106.231 Y128.826 F9000
G1 E.4 F1200
G1 F1800
G1 X95.497 Y139.56 E.82211
G1 E-.4
G1 X96.213 Y139.56 F9000
G1 E.4 F1200
G1 F1800
G1 X106.948 Y128.826 E.82211
G1 E-.4
G1 X107.664 Y128.826 F9000
G1 E.4 F1200
G1 F1800
G1 X96.929 Y139.56 E.82211
G1 E-.4
G1 X97.645 Y139.56 F9000
G1 E.4 F1200
G1 F1800
G1 X108.38 Y128.826 E.82211
G1 E-.4
G1 X109.096 Y128.826 F9000
G1 E.4 F1200
G1 F1800
G1 X98.362 Y139.56 E.82211
M73 P20 R4
G1 E-.4
G1 X99.078 Y139.56 F9000
G1 E.4 F1200
G1 F1800
G1 X109.812 Y128.826 E.82211
G1 E-.4
G1 X110.528 Y128.826 F9000
G1 E.4 F1200
G1 F1800
G1 X99.794 Y139.56 E.82211
G1 E-.4
G1 X100.51 Y139.56 F9000
G1 E.4 F1200
G1 F1800
G1 X111.244 Y128.826 E.82211
G1 E-.4
G1 X111.96 Y128.826 F9000
G1 E.4 F1200
G1 F1800
G1 X101.226 Y139.56 E.82211
G1 E-.4
G1 X101.942 Y139.56 F9000
G1 E.4 F1200
G1 F1800
G1 X112.676 Y128.826 E.82211
G1 E-.4
G1 X113.392 Y128.826 F9000
G1 E.4 F1200
G1 F1800
G1 X102.658 Y139.56 E.82211
M73 P21 R4
G1 E-.4
G1 X103.374 Y139.56 F9000
G1 E.4 F1200
G1 F1800
G1 X114.108 Y128.826 E.82211
G1 E-.4
G1 X114.824 Y128.826 F9000
G1 E.4 F1200
G1 F1800
G1 X104.09 Y139.56 E.82211
G1 E-.4
G1 X104.806 Y139.56 F9000
G1 E.4 F1200
G1 F1800
G1 X115.541 Y128.826 E.82211
G1 E-.4
G1 X116.257 Y128.826 F9000
G1 E.4 F1200
G1 F1800
G1 X105.522 Y139.56 E.82211
G1 E-.4
G1 X106.238 Y139.56 F9000
G1 E.4 F1200
G1 F1800
G1 X116.973 Y128.826 E.82211
G1 E-.4
G1 X117.689 Y128.826 F9000
G1 E.4 F1200
G1 F1800
G1 X106.955 Y139.56 E.82211
M73 P22 R4
G1 E-.4
G1 X107.671 Y139.56 F9000
G1 E.4 F1200
G1 F1800
G1 X118.405 Y128.826 E.82211
G1 E-.4
G1 X119.121 Y128.826 F9000
G1 E.4 F1200
G1 F1800
G1 X108.387 Y139.56 E.82211
G1 E-.4
G1 X109.103 Y139.56 F9000
G1 E.4 F1200
G1 F1800
G1 X119.837 Y128.826 E.82211
G1 E-.4
G1 X120.553 Y128.826 F9000
G1 E.4 F1200
G1 F1800
G1 X109.819 Y139.56 E.82211
G1 E-.4
G1 X110.535 Y139.56 F9000
G1 E.4 F1200
G1 F1800
G1 X121.269 Y128.826 E.82211
G1 E-.4
G1 X121.985 Y128.826 F9000
G1 E.4 F1200
G1 F1800
G1 X111.251 Y139.56 E.82211
M73 P23 R4
G1 E-.4
G1 X111.967 Y139.56 F9000
G1 E.4 F1200
G1 F1800
G1 X122.701 Y128.826 E.82211
G1 E-.4
G1 X123.418 Y128.826 F9000
G1 E.4 F1200
G1 F1800
G1 X112.683 Y139.56 E.82211
G1 E-.4
G1 X113.399 Y139.56 F9000
G1 E.4 F1200
G1 F1800
G1 X124.134 Y128.826 E.82211
G1 E-.4
G1 X124.85 Y128.826 F9000
G1 E.4 F1200
G1 F1800
G1 X114.115 Y139.56 E.82211
G1 E-.4
G1 X114.831 Y139.56 F9000
G1 E.4 F1200
G1 F1800
G1 X125.566 Y128.826 E.82211
G1 E-.4
G1 X126.282 Y128.826 F9000
G1 E.4 F1200
G1 F1800
G1 X115.548 Y139.56 E.82211
M73 P24 R4
G1 E-.4
G1 X116.264 Y139.56 F9000
G1 E.4 F1200
G1 F1800
G1 X126.998 Y128.826 E.82211
G1 E-.4
G1 X127.714 Y128.826 F9000
G1 E.4 F1200
G1 F1800
G1 X116.98 Y139.56 E.82211
G1 E-.4
G1 X117.696 Y139.56 F9000
G1 E.4 F1200
G1 F1800
G1 X128.344 Y128.911 E.81554
G1 E-.4
G1 X128.344 Y129.627 F9000
G1 E.4 F1200
G1 F1800
G1 X118.412 Y139.56 E.7607
G1 E-.4
G1 X119.128 Y139.56 F9000
G1 E.4 F1200
G1 F1800
G1 X128.344 Y130.343 E.70586
G1 E-.4
G1 X128.344 Y131.06 F9000
G1 E.4 F1200
G1 F1800
G1 X119.844 Y139.56 E.65102
G1 E-.4
G1 X120.56 Y139.56 F9000
G1 E.4 F1200
G1 F1800
G1 X128.344 Y131.776 E.59617
M73 P25 R4
G1 E-.4
G1 X128.344 Y132.492 F9000
G1 E.4 F1200
G1 F1800
G1 X121.276 Y139.56 E.54133
G1 E-.4
G1 X121.992 Y139.56 F9000
G1 E.4 F1200
G1 F1800
G1 X128.344 Y133.208 E.48649
G1 E-.4
G1 X128.344 Y133.924 F9000
G1 E.4 F1200
G1 F1800
G1 X122.708 Y139.56 E.43164
G1 E-.4
G1 X123.425 Y139.56 F9000
G1 E.4 F1200
G1 F1800
G1 X128.344 Y134.64 E.3768
G1 E-.4
G1 X128.344 Y135.356 F9000
G1 E.4 F1200
G1 F1800
G1 X124.141 Y139.56 E.32196
G1 E-.4
G1 X124.857 Y139.56 F9000
G1 E.4 F1200
G1 F1800
G1 X128.344 Y136.072 E.26712
G1 E-.4
G1 X128.344 Y136.788 F9000
G1 E.4 F1200
G1 F1800
G1 X125.573 Y139.56 E.21227
G1 E-.4
G1 X126.289 Y139.56 F9000
G1 E.4 F1200
G1 F1800
G1 X128.344 Y137.504 E.15743
G1 E-.4
G1 X128.344 Y138.22 F9000
G1 E.4 F1200
G1 F1800
G1 X127.005 Y139.56 E.10259
G1 E-.4
G1 X127.721 Y139.56 F9000
G1 E.4 F1200
G1 F1800
G1 X128.344 Y138.936 E.04774
G1 E-.4
G1 X69.419 Y85.893 F9000
G1 E.4 F1200
SET_PRESSURE_ADVANCE ADVANCE=0; Override pressure advance value
G1 F1800
G1 X89.247 Y105.72 E1.18862

M73 P26 R4
G1 X69.419 Y125.547 E1.18862
G1 E-.4
G1 X69.995 Y85.893 F9000
G1 E.4 F1200
G1 F1800
G1 X89.822 Y105.72 E1.18862

G1 X69.995 Y125.547 E1.18862
M73 P27 R4
G1 E-.4
G1 X70.571 Y85.893 F9000
G1 E.4 F1200
G1 F1800
G1 X90.398 Y105.72 E1.18862

G1 X70.571 Y125.547 E1.18862
G1 E-.4
G1 X73.021 Y85.893 F9000
G1 E.4 F1200
SET_PRESSURE_ADVANCE ADVANCE=0.005; Override pressure advance value
G1 F1800
G1 X92.848 Y105.72 E1.18862

M73 P28 R4
G1 X73.021 Y125.547 E1.18862
G1 E-.4
G1 X73.596 Y85.893 F9000
G1 E.4 F1200
G1 F1800
G1 X93.424 Y105.72 E1.18862

G1 X73.596 Y125.547 E1.18862
G1 E-.4
G1 X74.172 Y85.893 F9000
M73 P29 R4
G1 E.4 F1200
G1 F1800
G1 X93.999 Y105.72 E1.18862

G1 X74.172 Y125.547 E1.18862
G1 E-.4
G1 X76.622 Y85.893 F9000
G1 E.4 F1200
SET_PRESSURE_ADVANCE ADVANCE=0.01; Override pressure advance value
G1 F1800
G1 X96.449 Y105.72 E1.18862

G1 X76.622 Y125.547 E1.18862
M73 P30 R4
G1 E-.4
G1 X77.198 Y85.893 F9000
G1 E.4 F1200
G1 F1800
G1 X97.025 Y105.72 E1.18862

G1 X77.198 Y125.547 E1.18862
G1 E-.4
G1 X77.774 Y85.893 F9000
G1 E.4 F1200
G1 F1800
G1 X97.601 Y105.72 E1.18862

M73 P31 R4
G1 X77.774 Y125.547 E1.18862
G1 E-.4
G1 X80.224 Y85.893 F9000
G1 E.4 F1200
SET_PRESSURE_ADVANCE ADVANCE=0.015; Override pressure advance value
G1 F1800
G1 X100.051 Y105.72 E1.18862

G1 X80.224 Y125.547 E1.18862
M73 P32 R4
G1 E-.4
G1 X80.799 Y85.893 F9000
G1 E.4 F1200
G1 F1800
G1 X100.626 Y105.72 E1.18862

G1 X80.799 Y125.547 E1.18862
G1 E-.4
G1 X81.375 Y85.893 F9000
G1 E.4 F1200
G1 F1800
G1 X101.202 Y105.72 E1.18862

M73 P33 R4
G1 X81.375 Y125.547 E1.18862
G1 E-.4
G1 X83.825 Y85.893 F9000
G1 E.4 F1200
SET_PRESSURE_ADVANCE ADVANCE=0.02; Override pressure advance value
G1 F1800
G1 X103.652 Y105.72 E1.18862

G1 X83.825 Y125.547 E1.18862
G1 E-.4
G1 X84.401 Y85.893 F9000
G1 E.4 F1200
G1 F1800
G1 X104.228 Y105.72 E1.18862

M73 P34 R4
G1 X84.401 Y125.547 E1.18862
M73 P34 R3
G1 E-.4
G1 X84.976 Y85.893 F9000
G1 E.4 F1200
G1 F1800
G1 X104.804 Y105.72 E1.18862

G1 X84.976 Y125.547 E1.18862
M73 P35 R3
G1 E-.4
G1 X87.426 Y85.893 F9000
G1 E.4 F1200
SET_PRESSURE_ADVANCE ADVANCE=0.025; Override pressure advance value
G1 F1800
G1 X107.254 Y105.72 E1.18862

G1 X87.426 Y125.547 E1.18862
G1 E-.4
G1 X88.002 Y85.893 F9000
G1 E.4 F1200
G1 F1800
G1 X107.829 Y105.72 E1.18862

M73 P36 R3
G1 X88.002 Y125.547 E1.18862
G1 E-.4
G1 X88.578 Y85.893 F9000
G1 E.4 F1200
G1 F1800
G1 X108.405 Y105.72 E1.18862

G1 X88.578 Y125.547 E1.18862
G1 E-.4
G1 X91.028 Y85.893 F9000
M73 P37 R3
G1 E.4 F1200
SET_PRESSURE_ADVANCE ADVANCE=0.03; Override pressure advance value
G1 F1800
G1 X110.855 Y105.72 E1.18862

G1 X91.028 Y125.547 E1.18862
G1 E-.4
G1 X91.603 Y85.893 F9000
G1 E.4 F1200
G1 F1800
G1 X111.431 Y105.72 E1.18862

G1 X91.603 Y125.547 E1.18862
M73 P38 R3
G1 E-.4
G1 X92.179 Y85.893 F9000
G1 E.4 F1200
G1 F1800
G1 X112.006 Y105.72 E1.18862

G1 X92.179 Y125.547 E1.18862
G1 E-.4
G1 X94.629 Y85.893 F9000
G1 E.4 F1200
SET_PRESSURE_ADVANCE ADVANCE=0.035; Override pressure advance value
G1 F1800
G1 X114.456 Y105.72 E1.18862

M73 P39 R3
G1 X94.629 Y125.547 E1.18862
G1 E-.4
G1 X95.205 Y85.893 F9000
G1 E.4 F1200
G1 F1800
G1 X115.032 Y105.72 E1.18862

G1 X95.205 Y125.547 E1.18862
M73 P40 R3
G1 E-.4
G1 X95.781 Y85.893 F9000
G1 E.4 F1200
G1 F1800
G1 X115.608 Y105.72 E1.18862

G1 X95.781 Y125.547 E1.18862
G1 E-.4
G1 X98.231 Y85.893 F9000
G1 E.4 F1200
SET_PRESSURE_ADVANCE ADVANCE=0.04; Override pressure advance value
G1 F1800
G1 X118.058 Y105.72 E1.18862

M73 P41 R3
G1 X98.231 Y125.547 E1.18862
G1 E-.4
G1 X98.806 Y85.893 F9000
G1 E.4 F1200
G1 F1800
G1 X118.633 Y105.72 E1.18862

G1 X98.806 Y125.547 E1.18862
G1 E-.4
G1 X99.382 Y85.893 F9000
M73 P42 R3
G1 E.4 F1200
G1 F1800
G1 X119.209 Y105.72 E1.18862

G1 X99.382 Y125.547 E1.18862
G1 E-.4
G1 X101.832 Y85.893 F9000
G1 E.4 F1200
SET_PRESSURE_ADVANCE ADVANCE=0.045; Override pressure advance value
G1 F1800
G1 X121.659 Y105.72 E1.18862

G1 X101.832 Y125.547 E1.18862
M73 P43 R3
G1 E-.4
G1 X102.408 Y85.893 F9000
G1 E.4 F1200
G1 F1800
G1 X122.235 Y105.72 E1.18862

G1 X102.408 Y125.547 E1.18862
G1 E-.4
G1 X102.983 Y85.893 F9000
G1 E.4 F1200
G1 F1800
G1 X122.811 Y105.72 E1.18862

M73 P44 R3
G1 X102.983 Y125.547 E1.18862
G1 E-.4
G1 X105.433 Y85.893 F9000
G1 E.4 F1200
