; HEADER_BLOCK_START
; generated by OrcaSlicer 1.6.4-beta3 on 2023-08-17 at 17:04:32
; total layer number: 99
; HEADER_BLOCK_END

; THUMBNAIL_BLOCK_START
; THUMBNAIL_BLOCK_END

; external perimeters extrusion width = 0.44mm
; perimeters extrusion width = 0.42mm
; infill extrusion width = 0.50mm
; solid infill extrusion width = 0.44mm
; top infill extrusion width = 0.42mm
; first layer extrusion width = 0.56mm

; EXECUTABLE_BLOCK_START
EXCLUDE_OBJECT_DEFINE NAME=xyz_calibration_cube.stl_id_0_copy_0 CENTER=110,110 POLYGON=[[100,100],[120,100],[120,120],[100,120],[100,100]]
M73 P0 R17
;TYPE:Custom
M190 S0 ; Remove this if autoemit_temperature_commands is off in Prusa Slicer 2.6 and later
M109 S0 ; Remove this if autoemit_temperature_commands is off in Prusa Slicer 2.6 and later
_PRINT_START_PHASE_INIT EXTRUDER=230 BED=60 MESH_MIN=100,100 MESH_MAX=120,120 LAYERS=99 NOZZLE_SIZE=0.4
; Insert custom gcode here.
_PRINT_START_PHASE_PREHEAT
; Insert custom gcode here.
_PRINT_START_PHASE_PROBING
; Insert custom gcode here.
_PRINT_START_PHASE_EXTRUDER
; Insert custom gcode here.
_PRINT_START_PHASE_PURGE

; This is the place to put slicer purge lines if you haven't set a non-zero
; variable_start_purge_length to have START_PRINT automatically calculate and 
; perform the purge (e.g. if using a Mosaic Palette, which requires the slicer
; to generate the purge).
G90
G21
M83 ; use relative distances for extrusion
; filament start gcode
;LAYER_CHANGE
;Z:0.36
;HEIGHT:0.36
;BEFORE_LAYER_CHANGE
;0.36
BEFORE_LAYER_CHANGE HEIGHT=0.36 LAYER=0
G1 E-.4 F1800
;AFTER_LAYER_CHANGE
;0.36
AFTER_LAYER_CHANGE
SET_VELOCITY_LIMIT ACCEL=3000 ACCEL_TO_DECEL=1500
; printing object xyz_calibration_cube.stl id:0 copy 0
EXCLUDE_OBJECT_START NAME=xyz_calibration_cube.stl_id_0_copy_0
G1 Z.4 F9000
G1 X101.245 Y101.245
G1 Z.4
G1 Z.36
G1 E.4 F1200
;TYPE:Inner wall
;WIDTH:0.56
G1 F3000
G1 X118.755 Y101.245 E1.30176
G1 X118.755 Y118.755 E1.30176
G1 X101.245 Y118.755 E1.30176
G1 X101.245 Y101.285 E1.29878
G1 X100.763 Y100.763 F9000
G1 F3000
G1 X119.237 Y100.763 E1.37354
G1 X119.237 Y119.237 E1.37354
G1 X100.763 Y119.237 E1.37354
G1 X100.763 Y100.803 E1.37057
G1 X100.28 Y100.28 F9000
;TYPE:Outer wall
G1 F3000
G1 X119.72 Y100.28 E1.44532
G1 X119.72 Y119.72 E1.44532
G1 X100.28 Y119.72 E1.44532
G1 X100.28 Y100.32 E1.44235
G1 E-.4 F1800
G1 Z.76 F9000
G1 X117.622 Y101.39 Z.76
G1 Z.36
G1 E.4 F1200
;TYPE:Internal solid infill
;WIDTH:0.56566
G1 F3000
G1 X118.392 Y102.161 E.08198
G1 X118.392 Y102.852 E.05195
G1 X117.148 Y101.608 E.13234
G1 X116.458 Y101.608 E.05195
G1 X118.392 Y103.542 E.20582
G1 X118.392 Y104.233 E.05195
G1 X115.767 Y101.608 E.27929
G1 X115.076 Y101.608 E.05195
G1 X118.392 Y104.924 E.35277
G1 X118.392 Y105.614 E.05195
G1 X114.386 Y101.608 E.42624
G1 X113.695 Y101.608 E.05195
G1 X118.392 Y106.305 E.49972
G1 X118.392 Y106.996 E.05195
G1 X113.004 Y101.608 E.57319
G1 X112.313 Y101.608 E.05195
G1 X118.392 Y107.687 E.64667
G1 X118.392 Y108.377 E.05195
G1 X111.623 Y101.608 E.72014
G1 X110.932 Y101.608 E.05195
G1 X118.392 Y109.068 E.79362
G1 X118.392 Y109.759 E.05195
G1 X110.241 Y101.608 E.86709
G1 X109.551 Y101.608 E.05195
G1 X118.392 Y110.449 E.94057
G1 X118.392 Y111.14 E.05195
G1 X108.86 Y101.608 E1.01404
G1 X108.169 Y101.608 E.05195
G1 X118.392 Y111.831 E1.08751
G1 X118.392 Y112.522 E.05195
G1 X107.478 Y101.608 E1.16099
G1 X106.788 Y101.608 E.05195
G1 X118.392 Y113.212 E1.23446
G1 X118.392 Y113.903 E.05195
G1 X106.097 Y101.608 E1.30794
G1 X105.406 Y101.608 E.05195
G1 X118.392 Y114.594 E1.38141
M73 P1 R17
G1 X118.392 Y115.284 E.05195
G1 X104.716 Y101.608 E1.45489
G1 X104.025 Y101.608 E.05195
G1 X118.392 Y115.975 E1.52836
G1 X118.392 Y116.666 E.05195
G1 X103.334 Y101.608 E1.60184
G1 X102.644 Y101.608 E.05195
G1 X118.392 Y117.356 E1.67531
G1 X118.392 Y118.047 E.05195
G1 X101.953 Y101.608 E1.74879
G1 X101.608 Y101.608 E.02597
G1 X101.608 Y101.953 E.02598
G1 X118.047 Y118.392 E1.74878
G1 X117.356 Y118.392 E.05195
G1 X101.608 Y102.644 E1.6753
G1 X101.608 Y103.334 E.05195
G1 X116.666 Y118.392 E1.60183
G1 X115.975 Y118.392 E.05195
G1 X101.608 Y104.025 E1.52835
G1 X101.608 Y104.716 E.05195
G1 X115.284 Y118.392 E1.45488
G1 X114.594 Y118.392 E.05195
G1 X101.608 Y105.406 E1.38141
G1 X101.608 Y106.097 E.05195
G1 X113.903 Y118.392 E1.30793
G1 X113.212 Y118.392 E.05195
G1 X101.608 Y106.788 E1.23446
G1 X101.608 Y107.479 E.05195
G1 X112.521 Y118.392 E1.16098
G1 X111.831 Y118.392 E.05195
G1 X101.608 Y108.169 E1.08751
G1 X101.608 Y108.86 E.05195
G1 X111.14 Y118.392 E1.01403
G1 X110.449 Y118.392 E.05195
G1 X101.608 Y109.551 E.94056
G1 X101.608 Y110.241 E.05195
G1 X109.759 Y118.392 E.86708
G1 X109.068 Y118.392 E.05195
G1 X101.608 Y110.932 E.79361
G1 X101.608 Y111.623 E.05195
G1 X108.377 Y118.392 E.72013
G1 X107.686 Y118.392 E.05195
G1 X101.608 Y112.314 E.64666
G1 X101.608 Y113.004 E.05195
G1 X106.996 Y118.392 E.57318
G1 X106.305 Y118.392 E.05195
G1 X101.608 Y113.695 E.49971
G1 X101.608 Y114.386 E.05195
G1 X105.614 Y118.392 E.42623
G1 X104.924 Y118.392 E.05195
G1 X101.608 Y115.076 E.35276
G1 X101.608 Y115.767 E.05195
G1 X104.233 Y118.392 E.27928
G1 X103.542 Y118.392 E.05195
G1 X101.608 Y116.458 E.20581
G1 X101.608 Y117.148 E.05195
G1 X102.852 Y118.392 E.13233
G1 X102.161 Y118.392 E.05195
G1 X101.39 Y117.622 E.08197
; stop printing object xyz_calibration_cube.stl id:0 copy 0
M106 S255

;LAYER_CHANGE
;Z:0.56
;HEIGHT:0.2
;BEFORE_LAYER_CHANGE
;0.56
BEFORE_LAYER_CHANGE HEIGHT=0.56 LAYER=1
G1 E-.28 F1800
;WIPE_START
G1 F3000
G1 X102.097 Y118.329 E-.114
;WIPE_END
G1 E-.006 F1800
EXCLUDE_OBJECT_END NAME=xyz_calibration_cube.stl_id_0_copy_0
;AFTER_LAYER_CHANGE
;0.56
AFTER_LAYER_CHANGE
M140 S60 ; set bed temperature
; printing object xyz_calibration_cube.stl id:0 copy 0
EXCLUDE_OBJECT_START NAME=xyz_calibration_cube.stl_id_0_copy_0
G1 Z.76 F18000
G1 X100.984 Y119.016 Z.76
G1 Z.56
G1 E.4 F1200
;TYPE:Inner wall
;WIDTH:0.42
G1 F3088
G1 X100.984 Y100.984 E.58177
G1 X119.016 Y100.984 E.58177
G1 X119.016 Y119.016 E.58177
M73 P2 R17
G1 X101.024 Y119.016 E.58048
G1 X100.607 Y119.393 F18000
G1 F3088
G1 X100.607 Y100.607 E.6061
G1 X109.155 Y100.607 E0.27578
M106 S252
G1 X119.393 Y100.607 E0.33032
G1 X119.393 Y119.393 E.6061
G1 X100.647 Y119.393 E.60481
G1 X100.22 Y119.78 F18000
;TYPE:Outer wall
;WIDTH:0.44
G1 F3088
G1 X100.22 Y100.22 E.66455
G1 X119.78 Y100.22 E.66455
G1 X119.78 Y119.78 E.66455
G1 X100.26 Y119.78 E.66319
G1 E-.4 F1800
G1 Z.96 F18000
G1 X118.094 Y118.904 Z.96
G1 Z.56
G1 E.4 F1200
;TYPE:Internal solid infill
;WIDTH:0.443572
G1 F3088
G1 X118.726 Y118.273 E.03062
G1 X118.726 Y117.706 E.01942
G1 X117.706 Y118.726 E.04943
G1 X117.139 Y118.726 E.01942
G1 X118.726 Y117.139 E.07689
G1 X118.726 Y116.573 E.01942
G1 X116.573 Y118.726 E.10436
G1 X116.006 Y118.726 E.01942
G1 X118.726 Y116.006 E.13183
G1 X118.726 Y115.44 E.01942
G1 X115.44 Y118.726 E.1593
G1 X114.873 Y118.726 E.01942
G1 X118.726 Y114.873 E.18677
G1 X118.726 Y114.306 E.01942
G1 X114.306 Y118.726 E.21424
G1 X113.74 Y118.726 E.01942
G1 X118.726 Y113.74 E.24171
G1 X118.726 Y113.173 E.01942
G1 X113.173 Y118.726 E.26918
G1 X112.607 Y118.726 E.01942
G1 X118.726 Y112.607 E.29665
G1 X118.726 Y112.04 E.01942
G1 X112.04 Y118.726 E.32412
G1 X111.473 Y118.726 E.01942
G1 X118.726 Y111.473 E.35159
G1 X118.726 Y110.907 E.01942
G1 X110.907 Y118.726 E.37905
G1 X110.34 Y118.726 E.01942
G1 X118.726 Y110.34 E.40652
G1 X118.726 Y109.774 E.01942
G1 X109.774 Y118.726 E.43399
G1 X109.207 Y118.726 E.01942
G1 X118.726 Y109.207 E.46146
G1 X118.726 Y108.64 E.01942
G1 X108.64 Y118.726 E.48893
G1 X108.074 Y118.726 E.01942
G1 X118.726 Y108.074 E.5164
M73 P2 R16
G1 X118.726 Y107.507 E.01942
G1 X107.507 Y118.726 E.54387
G1 X106.94 Y118.726 E.01942
G1 X118.726 Y106.94 E.57134
G1 X118.726 Y106.374 E.01942
G1 X106.374 Y118.726 E.59881
G1 X105.807 Y118.726 E.01942
G1 X118.726 Y105.807 E.62628
G1 X118.726 Y105.241 E.01942
G1 X105.241 Y118.726 E.65375
G1 X104.674 Y118.726 E.01942
G1 X118.726 Y104.674 E.68121
G1 X118.726 Y104.107 E.01942
G1 X104.107 Y118.726 E.70868
M73 P3 R16
G1 X103.541 Y118.726 E.01942
G1 X118.726 Y103.541 E.73615
G1 X118.726 Y102.974 E.01942
G1 X102.974 Y118.726 E.76362
G1 X102.408 Y118.726 E.01942
G1 X118.726 Y102.408 E.79109
G1 X118.726 Y101.841 E.01942
G1 X101.841 Y118.726 E.81856
G1 X101.274 Y118.725 E.01942
G1 X118.725 Y101.274 E.84602
G1 X118.159 Y101.274 E.01942
G1 X101.274 Y118.159 E.81855
G1 X101.274 Y117.592 E.01942
G1 X117.592 Y101.274 E.79109
G1 X117.026 Y101.274 E.01942
G1 X101.274 Y117.026 E.76362
G1 X101.274 Y116.459 E.01942
G1 X116.459 Y101.274 E.73615
G1 X115.892 Y101.274 E.01942
G1 X101.274 Y115.892 E.70868
G1 X101.274 Y115.326 E.01942
G1 X115.326 Y101.274 E.68121
G1 X114.759 Y101.274 E.01942
G1 X101.274 Y114.759 E.65374
G1 X101.274 Y114.193 E.01942
G1 X114.193 Y101.274 E.62627
G1 X113.626 Y101.274 E.01942
G1 X101.274 Y113.626 E.5988
G1 X101.274 Y113.059 E.01942
G1 X113.059 Y101.274 E.57133
G1 X112.493 Y101.274 E.01942
G1 X101.274 Y112.493 E.54386
G1 X101.274 Y111.926 E.01942
G1 X111.926 Y101.274 E.51639
G1 X111.36 Y101.274 E.01942
G1 X101.274 Y111.36 E.48893
G1 X101.274 Y110.793 E.01942
G1 X110.793 Y101.274 E.46146
G1 X110.226 Y101.274 E.01942
G1 X101.274 Y110.226 E.43399
G1 X101.274 Y109.66 E.01942
G1 X109.66 Y101.274 E.40652
G1 X109.093 Y101.274 E.01942
G1 X101.274 Y109.093 E.37905
G1 X101.274 Y108.527 E.01942
G1 X108.527 Y101.274 E.35158
G1 X107.96 Y101.274 E.01942
G1 X101.274 Y107.96 E.32411
G1 X101.274 Y107.393 E.01942
G1 X107.393 Y101.274 E.29664
G1 X106.827 Y101.274 E.01942
G1 X101.274 Y106.827 E.26917
G1 X101.274 Y106.26 E.01942
G1 X106.26 Y101.274 E.2417
G1 X105.694 Y101.274 E.01942
G1 X101.274 Y105.694 E.21423
G1 X101.274 Y105.127 E.01942
G1 X105.127 Y101.274 E.18677
M73 P4 R16
G1 X104.56 Y101.274 E.01942
G1 X101.274 Y104.56 E.1593
G1 X101.274 Y103.994 E.01942
G1 X103.994 Y101.274 E.13183
G1 X103.427 Y101.274 E.01942
G1 X101.274 Y103.427 E.10436
G1 X101.274 Y102.86 E.01942
G1 X102.86 Y101.274 E.07689
G1 X102.294 Y101.274 E.01942
G1 X101.274 Y102.294 E.04942
G1 X101.274 Y101.727 E.01942
G1 X101.906 Y101.096 E.03061
; stop printing object xyz_calibration_cube.stl id:0 copy 0
;LAYER_CHANGE
;Z:0.76
;HEIGHT:0.2
;BEFORE_LAYER_CHANGE
;0.76
BEFORE_LAYER_CHANGE HEIGHT=0.76 LAYER=2
G1 E-.28 F1800
;WIPE_START
G1 F12000
G1 X101.274 Y101.727 E-.10181
G1 X101.274 Y101.834 E-.01219
;WIPE_END
G1 E-.006 F1800
EXCLUDE_OBJECT_END NAME=xyz_calibration_cube.stl_id_0_copy_0
;AFTER_LAYER_CHANGE
;0.76
AFTER_LAYER_CHANGE
; printing object xyz_calibration_cube.stl id:0 copy 0
EXCLUDE_OBJECT_START NAME=xyz_calibration_cube.stl_id_0_copy_0
G1 Z.96 F18000
G1 X100.984 Y100.984 Z.96
G1 Z.76
G1 E.4 F1200
;TYPE:Inner wall
;WIDTH:0.42
G1 F3085
G1 X119.016 Y100.984 E.58177
G1 X119.016 Y119.016 E.58177
G1 X100.984 Y119.016 E.58177
G1 X100.984 Y101.024 E.58048
G1 X100.607 Y100.607 F18000
G1 F3085
G1 X119.393 Y100.607 E.6061
G1 X119.393 Y119.393 E.6061
G1 X100.607 Y119.393 E.6061
G1 X100.607 Y100.647 E.60481
G1 X100.22 Y100.22 F18000
;TYPE:Outer wall
;WIDTH:0.44
G1 F3085
G1 X119.78 Y100.22 E.66455
G1 X119.78 Y119.78 E.66455
G1 X100.22 Y119.78 E.66455
G1 X100.22 Y100.26 E.66319
G1 E-.4 F1800
G1 Z1.16 F18000
G1 X101.096 Y118.094 Z1.16
G1 Z.76
G1 E.4 F1200
;TYPE:Internal solid infill
;WIDTH:0.443572
G1 F3085
G1 X101.727 Y118.726 E.03061
G1 X102.294 Y118.726 E.01942
G1 X101.274 Y117.706 E.04942
G1 X101.274 Y117.14 E.01942
G1 X102.86 Y118.726 E.07689
G1 X103.427 Y118.726 E.01942
G1 X101.274 Y116.573 E.10436
G1 X101.274 Y116.006 E.01942
G1 X103.994 Y118.726 E.13183
G1 X104.56 Y118.726 E.01942
G1 X101.274 Y115.44 E.1593
G1 X101.274 Y114.873 E.01942
G1 X105.127 Y118.726 E.18677
G1 X105.694 Y118.726 E.01942
G1 X101.274 Y114.306 E.21423
G1 X101.274 Y113.74 E.01942
G1 X106.26 Y118.726 E.2417
G1 X106.827 Y118.726 E.01942
G1 X101.274 Y113.173 E.26917
G1 X101.274 Y112.607 E.01942
G1 X107.393 Y118.726 E.29664
G1 X107.96 Y118.726 E.01942
G1 X101.274 Y112.04 E.32411
G1 X101.274 Y111.473 E.01942
G1 X108.527 Y118.726 E.35158
G1 X109.093 Y118.726 E.01942
G1 X101.274 Y110.907 E.37905
G1 X101.274 Y110.34 E.01942
G1 X109.66 Y118.726 E.40652
G1 X110.226 Y118.726 E.01942
G1 X101.274 Y109.774 E.43399
G1 X101.274 Y109.207 E.01942
G1 X110.793 Y118.726 E.46146
G1 X111.36 Y118.726 E.01942
G1 X101.274 Y108.64 E.48893
G1 X101.274 Y108.074 E.01942
G1 X111.926 Y118.726 E.51639
G1 X112.493 Y118.726 E.01942
G1 X101.274 Y107.507 E.54386
G1 X101.274 Y106.941 E.01942
G1 X113.059 Y118.726 E.57133
G1 X113.626 Y118.726 E.01942
G1 X101.274 Y106.374 E.5988
M73 P5 R16
G1 X101.274 Y105.807 E.01942
G1 X114.193 Y118.726 E.62627
G1 X114.759 Y118.726 E.01942
G1 X101.274 Y105.241 E.65374
G1 X101.274 Y104.674 E.01942
G1 X115.326 Y118.726 E.68121
G1 X115.892 Y118.726 E.01942
G1 X101.274 Y104.108 E.70868
G1 X101.274 Y103.541 E.01942
G1 X116.459 Y118.726 E.73615
G1 X117.026 Y118.726 E.01942
G1 X101.274 Y102.974 E.76362
G1 X101.274 Y102.408 E.01942
G1 X117.592 Y118.726 E.79109
G1 X118.159 Y118.726 E.01942
G1 X101.274 Y101.841 E.81855
G1 X101.274 Y101.275 E.01942
G1 X118.725 Y118.726 E.84602
G1 X118.726 Y118.159 E.01942
G1 X101.841 Y101.274 E.81856
G1 X102.408 Y101.274 E.01942
G1 X118.726 Y117.592 E.79109
G1 X118.726 Y117.026 E.01942
G1 X102.974 Y101.274 E.76362
G1 X103.541 Y101.274 E.01942
G1 X118.726 Y116.459 E.73615
G1 X118.726 Y115.893 E.01942
G1 X104.107 Y101.274 E.70868
G1 X104.674 Y101.274 E.01942
G1 X118.726 Y115.326 E.68121
G1 X118.726 Y114.759 E.01942
G1 X105.241 Y101.274 E.65375
G1 X105.807 Y101.274 E.01942
G1 X118.726 Y114.193 E.62628
G1 X118.726 Y113.626 E.01942
G1 X106.374 Y101.274 E.59881
G1 X106.94 Y101.274 E.01942
G1 X118.726 Y113.06 E.57134
G1 X118.726 Y112.493 E.01942
G1 X107.507 Y101.274 E.54387
G1 X108.074 Y101.274 E.01942
G1 X118.726 Y111.926 E.5164
G1 X118.726 Y111.36 E.01942
G1 X108.64 Y101.274 E.48893
G1 X109.207 Y101.274 E.01942
G1 X118.726 Y110.793 E.46146
G1 X118.726 Y110.226 E.01942
G1 X109.774 Y101.274 E.43399
G1 X110.34 Y101.274 E.01942
G1 X118.726 Y109.66 E.40652
M73 P6 R16
G1 X118.726 Y109.093 E.01942
G1 X110.907 Y101.274 E.37905
G1 X111.473 Y101.274 E.01942
G1 X118.726 Y108.527 E.35159
G1 X118.726 Y107.96 E.01942
G1 X112.04 Y101.274 E.32412
G1 X112.607 Y101.274 E.01942
G1 X118.726 Y107.393 E.29665
G1 X118.726 Y106.827 E.01942
G1 X113.173 Y101.274 E.26918
G1 X113.74 Y101.274 E.01942
G1 X118.726 Y106.26 E.24171
G1 X118.726 Y105.694 E.01942
G1 X114.306 Y101.274 E.21424
G1 X114.873 Y101.274 E.01942
G1 X118.726 Y105.127 E.18677
G1 X118.726 Y104.56 E.01942
G1 X115.44 Y101.274 E.1593
G1 X116.006 Y101.274 E.01942
G1 X118.726 Y103.994 E.13183
G1 X118.726 Y103.427 E.01942
G1 X116.573 Y101.274 E.10436
G1 X117.139 Y101.274 E.01942
G1 X118.726 Y102.861 E.07689
G1 X118.726 Y102.294 E.01942
G1 X117.706 Y101.274 E.04943
G1 X118.273 Y101.274 E.01942
G1 X118.904 Y101.906 E.03062
; stop printing object xyz_calibration_cube.stl id:0 copy 0
;LAYER_CHANGE
;Z:0.96
;HEIGHT:0.2
;BEFORE_LAYER_CHANGE
;0.96
BEFORE_LAYER_CHANGE HEIGHT=0.96 LAYER=3
G1 E-.28 F1800
;WIPE_START
G1 F12000
G1 X118.273 Y101.274 E-.10183
G1 X118.166 Y101.274 E-.01217
;WIPE_END
G1 E-.006 F1800
EXCLUDE_OBJECT_END NAME=xyz_calibration_cube.stl_id_0_copy_0
;AFTER_LAYER_CHANGE
;0.96
AFTER_LAYER_CHANGE
; printing object xyz_calibration_cube.stl id:0 copy 0
EXCLUDE_OBJECT_START NAME=xyz_calibration_cube.stl_id_0_copy_0
G1 Z1.16 F18000
G1 X119.016 Y100.984 Z1.16
G1 Z.96
G1 E.4 F1200
;TYPE:Inner wall
;WIDTH:0.42
G1 F3085
G1 X119.016 Y119.016 E.58177
G1 X100.984 Y119.016 E.58177
G1 X100.984 Y100.984 E.58177
G1 X118.976 Y100.984 E.58048
G1 X119.393 Y100.607 F18000
G1 F3085
G1 X119.393 Y119.393 E.6061
G1 X100.607 Y119.393 E.6061
G1 X100.607 Y100.607 E.6061
G1 X119.353 Y100.607 E.60481
G1 X119.78 Y100.22 F18000
;TYPE:Outer wall
;WIDTH:0.44
G1 F3085
G1 X119.78 Y119.78 E.66455
G1 X100.22 Y119.78 E.66455
G1 X100.22 Y100.22 E.66455
G1 X119.74 Y100.22 E.66319
G1 E-.4 F1800
G1 Z1.36 F18000
G1 X101.906 Y101.096 Z1.36
G1 Z.96
G1 E.4 F1200
;TYPE:Internal solid infill
;WIDTH:0.443572
G1 F3085
G1 X101.274 Y101.727 E.03061
G1 X101.274 Y102.294 E.01942
G1 X102.294 Y101.274 E.04942
G1 X102.86 Y101.274 E.01942
G1 X101.274 Y102.86 E.07689
