; HEADER_BLOCK_START
; generated by OrcaSlicer 1.6.6 on 2023-09-03 at 12:26:35
; total layer number: 192
; HEADER_BLOCK_END

; THUMBNAIL_BLOCK_START
; THUMBNAIL_BLOCK_END

; external perimeters extrusion width = 0.48mm
; perimeters extrusion width = 0.46mm
; infill extrusion width = 0.50mm
; solid infill extrusion width = 0.48mm
; top infill extrusion width = 0.44mm
; first layer extrusion width = 0.56mm

; EXECUTABLE_BLOCK_START
EXCLUDE_OBJECT_DEFINE NAME=3DBenchy.stl_id_0_copy_0 CENTER=132.5,132.5 POLYGON=[[102.5,123.316],[102.502,123.255],[102.507,123.199],[102.512,123.146],[102.514,123.13],[102.52,123.083],[102.528,123.025],[102.546,122.936],[102.558,122.879],[102.574,122.822],[102.581,122.796],[102.597,122.739],[102.626,122.655],[102.64,122.618],[102.662,122.564],[102.669,122.547],[102.686,122.51],[102.709,122.458],[102.73,122.416],[102.764,122.354],[102.778,122.327],[102.791,122.306],[102.84,122.227],[102.857,122.2],[102.871,122.179],[102.905,122.131],[102.94,122.084],[102.984,122.031],[103.008,122.001],[103.039,121.966],[103.078,121.923],[103.092,121.908],[103.1,121.9],[103.141,121.859],[103.161,121.84],[103.204,121.8],[103.237,121.771],[103.283,121.734],[103.293,121.725],[103.328,121.697],[103.387,121.654],[103.435,121.621],[103.479,121.592],[103.544,121.552],[103.571,121.536],[103.624,121.508],[103.648,121.495],[103.675,121.481],[103.697,121.47],[103.753,121.444],[103.812,121.419],[103.861,121.399],[103.917,121.379],[103.929,121.375],[103.972,121.361],[103.985,121.357],[104.041,121.34],[104.048,121.338],[104.084,121.328],[104.097,121.325],[104.125,121.318],[104.14,121.314],[104.21,121.299],[104.239,121.294],[104.269,121.289],[104.298,121.284],[132.312,117.386],[132.555,117.353],[132.799,117.321],[133.043,117.291],[133.382,117.252],[133.605,117.228],[133.85,117.202],[134.096,117.178],[134.342,117.156],[134.587,117.135],[134.753,117.122],[134.833,117.116],[135.023,117.102],[135.079,117.098],[135.326,117.081],[135.487,117.071],[135.571,117.066],[135.732,117.057],[135.989,117.044],[136.097,117.039],[136.119,117.038],[136.255,117.032],[136.406,117.026],[136.55,117.021],[136.667,117.017],[136.733,117.015],[136.842,117.012],[136.96,117.009],[137.048,117.007],[137.189,117.004],[137.381,117.001],[137.562,116.999],[137.68,116.998],[138.078,116.998],[138.434,117],[138.869,117.008],[138.95,117.01],[139.305,117.02],[139.412,117.024],[139.74,117.037],[140.177,117.058],[140.509,117.078],[140.592,117.083],[140.702,117.09],[140.875,117.102],[140.995,117.111],[141.141,117.122],[141.228,117.129],[141.409,117.144],[141.54,117.155],[142.332,117.28],[142.341,117.282],[142.769,117.388],[142.877,117.415],[143.095,117.47],[143.237,117.507],[143.313,117.527],[143.467,117.568],[143.748,117.645],[143.924,117.695],[144.18,117.77],[144.396,117.834],[144.611,117.9],[144.832,117.97],[145.058,118.043],[145.252,118.107],[145.508,118.194],[145.678,118.253],[145.732,118.272],[145.9,118.332],[146.101,118.405],[146.322,118.487],[146.533,118.567],[146.733,118.645],[146.844,118.688],[146.943,118.728],[146.953,118.732],[147.162,118.816],[147.371,118.902],[147.427,118.925],[147.634,119.013],[147.841,119.103],[148.047,119.193],[148.457,119.379],[148.66,119.474],[148.863,119.57],[149.065,119.668],[149.266,119.767],[149.467,119.867],[149.666,119.969],[149.866,120.072],[150.063,120.177],[150.262,120.283],[150.457,120.39],[150.653,120.499],[150.848,120.61],[151.043,120.721],[151.237,120.834],[151.43,120.949],[151.623,121.065],[151.814,121.183],[152.005,121.301],[152.196,121.422],[152.385,121.543],[152.575,121.667],[152.762,121.791],[152.951,121.917],[153.137,122.044],[153.324,122.173],[153.508,122.303],[153.693,122.434],[153.876,122.567],[154.06,122.701],[154.243,122.837],[154.423,122.974],[154.604,123.112],[154.784,123.252],[154.963,123.393],[155.142,123.536],[155.32,123.68],[155.498,123.825],[155.673,123.972],[156.023,124.27],[156.197,124.421],[156.37,124.574],[156.542,124.728],[156.714,124.884],[156.828,124.989],[156.998,125.145],[157.165,125.303],[157.332,125.462],[157.496,125.622],[157.661,125.783],[157.825,125.945],[157.986,126.109],[158.147,126.273],[158.307,126.439],[158.466,126.606],[158.624,126.774],[158.782,126.943],[158.938,127.114],[159.092,127.285],[159.245,127.458],[159.398,127.632],[159.55,127.806],[159.701,127.983],[159.849,128.16],[159.998,128.338],[160.145,128.517],[160.291,128.698],[160.436,128.88],[160.581,129.063],[160.723,129.247],[160.864,129.432],[161.005,129.618],[161.145,129.805],[161.284,129.993],[161.421,130.183],[161.556,130.374],[161.692,130.565],[161.826,130.758],[161.958,130.952],[162.089,131.147],[162.118,131.192],[162.151,131.245],[162.182,131.298],[162.213,131.352],[162.242,131.407],[162.269,131.462],[162.319,131.576],[162.334,131.617],[162.356,131.675],[162.376,131.733],[162.395,131.792],[162.412,131.851],[162.429,131.913],[162.443,131.97],[162.454,132.03],[162.466,132.093],[162.475,132.152],[162.484,132.213],[162.491,132.274],[162.495,132.336],[162.498,132.405],[162.5,132.466],[162.5,132.527],[162.499,132.588],[162.496,132.649],[162.492,132.709],[162.486,132.77],[162.477,132.831],[162.468,132.891],[162.458,132.949],[162.445,133.012],[162.432,133.069],[162.416,133.132],[162.401,133.186],[162.383,133.245],[162.363,133.303],[162.342,133.361],[162.32,133.418],[162.297,133.474],[162.271,133.53],[162.244,133.586],[162.216,133.64],[162.186,133.694],[162.155,133.748],[162.123,133.801],[162.089,133.853],[161.972,134.027],[161.839,134.221],[161.706,134.414],[161.571,134.606],[161.436,134.797],[161.297,134.987],[161.159,135.176],[161.02,135.364],[160.88,135.55],[160.737,135.736],[160.595,135.92],[160.451,136.104],[160.159,136.468],[160.01,136.648],[159.861,136.828],[159.71,137.006],[159.56,137.183],[159.407,137.36],[159.252,137.535],[159.097,137.709],[158.982,137.837],[158.826,138.009],[158.667,138.18],[158.508,138.35],[158.348,138.518],[158.188,138.686],[158.026,138.852],[157.7,139.18],[157.534,139.341],[157.369,139.502],[157.203,139.661],[157.035,139.819],[156.868,139.975],[156.699,140.13],[156.528,140.284],[156.357,140.437],[156.186,140.589],[156.012,140.739],[155.838,140.888],[155.664,141.036],[155.487,141.182],[155.311,141.327],[155.132,141.471],[154.954,141.614],[154.775,141.756],[154.593,141.896],[154.411,142.035],[154.228,142.173],[154.044,142.31],[153.859,142.445],[153.673,142.58],[153.299,142.844],[153.111,142.974],[152.921,143.103],[152.73,143.231],[152.539,143.357],[152.346,143.482],[152.153,143.606],[151.958,143.728],[151.763,143.849],[151.567,143.969],[151.369,144.087],[151.172,144.204],[150.972,144.319],[150.772,144.434],[150.572,144.546],[150.37,144.658],[150.095,144.807],[149.895,144.912],[149.696,145.016],[149.496,145.118],[149.296,145.219],[149.095,145.318],[148.892,145.416],[148.69,145.512],[148.487,145.607],[148.283,145.7],[148.079,145.792],[147.874,145.883],[147.669,145.972],[147.463,146.059],[147.256,146.145],[147.166,146.182],[147.049,146.23],[146.841,146.313],[146.622,146.398],[146.503,146.444],[146.204,146.557],[145.993,146.634],[145.793,146.706],[145.571,146.784],[145.384,146.848],[145.369,146.853],[145.156,146.924],[144.943,146.994],[144.707,147.07],[144.505,147.132],[144.479,147.14],[144.251,147.209],[144.023,147.276],[143.795,147.341],[143.642,147.384],[143.565,147.405],[143.424,147.443],[143.207,147.501],[143.106,147.527],[142.988,147.557],[142.769,147.612],[142.344,147.718],[141.816,147.819],[141.806,147.82],[141.55,147.844],[141.503,147.848],[141.31,147.864],[141.225,147.871],[141.061,147.884],[140.981,147.89],[140.634,147.914],[140.188,147.941],[140.149,147.943],[139.764,147.962],[139.626,147.968],[139.278,147.981],[139.064,147.987],[138.844,147.993],[138.407,148],[138.022,148.002],[137.677,148.002],[137.377,147.999],[137.321,147.998],[137.099,147.994],[136.957,147.991],[136.838,147.988],[136.666,147.983],[136.576,147.98],[136.43,147.975],[136.252,147.968],[136.228,147.967],[136.07,147.96],[135.963,147.955],[135.832,147.948],[135.633,147.937],[135.389,147.923],[135.144,147.907],[135.129,147.906],[134.842,147.885],[134.596,147.866],[134.349,147.845],[134.167,147.828],[134.103,147.822],[133.923,147.805],[133.679,147.78],[133.611,147.773],[133.435,147.754],[133.119,147.718],[132.873,147.688],[132.704,147.666],[132.382,147.624],[104.328,143.72],[104.292,143.715],[104.243,143.707],[104.186,143.696],[104.153,143.689],[104.097,143.675],[104.084,143.672],[104.048,143.662],[104.036,143.659],[103.98,143.642],[103.929,143.625],[103.917,143.621],[103.861,143.601],[103.812,143.581],[103.753,143.556],[103.697,143.53],[103.655,143.509],[103.605,143.482],[103.586,143.472],[103.544,143.448],[103.493,143.417],[103.479,143.408],[103.444,143.385],[103.435,143.379],[103.387,143.346],[103.347,143.317],[103.34,143.311],[103.293,143.275],[103.256,143.244],[103.249,143.238],[103.204,143.2],[103.161,143.16],[103.14,143.14],[103.092,143.092],[103.057,143.055],[103.039,143.034],[103.019,143.011],[102.98,142.966],[102.944,142.92],[102.931,142.902],[102.91,142.874],[102.907,142.87],[102.873,142.822],[102.857,142.8],[102.842,142.778],[102.808,142.724],[102.778,142.673],[102.751,142.622],[102.73,142.584],[102.718,142.56],[102.695,142.512],[102.669,142.454],[102.648,142.403],[102.627,142.349],[102.609,142.293],[102.607,142.29],[102.59,142.238],[102.575,142.182],[102.56,142.125],[102.546,142.064],[102.535,142.007],[102.526,141.954],[102.525,141.948],[102.516,141.896],[102.512,141.853],[102.508,141.825],[102.502,141.745],[102.501,141.708],[102.5,141.679],[102.5,123.316]]
M73 P0 R22
;TYPE:Custom
M190 S0 ; Remove this if autoemit_temperature_commands is off in Prusa Slicer 2.6 and later
M109 S0 ; Remove this if autoemit_temperature_commands is off in Prusa Slicer 2.6 and later
_PRINT_START_PHASE_INIT EXTRUDER=230 BED=60 MESH_MIN=106.195,124.22 MESH_MAX=145.918,140.779 LAYERS=192 NOZZLE_SIZE=0.4
; Insert custom gcode here.
_PRINT_START_PHASE_PREHEAT
; Insert custom gcode here.
_PRINT_START_PHASE_PROBING
; Insert custom gcode here.
_PRINT_START_PHASE_EXTRUDER
; Insert custom gcode here.
_PRINT_START_PHASE_PURGE

; This is the place to put slicer purge lines if you haven't set a non-zero
; variable_start_purge_length to have START_PRINT automatically calculate and 
; perform the purge (e.g. if using a Mosaic Palette, which requires the slicer
; to generate the purge).
G90
G21
M83 ; use relative distances for extrusion
; filament start gcode
;LAYER_CHANGE
;Z:0.36
;HEIGHT:0.36
;BEFORE_LAYER_CHANGE
;0.36
BEFORE_LAYER_CHANGE HEIGHT=0.36 LAYER=0
G1 E-.4 F1800
;AFTER_LAYER_CHANGE
;0.36
AFTER_LAYER_CHANGE
SET_VELOCITY_LIMIT ACCEL=3000 ACCEL_TO_DECEL=1500
; printing object 3DBenchy.stl id:0 copy 0
EXCLUDE_OBJECT_START NAME=3DBenchy.stl_id_0_copy_0
G1 Z.4 F15000
G1 X133.404 Y135.85
G1 Z.4
G1 Z.36
G1 E.4 F1200
;TYPE:Outer wall
;WIDTH:0.56
G1 F3000
G3 X133.118 Y135.594 I.345 J-.674 E.02885
G3 X132.612 Y134.709 I11.163 J-6.967 E.07584
G3 X132.294 Y135.309 I-3.039 J-1.224 E.05056
G3 X131.793 Y135.85 I-1.239 J-.646 E.0555
G3 X130.925 Y135.602 I-.278 J-.672 E.07237
G3 X130.91 Y134.763 I.671 J-.432 E.06572
G3 X131.447 Y133.819 I33.235 J18.293 E.08074
G2 X131.811 Y133.287 I-11.273 J-8.084 E.04795
G1 X131.796 Y133.236 E.00393
G3 X131.333 Y132.468 I9.129 J-6.026 E.06671
G3 X130.914 Y131.655 I3.07 J-2.099 E.06817
G3 X131.55 Y130.68 I.673 J-.256 E.10085
G3 X132.125 Y130.888 I.057 J.742 E.04686
G3 X132.691 Y131.77 I-2.111 J1.976 E.07832
G3 X132.863 Y131.381 I3.423 J1.286 E.03164
G3 X133.64 Y130.685 I1.154 J.507 E.07993
G3 X134.362 Y131.753 I.066 J.733 E.11674
G3 X133.758 Y132.776 I-14.518 J-7.887 E.08834
G2 X133.583 Y133.314 I.587 J.489 E.04315
G1 X133.59 Y133.342 E.00213
G2 X134.103 Y134.238 I36.363 J-20.208 E.07674
G3 X134.484 Y134.994 I-1.805 J1.384 E.06334
G3 X133.44 Y135.867 I-.735 J.182 E.1257
G1 E-.4 F1800
G1 Z.76 F15000
G1 X130.163 Y135.782 Z.76
G1 Z.36
G1 E.4 F1200
G1 F3000
G3 X129.134 Y133.608 I-.943 J-.885 E.37405
G1 X129.248 Y133.606 E.00849
G3 X130.189 Y135.753 I-.028 J1.292 E.21833
G1 E-.28 F1800
;WIPE_START
G1 F3000
G1 X129.992 Y135.941 E-.03108
G1 X129.695 Y136.106 E-.03877
G1 X129.475 Y136.171 E-.02612
G1 X129.318 Y136.188 E-.01803
;WIPE_END
G1 E-.006 F1800
G1 Z.76 F15000
G1 X123.739 Y135.718 Z.76
G1 Z.36
G1 E.4 F1200
G1 F3000
G3 X123.579 Y135.663 I.21 J-.862 E.01257
G3 X123.201 Y134.903 I.512 J-.729 E.06579
G2 X123.209 Y130.996 I-164.203 J-2.314 E.29048
G2 X123.18 Y130.06 I-4.739 J-.321 E.06975
G3 X123.312 Y129.514 I.723 J-.114 E.04285
G3 X124.102 Y129.209 I.728 J.71 E.06495
G3 X124.532 Y129.223 I.055 J4.812 E.03198
G3 X126.204 Y129.307 I.34 J9.968 E.12462
G3 X127.99 Y130.686 I-.341 J2.287 E.17524
G3 X128.225 Y133.495 I-4.323 J1.777 E.2129
G3 X126.777 Y135.44 I-2.703 J-.501 E.18672
G3 X125.034 Y135.708 I-1.528 J-4.138 E.13198
G2 X124.058 Y135.737 I-.347 J4.791 E.07269
G3 X123.778 Y135.727 I-.109 J-.881 E.02093
G1 E-.28 F1800
;WIPE_START
G1 F3000
G1 X123.579 Y135.663 E-.02377
G1 X123.411 Y135.523 E-.02497
G1 X123.294 Y135.331 E-.02564
G1 X123.222 Y135.085 E-.02912
G1 X123.211 Y134.994 E-.0105
;WIPE_END
G1 E-.006 F1800
G1 Z.76 F15000
G1 X122.259 Y131.961 Z.76
G1 Z.36
G1 E.4 F1200
;TYPE:Inner wall
G1 F3000
G2 X122.48 Y131.472 I-1.506 J-.972 E.04003
G1 X122.726 Y131.51 E.0185
G1 X122.726 Y132.324 E.06058
G1 X122.501 Y132.376 E.01716
G2 X122.283 Y131.993 I-1.845 J.797 E.03281
G1 X121.489 Y131.993 F15000
;TYPE:Outer wall
G1 F3000
G3 X121.859 Y132.25 I-.429 J1.014 E.03377
G3 X122.252 Y133.179 I-1.903 J1.353 E.07555
G3 X120.176 Y135.882 I-2.066 J.562 E.2931
G3 X118.631 Y135.515 I-.225 J-2.488 E.12013
G3 X118.367 Y134.21 I.53 J-.786 E.10968
G3 X119.489 Y134.04 I.674 J.663 E.09051
G3 X120.007 Y134.4 I-8.875 J13.321 E.04683
G2 X120.643 Y134.023 I.124 J-.516 E.06085
G2 X120.282 Y133.147 I-.786 J-.188 E.07523
G2 X119.509 Y132.906 I-.881 J1.46 E.06077
G3 X119.035 Y132.658 I.156 J-.879 E.04041
G3 X119.277 Y131.488 I.739 J-.458 E.098
G3 X119.961 Y131.313 I.845 J1.879 E.05274
G2 X120.269 Y131.131 I-.114 J-.547 E.02709
G2 X119.994 Y130.525 I-.24 J-.257 E.06505
G2 X119.422 Y130.811 I.243 J1.197 E.04805
G3 X118.466 Y130.731 I-.437 J-.528 E.07905
G3 X118.489 Y129.557 I.539 J-.576 E.09838
G3 X119.876 Y129.048 I1.429 J1.749 E.11189
G3 X120.599 Y129.08 I.127 J5.292 E.05384
G3 X121.963 Y129.988 I-.137 J1.685 E.12715
G3 X122.051 Y131.159 I-2.086 J.747 E.0884
G3 X121.524 Y131.975 I-1.018 J-.08 E.07523
G1 E-.28 F1800
;WIPE_START
G1 F3000
G1 X121.742 Y132.138 E-.031
G1 X121.859 Y132.25 E-.01855
G1 X122.047 Y132.545 E-.03984
G1 X122.113 Y132.751 E-.02461
;WIPE_END
G1 E-.006 F1800
G1 Z.76 F15000
G1 X123.439 Y135.5 Z.76
G1 X123.694 Y135.921
G1 X123.977 Y136.186
G1 X135.012 Y138.592
G1 X135.197 Y138.615
G1 X135.3 Y138.617
G1 X135.4 Y138.612
G1 X135.579 Y138.588
G1 X135.693 Y138.567
G1 X135.913 Y138.511
G1 X136.145 Y138.439
G1 X136.264 Y138.395
G1 X136.457 Y138.312
G1 X136.561 Y138.258
G1 X136.655 Y138.204
G1 X136.746 Y138.146
G1 X136.843 Y138.075
G1 X137.008 Y137.943
G1 X137.106 Y137.85
G1 X137.292 Y137.668
G1 X137.51 Y137.432
G1 X138.693 Y135.884
G1 Z.36
G1 E.4 F1200
;TYPE:Inner wall
G1 F3000
G1 X138.967 Y136.278 E.03564
G2 X140.376 Y136.894 I1.302 J-1.06 E.11873
G1 X140.439 Y137.102 E.01617
G3 X137.722 Y138.543 I-8.01 J-11.817 E.22912
G1 X137.587 Y138.374 E.01609
G2 X138.169 Y137.255 I-4.565 J-3.084 E.094
G2 X138.679 Y135.922 I-35.353 J-14.307 E.1061
G1 E-.28 F1800
;WIPE_START
G1 F3000
G1 X138.967 Y136.278 E-.05215
G1 X139.232 Y136.542 E-.04273
G1 X139.37 Y136.637 E-.01911
;WIPE_END
G1 E-.006 F1800
G1 Z.76 F15000
G1 X118.035 Y131.635 Z.76
G1 Z.36
G1 E.4 F1200
G1 F3000
G2 X118.012 Y132.763 I1.784 J.601 E.08519
G1 X118.178 Y133.159 E.0319
G2 X117.301 Y135.165 I.788 J1.539 E.17631
G2 X118.887 Y136.696 I2.106 J-.595 E.17174
G2 X121.356 Y136.623 I1.117 J-4.046 E.18641
G2 X122.471 Y135.861 I-1.246 J-3.017 E.10114
G2 X124.133 Y136.7 I1.445 J-.798 E.14704
G3 X125.021 Y136.673 I.564 J4.078 E.06619
G2 X126.874 Y136.44 I.211 J-5.807 E.13947
G2 X127.38 Y136.218 I-1.053 J-3.08 E.04115
G2 X130.662 Y136.64 I1.838 J-1.322 E.27585
G2 X132.467 Y136.569 I.848 J-1.418 E.14207
G1 X132.589 Y136.468 E.01182
G1 X132.959 Y136.716 E.03308
