; HEADER_BLOCK_START
; generated by OrcaSlicer 1.6.4-beta3 on 2023-08-17 at 19:23:29
; total layer number: 1
; HEADER_BLOCK_END

; THUMBNAIL_BLOCK_START
; THUMBNAIL_BLOCK_END

; external perimeters extrusion width = 0.44mm
; perimeters extrusion width = 0.42mm
; infill extrusion width = 0.50mm
; solid infill extrusion width = 0.44mm
; top infill extrusion width = 0.42mm
; first layer extrusion width = 0.56mm

; EXECUTABLE_BLOCK_START
EXCLUDE_OBJECT_DEFINE NAME=Cube_id_0_copy_0 CENTER=110,110 POLYGON=[[53.75,53.75],[166.25,53.75],[166.25,166.25],[53.75,166.25],[53.75,53.75]]
M73 P0 R8
;TYPE:Custom
M190 S0 ; Remove this if autoemit_temperature_commands is off in Prusa Slicer 2.6 and later
M109 S0 ; Remove this if autoemit_temperature_commands is off in Prusa Slicer 2.6 and later
_PRINT_START_PHASE_INIT EXTRUDER=230 BED=60 MESH_MIN=53.75,53.75 MESH_MAX=166.25,166.25 LAYERS=1 NOZZLE_SIZE=0.4
; Insert custom gcode here.
_PRINT_START_PHASE_PREHEAT
; Insert custom gcode here.
_PRINT_START_PHASE_PROBING
; Insert custom gcode here.
_PRINT_START_PHASE_EXTRUDER
; Insert custom gcode here.
_PRINT_START_PHASE_PURGE

; This is the place to put slicer purge lines if you haven't set a non-zero
; variable_start_purge_length to have START_PRINT automatically calculate and 
; perform the purge (e.g. if using a Mosaic Palette, which requires the slicer
; to generate the purge).
G90
G21
M83 ; use relative distances for extrusion
; filament start gcode
;LAYER_CHANGE
;Z:0.36
;HEIGHT:0.36
;BEFORE_LAYER_CHANGE
;0.36
BEFORE_LAYER_CHANGE HEIGHT=0.36 LAYER=0
G1 E-.4 F1800
;AFTER_LAYER_CHANGE
;0.36
AFTER_LAYER_CHANGE
SET_VELOCITY_LIMIT ACCEL=3000 ACCEL_TO_DECEL=1500
; printing object Cube id:0 copy 0
EXCLUDE_OBJECT_START NAME=Cube_id_0_copy_0
G1 Z.4 F9000
G1 X54.995 Y54.995
G1 Z.4
G1 Z.36
G1 E.4 F1200
;TYPE:Inner wall
;WIDTH:0.56
G1 F3000
G1 X165.005 Y54.995 E8.17893
G1 X165.005 Y165.005 E8.17893
G1 X54.995 Y165.005 E8.17893
M73 P1 R8
G1 X54.995 Y55.035 E8.17596
G1 X54.513 Y54.513 F9000
G1 F3000
G1 X165.487 Y54.513 E8.25071
M73 P2 R8
G1 X165.487 Y165.487 E8.25071
G1 X54.513 Y165.487 E8.25071
M73 P3 R8
G1 X54.513 Y54.553 E8.24774
G1 X54.03 Y54.03 F9000
;TYPE:Outer wall
G1 F3000
G1 X165.97 Y54.03 E8.32249
G1 X165.97 Y165.97 E8.32249
M73 P4 R8
G1 X54.03 Y165.97 E8.32249
G1 X54.03 Y54.07 E8.31952
M73 P5 R8
G1 E-.4 F1800
G1 Z.76 F9000
G1 X163.882 Y55.14 Z.76
G1 Z.36
G1 E.4 F1200
;TYPE:Internal solid infill
;WIDTH:0.560854
G1 F3000
G1 X164.642 Y55.901 E.0801
G1 X164.642 Y56.585 E.05094
G1 X163.415 Y55.358 E.12925
G1 X162.731 Y55.358 E.05094
G1 X164.642 Y57.269 E.20129
G1 X164.642 Y57.952 E.05094
G1 X162.048 Y55.358 E.27332
G1 X161.364 Y55.358 E.05094
G1 X164.642 Y58.636 E.34536
G1 X164.642 Y59.32 E.05094
G1 X160.68 Y55.358 E.41739
G1 X159.996 Y55.358 E.05094
G1 X164.642 Y60.004 E.48943
G1 X164.642 Y60.688 E.05094
G1 X159.312 Y55.358 E.56147
G1 X158.628 Y55.358 E.05094
G1 X164.642 Y61.372 E.6335
G1 X164.642 Y62.056 E.05094
G1 X157.944 Y55.358 E.70554
G1 X157.26 Y55.358 E.05094
G1 X164.642 Y62.74 E.77757
G1 X164.642 Y63.424 E.05094
G1 X156.576 Y55.358 E.84961
G1 X155.892 Y55.358 E.05094
G1 X164.642 Y64.108 E.92165
G1 X164.642 Y64.792 E.05094
G1 X155.208 Y55.358 E.99368
G1 X154.525 Y55.358 E.05094
G1 X164.642 Y65.475 E1.06572
G1 X164.642 Y66.159 E.05094
G1 X153.841 Y55.358 E1.13775
G1 X153.157 Y55.358 E.05094
G1 X164.642 Y66.843 E1.20979
M73 P6 R8
G1 X164.642 Y67.527 E.05094
G1 X152.473 Y55.358 E1.28183
G1 X151.789 Y55.358 E.05094
G1 X164.642 Y68.211 E1.35386
G1 X164.642 Y68.895 E.05094
G1 X151.105 Y55.358 E1.4259
G1 X150.421 Y55.358 E.05094
G1 X164.642 Y69.579 E1.49793
G1 X164.642 Y70.263 E.05094
G1 X149.737 Y55.358 E1.56997
G1 X149.053 Y55.358 E.05094
G1 X164.642 Y70.947 E1.642
G1 X164.642 Y71.631 E.05094
G1 X148.369 Y55.358 E1.71404
G1 X147.685 Y55.358 E.05094
G1 X164.642 Y72.315 E1.78608
G1 X164.642 Y72.998 E.05094
G1 X147.002 Y55.358 E1.85811
G1 X146.318 Y55.358 E.05094
G1 X164.642 Y73.682 E1.93015
G1 X164.642 Y74.366 E.05094
G1 X145.634 Y55.358 E2.00218
M73 P7 R8
G1 X144.95 Y55.358 E.05094
G1 X164.642 Y75.05 E2.07422
G1 X164.642 Y75.734 E.05094
G1 X144.266 Y55.358 E2.14626
G1 X143.582 Y55.358 E.05094
G1 X164.642 Y76.418 E2.21829
G1 X164.642 Y77.102 E.05094
G1 X142.898 Y55.358 E2.29033
G1 X142.214 Y55.358 E.05094
G1 X164.642 Y77.786 E2.36236
G1 X164.642 Y78.47 E.05094
G1 X141.53 Y55.358 E2.4344
G1 X140.846 Y55.358 E.05094
G1 X164.642 Y79.154 E2.50644
G1 X164.642 Y79.838 E.05094
G1 X140.162 Y55.358 E2.57847
M73 P8 R8
G1 X139.479 Y55.358 E.05094
G1 X164.642 Y80.521 E2.65051
G1 X164.642 Y81.205 E.05094
G1 X138.795 Y55.358 E2.72254
G1 X138.111 Y55.358 E.05094
G1 X164.642 Y81.889 E2.79458
G1 X164.642 Y82.573 E.05094
G1 X137.427 Y55.358 E2.86662
G1 X136.743 Y55.358 E.05094
G1 X164.642 Y83.257 E2.93865
G1 X164.642 Y83.941 E.05094
G1 X136.059 Y55.358 E3.01069
G1 X135.375 Y55.358 E.05094
G1 X164.642 Y84.625 E3.08272
M73 P9 R8
G1 X164.642 Y85.309 E.05094
G1 X134.691 Y55.358 E3.15476
G1 X134.007 Y55.358 E.05094
G1 X164.642 Y85.993 E3.2268
G1 X164.642 Y86.677 E.05094
G1 X133.323 Y55.358 E3.29883
G1 X132.639 Y55.358 E.05094
G1 X164.642 Y87.361 E3.37087
G1 X164.642 Y88.044 E.05094
G1 X131.956 Y55.358 E3.4429
G1 X131.272 Y55.358 E.05094
G1 X164.642 Y88.728 E3.51494
M73 P10 R8
G1 X164.642 Y89.412 E.05094
G1 X130.588 Y55.358 E3.58697
G1 X129.904 Y55.358 E.05094
G1 X164.642 Y90.096 E3.65901
G1 X164.642 Y90.78 E.05094
G1 X129.22 Y55.358 E3.73105
M73 P10 R7
G1 X128.536 Y55.358 E.05094
G1 X164.642 Y91.464 E3.80308
G1 X164.642 Y92.148 E.05094
G1 X127.852 Y55.358 E3.87512
M73 P11 R7
G1 X127.168 Y55.358 E.05094
G1 X164.642 Y92.832 E3.94715
G1 X164.642 Y93.516 E.05094
G1 X126.484 Y55.358 E4.01919
G1 X125.8 Y55.358 E.05094
G1 X164.642 Y94.2 E4.09123
G1 X164.642 Y94.884 E.05094
G1 X125.116 Y55.358 E4.16326
G1 X124.433 Y55.358 E.05094
G1 X164.642 Y95.567 E4.2353
M73 P12 R7
G1 X164.642 Y96.251 E.05094
G1 X123.749 Y55.358 E4.30733
G1 X123.065 Y55.358 E.05094
G1 X164.642 Y96.935 E4.37937
G1 X164.642 Y97.619 E.05094
G1 X122.381 Y55.358 E4.45141
G1 X121.697 Y55.358 E.05094
G1 X164.642 Y98.303 E4.52344
M73 P13 R7
G1 X164.642 Y98.987 E.05094
G1 X121.013 Y55.358 E4.59548
G1 X120.329 Y55.358 E.05094
G1 X164.642 Y99.671 E4.66751
G1 X164.642 Y100.355 E.05094
G1 X119.645 Y55.358 E4.73955
G1 X118.961 Y55.358 E.05094
G1 X164.642 Y101.039 E4.81159
M73 P14 R7
G1 X164.642 Y101.723 E.05094
G1 X118.277 Y55.358 E4.88362
G1 X117.593 Y55.358 E.05094
G1 X164.642 Y102.407 E4.95566
G1 X164.642 Y103.09 E.05094
G1 X116.91 Y55.358 E5.02769
G1 X116.226 Y55.358 E.05094
G1 X164.642 Y103.774 E5.09973
M73 P15 R7
G1 X164.642 Y104.458 E.05094
G1 X115.542 Y55.358 E5.17177
G1 X114.858 Y55.358 E.05094
G1 X164.642 Y105.142 E5.2438
G1 X164.642 Y105.826 E.05094
G1 X114.174 Y55.358 E5.31584
G1 X113.49 Y55.358 E.05094
G1 X164.642 Y106.51 E5.38787
M73 P16 R7
G1 X164.642 Y107.194 E.05094
G1 X112.806 Y55.358 E5.45991
G1 X112.122 Y55.358 E.05094
G1 X164.642 Y107.878 E5.53194
G1 X164.642 Y108.562 E.05094
G1 X111.438 Y55.358 E5.60398
M73 P17 R7
G1 X110.754 Y55.358 E.05094
G1 X164.642 Y109.246 E5.67602
G1 X164.642 Y109.93 E.05094
G1 X110.07 Y55.358 E5.74805
G1 X109.387 Y55.358 E.05094
G1 X164.642 Y110.613 E5.82009
G1 X164.642 Y111.297 E.05094
G1 X108.703 Y55.358 E5.89212
M73 P18 R7
G1 X108.019 Y55.358 E.05094
G1 X164.642 Y111.981 E5.96416
G1 X164.642 Y112.665 E.05094
G1 X107.335 Y55.358 E6.0362
G1 X106.651 Y55.358 E.05094
G1 X164.642 Y113.349 E6.10823
M73 P19 R7
G1 X164.642 Y114.033 E.05094
G1 X105.967 Y55.358 E6.18027
G1 X105.283 Y55.358 E.05094
G1 X164.642 Y114.717 E6.2523
G1 X164.642 Y115.401 E.05094
G1 X104.599 Y55.358 E6.32434
M73 P20 R7
G1 X103.915 Y55.358 E.05094
G1 X164.642 Y116.085 E6.39638
G1 X164.642 Y116.769 E.05094
G1 X103.231 Y55.358 E6.46841
G1 X102.547 Y55.358 E.05094
G1 X164.642 Y117.453 E6.54045
M73 P21 R7
G1 X164.642 Y118.136 E.05094
G1 X101.864 Y55.358 E6.61248
G1 X101.18 Y55.358 E.05094
G1 X164.642 Y118.82 E6.68452
G1 X164.642 Y119.504 E.05094
G1 X100.496 Y55.358 E6.75656
M73 P22 R6
G1 X99.812 Y55.358 E.05094
G1 X164.642 Y120.188 E6.82859
G1 X164.642 Y120.872 E.05094
G1 X99.128 Y55.358 E6.90063
G1 X98.444 Y55.358 E.05094
G1 X164.642 Y121.556 E6.97266
M73 P23 R6
G1 X164.642 Y122.24 E.05094
G1 X97.76 Y55.358 E7.0447
G1 X97.076 Y55.358 E.05094
G1 X164.642 Y122.924 E7.11674
G1 X164.642 Y123.608 E.05094
G1 X96.392 Y55.358 E7.18877
M73 P24 R6
G1 X95.708 Y55.358 E.05094
G1 X164.642 Y124.292 E7.26081
G1 X164.642 Y124.976 E.05094
G1 X95.024 Y55.358 E7.33284
M73 P25 R6
G1 X94.341 Y55.358 E.05094
G1 X164.642 Y125.659 E7.40488
G1 X164.642 Y126.343 E.05094
G1 X93.657 Y55.358 E7.47691
G1 X92.973 Y55.358 E.05094
G1 X164.642 Y127.027 E7.54895
M73 P26 R6
G1 X164.642 Y127.711 E.05094
G1 X92.289 Y55.358 E7.62099
G1 X91.605 Y55.358 E.05094
G1 X164.642 Y128.395 E7.69302
G1 X164.642 Y129.079 E.05094
G1 X90.921 Y55.358 E7.76506
M73 P27 R6
G1 X90.237 Y55.358 E.05094
G1 X164.642 Y129.763 E7.83709
G1 X164.642 Y130.447 E.05094
G1 X89.553 Y55.358 E7.90913
M73 P28 R6
G1 X88.869 Y55.358 E.05094
G1 X164.642 Y131.131 E7.98117
G1 X164.642 Y131.815 E.05094
G1 X88.185 Y55.358 E8.0532
G1 X87.501 Y55.358 E.05094
G1 X164.642 Y132.499 E8.12524
M73 P29 R6
G1 X164.642 Y133.182 E.05094
G1 X86.818 Y55.358 E8.19727
G1 X86.134 Y55.358 E.05094
G1 X164.642 Y133.866 E8.26931
M73 P30 R6
G1 X164.642 Y134.55 E.05094
G1 X85.45 Y55.358 E8.34135
G1 X84.766 Y55.358 E.05094
G1 X164.642 Y135.234 E8.41338
M73 P31 R6
G1 X164.642 Y135.918 E.05094
G1 X84.082 Y55.358 E8.48542
G1 X83.398 Y55.358 E.05094
G1 X164.642 Y136.602 E8.55745
G1 X164.642 Y137.286 E.05094
G1 X82.714 Y55.358 E8.62949
M73 P32 R6
G1 X82.03 Y55.358 E.05094
G1 X164.642 Y137.97 E8.70153
G1 X164.642 Y138.654 E.05094
G1 X81.346 Y55.358 E8.77356
M73 P33 R5
G1 X80.662 Y55.358 E.05094
G1 X164.642 Y139.338 E8.8456
G1 X164.642 Y140.022 E.05094
G1 X79.978 Y55.358 E8.91763
M73 P34 R5
G1 X79.295 Y55.358 E.05094
G1 X164.642 Y140.705 E8.98967
G1 X164.642 Y141.389 E.05094
G1 X78.611 Y55.358 E9.06171
M73 P35 R5
G1 X77.927 Y55.358 E.05094
G1 X164.642 Y142.073 E9.13374
G1 X164.642 Y142.757 E.05094
G1 X77.243 Y55.358 E9.20578
M73 P36 R5
G1 X76.559 Y55.358 E.05094
G1 X164.642 Y143.441 E9.27781
G1 X164.642 Y144.125 E.05094
G1 X75.875 Y55.358 E9.34985
G1 X75.191 Y55.358 E.05094
M73 P37 R5
G1 X164.642 Y144.809 E9.42188
G1 X164.642 Y145.493 E.05094
G1 X74.507 Y55.358 E9.49392
G1 X73.823 Y55.358 E.05094
G1 X164.642 Y146.177 E9.56596
M73 P38 R5
G1 X164.642 Y146.861 E.05094
G1 X73.139 Y55.358 E9.63799
G1 X72.455 Y55.358 E.05094
G1 X164.642 Y147.545 E9.71003
M73 P39 R5
G1 X164.642 Y148.228 E.05094
G1 X71.772 Y55.358 E9.78206
G1 X71.088 Y55.358 E.05094
G1 X164.642 Y148.912 E9.8541
M73 P40 R5
G1 X164.642 Y149.596 E.05094
G1 X70.404 Y55.358 E9.92614
G1 X69.72 Y55.358 E.05094
G1 X164.642 Y150.28 E9.99817
M73 P41 R5
G1 X164.642 Y150.964 E.05094
G1 X69.036 Y55.358 E10.07021
G1 X68.352 Y55.358 E.05094
G1 X164.642 Y151.648 E10.14224
M73 P42 R5
G1 X164.642 Y152.332 E.05094
G1 X67.668 Y55.358 E10.21428
G1 X66.984 Y55.358 E.05094
G1 X164.642 Y153.016 E10.28632
M73 P43 R5
G1 X164.642 Y153.7 E.05094
G1 X66.3 Y55.358 E10.35835
M73 P44 R5
G1 X65.616 Y55.358 E.05094
G1 X164.642 Y154.384 E10.43039
M73 P44 R4
G1 X164.642 Y155.068 E.05094
G1 X64.932 Y55.358 E10.50242
M73 P45 R4
G1 X64.249 Y55.358 E.05094
G1 X164.642 Y155.752 E10.57446
G1 X164.642 Y156.435 E.05094
G1 X63.565 Y55.358 E10.6465
M73 P46 R4
G1 X62.881 Y55.358 E.05094
G1 X164.642 Y157.119 E10.71853
G1 X164.642 Y157.803 E.05094
G1 X62.197 Y55.358 E10.79057
M73 P47 R4
G1 X61.513 Y55.358 E.05094
G1 X164.642 Y158.487 E10.8626
G1 X164.642 Y159.171 E.05094
G1 X60.829 Y55.358 E10.93464
M73 P48 R4
G1 X60.145 Y55.358 E.05094
G1 X164.642 Y159.855 E11.00668
G1 X164.642 Y160.539 E.05094
G1 X59.461 Y55.358 E11.07871
M73 P49 R4
G1 X58.777 Y55.358 E.05094
G1 X164.642 Y161.223 E11.15075
M73 P50 R4
G1 X164.642 Y161.907 E.05094
G1 X58.093 Y55.358 E11.22278
G1 X57.409 Y55.358 E.05094
G1 X164.642 Y162.591 E11.29482
M73 P51 R4
G1 X164.642 Y163.275 E.05094
G1 X56.725 Y55.358 E11.36685
G1 X56.042 Y55.358 E.05094
G1 X164.642 Y163.958 E11.43889
M73 P52 R4
G1 X164.642 Y164.642 E.05094
G1 X55.358 Y55.358 E11.51093
G1 X55.358 Y56.041 E.05093
G1 X163.959 Y164.642 E11.43892
M73 P53 R4
G1 X163.275 Y164.642 E.05094
G1 X55.358 Y56.725 E11.36689
M73 P54 R4
G1 X55.358 Y57.409 E.05094
G1 X162.591 Y164.642 E11.29485
G1 X161.907 Y164.642 E.05094
G1 X55.358 Y58.093 E11.22281
M73 P55 R4
G1 X55.358 Y58.777 E.05094
G1 X161.223 Y164.642 E11.15078
M73 P55 R3
G1 X160.539 Y164.642 E.05094
G1 X55.358 Y59.461 E11.07874
M73 P56 R3
G1 X55.358 Y60.145 E.05094
G1 X159.855 Y164.642 E11.00671
G1 X159.171 Y164.642 E.05094
G1 X55.358 Y60.829 E10.93467
M73 P57 R3
G1 X55.358 Y61.513 E.05094
G1 X158.487 Y164.642 E10.86263
M73 P58 R3
G1 X157.804 Y164.642 E.05094
G1 X55.358 Y62.196 E10.7906
G1 X55.358 Y62.88 E.05094
G1 X157.12 Y164.642 E10.71856
M73 P59 R3
G1 X156.436 Y164.642 E.05094
G1 X55.358 Y63.564 E10.64653
G1 X55.358 Y64.248 E.05094
G1 X155.752 Y164.642 E10.57449
M73 P60 R3
G1 X155.068 Y164.642 E.05094
G1 X55.358 Y64.932 E10.50245
G1 X55.358 Y65.616 E.05094
G1 X154.384 Y164.642 E10.43042
M73 P61 R3
G1 X153.7 Y164.642 E.05094
G1 X55.358 Y66.3 E10.35838
G1 X55.358 Y66.984 E.05094
G1 X153.016 Y164.642 E10.28635
M73 P62 R3
G1 X152.332 Y164.642 E.05094
G1 X55.358 Y67.668 E10.21431
G1 X55.358 Y68.352 E.05094
G1 X151.648 Y164.642 E10.14228
M73 P63 R3
G1 X150.964 Y164.642 E.05094
G1 X55.358 Y69.036 E10.07024
G1 X55.358 Y69.719 E.05094
G1 X150.281 Y164.642 E9.9982
M73 P64 R3
G1 X149.597 Y164.642 E.05094
G1 X55.358 Y70.403 E9.92617
G1 X55.358 Y71.087 E.05094
G1 X148.913 Y164.642 E9.85413
M73 P65 R3
G1 X148.229 Y164.642 E.05094
G1 X55.358 Y71.771 E9.7821
G1 X55.358 Y72.455 E.05094
G1 X147.545 Y164.642 E9.71006
M73 P66 R3
G1 X146.861 Y164.642 E.05094
G1 X55.358 Y73.139 E9.63802
M73 P66 R2
G1 X55.358 Y73.823 E.05094
G1 X146.177 Y164.642 E9.56599
M73 P67 R2
G1 X145.493 Y164.642 E.05094
G1 X55.358 Y74.507 E9.49395
G1 X55.358 Y75.191 E.05094
G1 X144.809 Y164.642 E9.42192
M73 P68 R2
G1 X144.125 Y164.642 E.05094
G1 X55.358 Y75.875 E9.34988
G1 X55.358 Y76.559 E.05094
G1 X143.441 Y164.642 E9.27784
M73 P69 R2
G1 X142.758 Y164.642 E.05094
G1 X55.358 Y77.242 E9.20581
G1 X55.358 Y77.926 E.05094
G1 X142.074 Y164.642 E9.13377
M73 P70 R2
G1 X141.39 Y164.642 E.05094
G1 X55.358 Y78.61 E9.06174
G1 X55.358 Y79.294 E.05094
G1 X140.706 Y164.642 E8.9897
M73 P71 R2
G1 X140.022 Y164.642 E.05094
G1 X55.358 Y79.978 E8.91766
G1 X55.358 Y80.662 E.05094
G1 X139.338 Y164.642 E8.84563
M73 P72 R2
G1 X138.654 Y164.642 E.05094
G1 X55.358 Y81.346 E8.77359
G1 X55.358 Y82.03 E.05094
G1 X137.97 Y164.642 E8.70156
G1 X137.286 Y164.642 E.05094
G1 X55.358 Y82.714 E8.62952
M73 P73 R2
G1 X55.358 Y83.398 E.05094
G1 X136.602 Y164.642 E8.55748
G1 X135.918 Y164.642 E.05094
G1 X55.358 Y84.082 E8.48545
M73 P74 R2
G1 X55.358 Y84.765 E.05094
G1 X135.235 Y164.642 E8.41341
G1 X134.551 Y164.642 E.05094
G1 X55.358 Y85.449 E8.34138
M73 P75 R2
G1 X55.358 Y86.133 E.05094
G1 X133.867 Y164.642 E8.26934
G1 X133.183 Y164.642 E.05094
G1 X55.358 Y86.817 E8.19731
G1 X55.358 Y87.501 E.05094
G1 X132.499 Y164.642 E8.12527
M73 P76 R2
G1 X131.815 Y164.642 E.05094
G1 X55.358 Y88.185 E8.05323
G1 X55.358 Y88.869 E.05094
G1 X131.131 Y164.642 E7.9812
M73 P77 R2
G1 X130.447 Y164.642 E.05094
G1 X55.358 Y89.553 E7.90916
G1 X55.358 Y90.237 E.05094
G1 X129.763 Y164.642 E7.83713
M73 P77 R1
G1 X129.079 Y164.642 E.05094
G1 X55.358 Y90.921 E7.76509
M73 P78 R1
G1 X55.358 Y91.605 E.05094
G1 X128.395 Y164.642 E7.69305
G1 X127.712 Y164.642 E.05094
G1 X55.358 Y92.288 E7.62102
M73 P79 R1
G1 X55.358 Y92.972 E.05094
G1 X127.028 Y164.642 E7.54898
G1 X126.344 Y164.642 E.05094
G1 X55.358 Y93.656 E7.47695
G1 X55.358 Y94.34 E.05094
G1 X125.66 Y164.642 E7.40491
M73 P80 R1
G1 X124.976 Y164.642 E.05094
G1 X55.358 Y95.024 E7.33287
G1 X55.358 Y95.708 E.05094
G1 X124.292 Y164.642 E7.26084
M73 P81 R1
G1 X123.608 Y164.642 E.05094
G1 X55.358 Y96.392 E7.1888
G1 X55.358 Y97.076 E.05094
G1 X122.924 Y164.642 E7.11677
G1 X122.24 Y164.642 E.05094
G1 X55.358 Y97.76 E7.04473
M73 P82 R1
G1 X55.358 Y98.444 E.05094
