; HEADER_BLOCK_START
; generated by OrcaSlicer 1.6.6 on 2023-09-03 at 12:38:08
; total layer number: 1
; HEADER_BLOCK_END

; THUMBNAIL_BLOCK_START
; THUMBNAIL_BLOCK_END

; external perimeters extrusion width = 0.48mm
; perimeters extrusion width = 0.46mm
; infill extrusion width = 0.50mm
; solid infill extrusion width = 0.48mm
; top infill extrusion width = 0.44mm
; first layer extrusion width = 0.56mm

; EXECUTABLE_BLOCK_START
EXCLUDE_OBJECT_DEFINE NAME=Cube_id_0_copy_0 CENTER=130,130 POLYGON=[[49.2787,49.2787],[210.721,49.2787],[210.721,210.721],[49.2787,210.721],[49.2787,49.2787]]
M73 P0 R12
;TYPE:Custom
M190 S0 ; Remove this if autoemit_temperature_commands is off in Prusa Slicer 2.6 and later
M109 S0 ; Remove this if autoemit_temperature_commands is off in Prusa Slicer 2.6 and later
_PRINT_START_PHASE_INIT EXTRUDER=230 BED=60 MESH_MIN=48.0494,48.0494 MESH_MAX=211.951,211.951 LAYERS=1 NOZZLE_SIZE=0.4
; Insert custom gcode here.
_PRINT_START_PHASE_PREHEAT
; Insert custom gcode here.
_PRINT_START_PHASE_PROBING
; Insert custom gcode here.
_PRINT_START_PHASE_EXTRUDER
; Insert custom gcode here.
_PRINT_START_PHASE_PURGE

; This is the place to put slicer purge lines if you haven't set a non-zero
; variable_start_purge_length to have START_PRINT automatically calculate and 
; perform the purge (e.g. if using a Mosaic Palette, which requires the slicer
; to generate the purge).
G90
G21
M83 ; use relative distances for extrusion
; filament start gcode
;LAYER_CHANGE
;Z:0.36
;HEIGHT:0.36
;BEFORE_LAYER_CHANGE
;0.36
BEFORE_LAYER_CHANGE HEIGHT=0.36 LAYER=0
G1 E-.4 F1800
;AFTER_LAYER_CHANGE
;0.36
AFTER_LAYER_CHANGE
SET_VELOCITY_LIMIT ACCEL=3000 ACCEL_TO_DECEL=1500
; printing object Cube id:0 copy 0
EXCLUDE_OBJECT_START NAME=Cube_id_0_copy_0
G1 Z.4 F15000
G1 X49.295 Y49.295
G1 Z.4
G1 Z.36
G1 E.4 F1200
;TYPE:Inner wall
;WIDTH:0.56
G1 F3000
G1 X210.705 Y49.295 E12.00049
G1 X210.705 Y210.705 E12.00049
G1 X49.295 Y210.705 E12.00049
M73 P1 R12
G1 X49.295 Y49.335 E11.99752
G1 X48.812 Y48.812 F15000
G1 F3000
G1 X211.188 Y48.812 E12.07228
M73 P2 R12
G1 X211.188 Y211.188 E12.07228
G1 X48.812 Y211.188 E12.07228
M73 P3 R12
G1 X48.812 Y48.852 E12.0693
G1 X48.329 Y48.329 F15000
;TYPE:Outer wall
G1 F3000
G1 X211.671 Y48.329 E12.14406
G1 X211.671 Y211.671 E12.14406
M73 P4 R12
G1 X48.329 Y211.671 E12.14406
G1 X48.329 Y48.369 E12.14108
M73 P5 R12
G1 E-.4 F1800
G1 Z.76 F15000
G1 X209.584 Y49.44 Z.76
G1 Z.36
G1 E.4 F1200
;TYPE:Bottom surface
;WIDTH:0.560153
G1 F4500
G1 X210.343 Y50.199 E.07982
G1 X210.343 Y50.882 E.05079
G1 X209.118 Y49.657 E.1288
G1 X208.436 Y49.657 E.05079
G1 X210.343 Y51.564 E.20063
G1 X210.343 Y52.247 E.05079
G1 X207.753 Y49.657 E.27246
G1 X207.07 Y49.657 E.05079
G1 X210.343 Y52.93 E.34428
G1 X210.343 Y53.613 E.05079
G1 X206.387 Y49.657 E.41611
G1 X205.704 Y49.657 E.05079
G1 X210.343 Y54.296 E.48794
G1 X210.343 Y54.979 E.05079
G1 X205.021 Y49.657 E.55977
G1 X204.338 Y49.657 E.05079
G1 X210.343 Y55.662 E.63159
G1 X210.343 Y56.345 E.05079
G1 X203.655 Y49.657 E.70342
G1 X202.972 Y49.657 E.05079
G1 X210.343 Y57.028 E.77525
G1 X210.343 Y57.711 E.05079
G1 X202.289 Y49.657 E.84707
G1 X201.606 Y49.657 E.05079
G1 X210.343 Y58.394 E.9189
G1 X210.343 Y59.077 E.05079
G1 X200.923 Y49.657 E.99073
G1 X200.24 Y49.657 E.05079
G1 X210.343 Y59.76 E1.06256
G1 X210.343 Y60.442 E.05079
G1 X199.558 Y49.657 E1.13438
G1 X198.875 Y49.657 E.05079
G1 X210.343 Y61.125 E1.20621
M73 P5 R11
G1 X210.343 Y61.808 E.05079
G1 X198.192 Y49.657 E1.27804
G1 X197.509 Y49.657 E.05079
G1 X210.343 Y62.491 E1.34987
G1 X210.343 Y63.174 E.05079
G1 X196.826 Y49.657 E1.42169
G1 X196.143 Y49.657 E.05079
G1 X210.343 Y63.857 E1.49352
G1 X210.343 Y64.54 E.05079
G1 X195.46 Y49.657 E1.56535
G1 X194.777 Y49.657 E.05079
G1 X210.343 Y65.223 E1.63717
G1 X210.343 Y65.906 E.05079
G1 X194.094 Y49.657 E1.709
G1 X193.411 Y49.657 E.05079
G1 X210.343 Y66.589 E1.78083
G1 X210.343 Y67.272 E.05079
G1 X192.728 Y49.657 E1.85266
G1 X192.045 Y49.657 E.05079
G1 X210.343 Y67.955 E1.92448
G1 X210.343 Y68.637 E.05079
G1 X191.363 Y49.657 E1.99631
M73 P6 R11
G1 X190.68 Y49.657 E.05079
G1 X210.343 Y69.32 E2.06814
G1 X210.343 Y70.003 E.05079
G1 X189.997 Y49.657 E2.13996
G1 X189.314 Y49.657 E.05079
G1 X210.343 Y70.686 E2.21179
G1 X210.343 Y71.369 E.05079
G1 X188.631 Y49.657 E2.28362
G1 X187.948 Y49.657 E.05079
G1 X210.343 Y72.052 E2.35545
G1 X210.343 Y72.735 E.05079
G1 X187.265 Y49.657 E2.42727
G1 X186.582 Y49.657 E.05079
G1 X210.343 Y73.418 E2.4991
G1 X210.343 Y74.101 E.05079
G1 X185.899 Y49.657 E2.57093
G1 X185.216 Y49.657 E.05079
G1 X210.343 Y74.784 E2.64276
G1 X210.343 Y75.467 E.05079
G1 X184.533 Y49.657 E2.71458
G1 X183.85 Y49.657 E.05079
G1 X210.343 Y76.15 E2.78641
G1 X210.343 Y76.832 E.05079
G1 X183.168 Y49.657 E2.85824
G1 X182.485 Y49.657 E.05079
G1 X210.343 Y77.515 E2.93006
G1 X210.343 Y78.198 E.05079
G1 X181.802 Y49.657 E3.00189
G1 X181.119 Y49.657 E.05079
G1 X210.343 Y78.881 E3.07372
G1 X210.343 Y79.564 E.05079
G1 X180.436 Y49.657 E3.14555
M73 P7 R11
G1 X179.753 Y49.657 E.05079
G1 X210.343 Y80.247 E3.21737
G1 X210.343 Y80.93 E.05079
G1 X179.07 Y49.657 E3.2892
G1 X178.387 Y49.657 E.05079
G1 X210.343 Y81.613 E3.36103
G1 X210.343 Y82.296 E.05079
G1 X177.704 Y49.657 E3.43285
G1 X177.021 Y49.657 E.05079
G1 X210.343 Y82.979 E3.50468
G1 X210.343 Y83.662 E.05079
G1 X176.338 Y49.657 E3.57651
G1 X175.655 Y49.657 E.05079
G1 X210.343 Y84.345 E3.64834
G1 X210.343 Y85.027 E.05079
G1 X174.973 Y49.657 E3.72016
G1 X174.29 Y49.657 E.05079
G1 X210.343 Y85.71 E3.79199
G1 X210.343 Y86.393 E.05079
G1 X173.607 Y49.657 E3.86382
G1 X172.924 Y49.657 E.05079
G1 X210.343 Y87.076 E3.93565
G1 X210.343 Y87.759 E.05079
G1 X172.241 Y49.657 E4.00747
M73 P8 R11
G1 X171.558 Y49.657 E.05079
G1 X210.343 Y88.442 E4.0793
G1 X210.343 Y89.125 E.05079
G1 X170.875 Y49.657 E4.15113
G1 X170.192 Y49.657 E.05079
G1 X210.343 Y89.808 E4.22295
G1 X210.343 Y90.491 E.05079
G1 X169.509 Y49.657 E4.29478
G1 X168.826 Y49.657 E.05079
G1 X210.343 Y91.174 E4.36661
G1 X210.343 Y91.857 E.05079
G1 X168.143 Y49.657 E4.43844
G1 X167.46 Y49.657 E.05079
G1 X210.343 Y92.54 E4.51026
G1 X210.343 Y93.222 E.05079
G1 X166.778 Y49.657 E4.58209
G1 X166.095 Y49.657 E.05079
G1 X210.343 Y93.905 E4.65392
M73 P9 R11
G1 X210.343 Y94.588 E.05079
G1 X165.412 Y49.657 E4.72574
G1 X164.729 Y49.657 E.05079
G1 X210.343 Y95.271 E4.79757
G1 X210.343 Y95.954 E.05079
G1 X164.046 Y49.657 E4.8694
G1 X163.363 Y49.657 E.05079
G1 X210.343 Y96.637 E4.94123
G1 X210.343 Y97.32 E.05079
G1 X162.68 Y49.657 E5.01305
G1 X161.997 Y49.657 E.05079
G1 X210.343 Y98.003 E5.08488
G1 X210.343 Y98.686 E.05079
G1 X161.314 Y49.657 E5.15671
G1 X160.631 Y49.657 E.05079
G1 X210.343 Y99.369 E5.22854
G1 X210.343 Y100.052 E.05079
G1 X159.948 Y49.657 E5.30036
M73 P10 R11
G1 X159.265 Y49.657 E.05079
G1 X210.343 Y100.735 E5.37219
G1 X210.343 Y101.418 E.05079
G1 X158.582 Y49.657 E5.44402
G1 X157.9 Y49.657 E.05079
G1 X210.343 Y102.1 E5.51584
G1 X210.343 Y102.783 E.05079
G1 X157.217 Y49.657 E5.58767
G1 X156.534 Y49.657 E.05079
G1 X210.343 Y103.466 E5.6595
G1 X210.343 Y104.149 E.05079
G1 X155.851 Y49.657 E5.73133
G1 X155.168 Y49.657 E.05079
G1 X210.343 Y104.832 E5.80315
M73 P11 R11
G1 X210.343 Y105.515 E.05079
G1 X154.485 Y49.657 E5.87498
G1 X153.802 Y49.657 E.05079
G1 X210.343 Y106.198 E5.94681
G1 X210.343 Y106.881 E.05079
G1 X153.119 Y49.657 E6.01864
G1 X152.436 Y49.657 E.05079
G1 X210.343 Y107.564 E6.09046
G1 X210.343 Y108.247 E.05079
G1 X151.753 Y49.657 E6.16229
G1 X151.07 Y49.657 E.05079
G1 X210.343 Y108.93 E6.23412
G1 X210.343 Y109.613 E.05079
G1 X150.387 Y49.657 E6.30594
M73 P12 R11
G1 X149.705 Y49.657 E.05079
G1 X210.343 Y110.295 E6.37777
G1 X210.343 Y110.978 E.05079
G1 X149.022 Y49.657 E6.4496
G1 X148.339 Y49.657 E.05079
G1 X210.343 Y111.661 E6.52143
G1 X210.343 Y112.344 E.05079
G1 X147.656 Y49.657 E6.59325
G1 X146.973 Y49.657 E.05079
G1 X210.343 Y113.027 E6.66508
G1 X210.343 Y113.71 E.05079
G1 X146.29 Y49.657 E6.73691
M73 P13 R11
G1 X145.607 Y49.657 E.05079
G1 X210.343 Y114.393 E6.80873
G1 X210.343 Y115.076 E.05079
G1 X144.924 Y49.657 E6.88056
G1 X144.241 Y49.657 E.05079
G1 X210.343 Y115.759 E6.95239
M73 P13 R10
G1 X210.343 Y116.442 E.05079
G1 X143.558 Y49.657 E7.02422
G1 X142.875 Y49.657 E.05079
G1 X210.343 Y117.125 E7.09604
G1 X210.343 Y117.808 E.05079
G1 X142.192 Y49.657 E7.16787
M73 P14 R10
G1 X141.51 Y49.657 E.05079
G1 X210.343 Y118.49 E7.2397
G1 X210.343 Y119.173 E.05079
G1 X140.827 Y49.657 E7.31153
G1 X140.144 Y49.657 E.05079
G1 X210.343 Y119.856 E7.38335
G1 X210.343 Y120.539 E.05079
G1 X139.461 Y49.657 E7.45518
G1 X138.778 Y49.657 E.05079
G1 X210.343 Y121.222 E7.52701
G1 X210.343 Y121.905 E.05079
G1 X138.095 Y49.657 E7.59883
M73 P15 R10
G1 X137.412 Y49.657 E.05079
G1 X210.343 Y122.588 E7.67066
G1 X210.343 Y123.271 E.05079
G1 X136.729 Y49.657 E7.74249
G1 X136.046 Y49.657 E.05079
G1 X210.343 Y123.954 E7.81432
G1 X210.343 Y124.637 E.05079
G1 X135.363 Y49.657 E7.88614
G1 X134.68 Y49.657 E.05079
G1 X210.343 Y125.32 E7.95797
M73 P16 R10
G1 X210.343 Y126.003 E.05079
G1 X133.997 Y49.657 E8.0298
G1 X133.315 Y49.657 E.05079
G1 X210.343 Y126.685 E8.10162
G1 X210.343 Y127.368 E.05079
G1 X132.632 Y49.657 E8.17345
G1 X131.949 Y49.657 E.05079
G1 X210.343 Y128.051 E8.24528
G1 X210.343 Y128.734 E.05079
G1 X131.266 Y49.657 E8.31711
G1 X130.583 Y49.657 E.05079
G1 X210.343 Y129.417 E8.38893
M73 P17 R10
G1 X210.343 Y130.1 E.05079
G1 X129.9 Y49.657 E8.46076
G1 X129.217 Y49.657 E.05079
G1 X210.343 Y130.783 E8.53259
G1 X210.343 Y131.466 E.05079
G1 X128.534 Y49.657 E8.60442
G1 X127.851 Y49.657 E.05079
G1 X210.343 Y132.149 E8.67624
M73 P18 R10
G1 X210.343 Y132.832 E.05079
G1 X127.168 Y49.657 E8.74807
G1 X126.485 Y49.657 E.05079
G1 X210.343 Y133.515 E8.8199
G1 X210.343 Y134.198 E.05079
G1 X125.802 Y49.657 E8.89172
G1 X125.12 Y49.657 E.05079
G1 X210.343 Y134.881 E8.96355
G1 X210.343 Y135.563 E.05079
G1 X124.437 Y49.657 E9.03538
M73 P19 R10
G1 X123.754 Y49.657 E.05079
G1 X210.343 Y136.246 E9.10721
G1 X210.343 Y136.929 E.05079
G1 X123.071 Y49.657 E9.17903
G1 X122.388 Y49.657 E.05079
G1 X210.343 Y137.612 E9.25086
G1 X210.343 Y138.295 E.05079
G1 X121.705 Y49.657 E9.32269
G1 X121.022 Y49.657 E.05079
G1 X210.343 Y138.978 E9.39451
M73 P20 R10
G1 X210.343 Y139.661 E.05079
G1 X120.339 Y49.657 E9.46634
G1 X119.656 Y49.657 E.05079
G1 X210.343 Y140.344 E9.53817
G1 X210.343 Y141.027 E.05079
G1 X118.973 Y49.657 E9.61
G1 X118.29 Y49.657 E.05079
G1 X210.343 Y141.71 E9.68182
M73 P21 R10
G1 X210.343 Y142.393 E.05079
G1 X117.607 Y49.657 E9.75365
G1 X116.924 Y49.657 E.05079
G1 X210.343 Y143.076 E9.82548
M73 P21 R9
G1 X210.343 Y143.758 E.05079
G1 X116.242 Y49.657 E9.89731
G1 X115.559 Y49.657 E.05079
G1 X210.343 Y144.441 E9.96913
M73 P22 R9
G1 X210.343 Y145.124 E.05079
G1 X114.876 Y49.657 E10.04096
G1 X114.193 Y49.657 E.05079
G1 X210.343 Y145.807 E10.11279
G1 X210.343 Y146.49 E.05079
G1 X113.51 Y49.657 E10.18461
G1 X112.827 Y49.657 E.05079
G1 X210.343 Y147.173 E10.25644
G1 X210.343 Y147.856 E.05079
G1 X112.144 Y49.657 E10.32827
M73 P23 R9
G1 X111.461 Y49.657 E.05079
G1 X210.343 Y148.539 E10.4001
G1 X210.343 Y149.222 E.05079
G1 X110.778 Y49.657 E10.47192
G1 X110.095 Y49.657 E.05079
G1 X210.343 Y149.905 E10.54375
G1 X210.343 Y150.588 E.05079
G1 X109.412 Y49.657 E10.61558
M73 P24 R9
G1 X108.729 Y49.657 E.05079
G1 X210.343 Y151.271 E10.68741
G1 X210.343 Y151.953 E.05079
G1 X108.047 Y49.657 E10.75923
G1 X107.364 Y49.657 E.05079
G1 X210.343 Y152.636 E10.83106
G1 X210.343 Y153.319 E.05079
G1 X106.681 Y49.657 E10.90289
M73 P25 R9
G1 X105.998 Y49.657 E.05079
G1 X210.343 Y154.002 E10.97471
G1 X210.343 Y154.685 E.05079
G1 X105.315 Y49.657 E11.04654
G1 X104.632 Y49.657 E.05079
G1 X210.343 Y155.368 E11.11837
M73 P26 R9
G1 X210.343 Y156.051 E.05079
G1 X103.949 Y49.657 E11.1902
G1 X103.266 Y49.657 E.05079
G1 X210.343 Y156.734 E11.26202
G1 X210.343 Y157.417 E.05079
G1 X102.583 Y49.657 E11.33385
G1 X101.9 Y49.657 E.05079
G1 X210.343 Y158.1 E11.40568
M73 P27 R9
G1 X210.343 Y158.783 E.05079
G1 X101.217 Y49.657 E11.4775
G1 X100.534 Y49.657 E.05079
G1 X210.343 Y159.466 E11.54933
G1 X210.343 Y160.148 E.05079
G1 X99.852 Y49.657 E11.62116
G1 X99.169 Y49.657 E.05079
G1 X210.343 Y160.831 E11.69299
M73 P28 R9
G1 X210.343 Y161.514 E.05079
G1 X98.486 Y49.657 E11.76481
G1 X97.803 Y49.657 E.05079
G1 X210.343 Y162.197 E11.83664
G1 X210.343 Y162.88 E.05079
G1 X97.12 Y49.657 E11.90847
M73 P29 R9
G1 X96.437 Y49.657 E.05079
G1 X210.343 Y163.563 E11.9803
M73 P29 R8
G1 X210.343 Y164.246 E.05079
G1 X95.754 Y49.657 E12.05212
G1 X95.071 Y49.657 E.05079
G1 X210.343 Y164.929 E12.12395
G1 X210.343 Y165.612 E.05079
G1 X94.388 Y49.657 E12.19578
M73 P30 R8
G1 X93.705 Y49.657 E.05079
G1 X210.343 Y166.295 E12.2676
G1 X210.343 Y166.978 E.05079
G1 X93.022 Y49.657 E12.33943
G1 X92.339 Y49.657 E.05079
G1 X210.343 Y167.661 E12.41126
M73 P31 R8
G1 X210.343 Y168.343 E.05079
G1 X91.657 Y49.657 E12.48309
G1 X90.974 Y49.657 E.05079
G1 X210.343 Y169.026 E12.55491
G1 X210.343 Y169.709 E.05079
G1 X90.291 Y49.657 E12.62674
G1 X89.608 Y49.657 E.05079
G1 X210.343 Y170.392 E12.69857
M73 P32 R8
G1 X210.343 Y171.075 E.05079
G1 X88.925 Y49.657 E12.77039
G1 X88.242 Y49.657 E.05079
G1 X210.343 Y171.758 E12.84222
G1 X210.343 Y172.441 E.05079
G1 X87.559 Y49.657 E12.91405
M73 P33 R8
G1 X86.876 Y49.657 E.05079
G1 X210.343 Y173.124 E12.98588
G1 X210.343 Y173.807 E.05079
G1 X86.193 Y49.657 E13.0577
G1 X85.51 Y49.657 E.05079
G1 X210.343 Y174.49 E13.12953
M73 P34 R8
G1 X210.343 Y175.173 E.05079
G1 X84.827 Y49.657 E13.20136
G1 X84.144 Y49.657 E.05079
G1 X210.343 Y175.856 E13.27319
G1 X210.343 Y176.539 E.05079
G1 X83.462 Y49.657 E13.34501
M73 P35 R8
G1 X82.779 Y49.657 E.05079
G1 X210.343 Y177.221 E13.41684
G1 X210.343 Y177.904 E.05079
G1 X82.096 Y49.657 E13.48867
G1 X81.413 Y49.657 E.05079
G1 X210.343 Y178.587 E13.56049
M73 P36 R8
G1 X210.343 Y179.27 E.05079
G1 X80.73 Y49.657 E13.63232
G1 X80.047 Y49.657 E.05079
G1 X210.343 Y179.953 E13.70415
G1 X210.343 Y180.636 E.05079
G1 X79.364 Y49.657 E13.77598
G1 X78.681 Y49.657 E.05079
G1 X210.343 Y181.319 E13.8478
M73 P37 R7
G1 X210.343 Y182.002 E.05079
G1 X77.998 Y49.657 E13.91963
G1 X77.315 Y49.657 E.05079
G1 X210.343 Y182.685 E13.99146
G1 X210.343 Y183.368 E.05079
G1 X76.632 Y49.657 E14.06328
M73 P38 R7
G1 X75.949 Y49.657 E.05079
G1 X210.343 Y184.051 E14.13511
G1 X210.343 Y184.734 E.05079
G1 X75.266 Y49.657 E14.20694
G1 X74.584 Y49.657 E.05079
G1 X210.343 Y185.416 E14.27877
M73 P39 R7
G1 X210.343 Y186.099 E.05079
G1 X73.901 Y49.657 E14.35059
G1 X73.218 Y49.657 E.05079
G1 X210.343 Y186.782 E14.42242
M73 P40 R7
G1 X210.343 Y187.465 E.05079
G1 X72.535 Y49.657 E14.49425
G1 X71.852 Y49.657 E.05079
G1 X210.343 Y188.148 E14.56608
G1 X210.343 Y188.831 E.05079
G1 X71.169 Y49.657 E14.6379
M73 P41 R7
G1 X70.486 Y49.657 E.05079
G1 X210.343 Y189.514 E14.70973
G1 X210.343 Y190.197 E.05079
G1 X69.803 Y49.657 E14.78156
G1 X69.12 Y49.657 E.05079
G1 X210.343 Y190.88 E14.85338
M73 P42 R7
G1 X210.343 Y191.563 E.05079
G1 X68.437 Y49.657 E14.92521
G1 X67.754 Y49.657 E.05079
G1 X210.343 Y192.246 E14.99704
G1 X210.343 Y192.929 E.05079
G1 X67.071 Y49.657 E15.06887
M73 P43 R7
G1 X66.389 Y49.657 E.05079
G1 X210.343 Y193.611 E15.14069
G1 X210.343 Y194.294 E.05079
G1 X65.706 Y49.657 E15.21252
G1 X65.023 Y49.657 E.05079
G1 X210.343 Y194.977 E15.28435
M73 P44 R7
G1 X210.343 Y195.66 E.05079
G1 X64.34 Y49.657 E15.35618
G1 X63.657 Y49.657 E.05079
G1 X210.343 Y196.343 E15.428
M73 P44 R6
G1 X210.343 Y197.026 E.05079
G1 X62.974 Y49.657 E15.49983
M73 P45 R6
G1 X62.291 Y49.657 E.05079
G1 X210.343 Y197.709 E15.57166
G1 X210.343 Y198.392 E.05079
G1 X61.608 Y49.657 E15.64348
M73 P46 R6
G1 X60.925 Y49.657 E.05079
G1 X210.343 Y199.075 E15.71531
G1 X210.343 Y199.758 E.05079
G1 X60.242 Y49.657 E15.78714
G1 X59.559 Y49.657 E.05079
G1 X210.343 Y200.441 E15.85897
M73 P47 R6
G1 X210.343 Y201.124 E.05079
G1 X58.876 Y49.657 E15.93079
G1 X58.194 Y49.657 E.05079
G1 X210.343 Y201.806 E16.00262
G1 X210.343 Y202.489 E.05079
G1 X57.511 Y49.657 E16.07445
M73 P48 R6
G1 X56.828 Y49.657 E.05079
G1 X210.343 Y203.172 E16.14627
G1 X210.343 Y203.855 E.05079
G1 X56.145 Y49.657 E16.2181
M73 P49 R6
G1 X55.462 Y49.657 E.05079
