; HEADER_BLOCK_START
; generated by OrcaSlicer 1.6.4-beta3 on 2023-08-18 at 11:00:32
; total layer number: 40
; HEADER_BLOCK_END

; THUMBNAIL_BLOCK_START
; THUMBNAIL_BLOCK_END

; external perimeters extrusion width = 0.44mm
; perimeters extrusion width = 0.42mm
; infill extrusion width = 0.50mm
; solid infill extrusion width = 0.44mm
; top infill extrusion width = 0.42mm
; first layer extrusion width = 0.56mm

; EXECUTABLE_BLOCK_START
EXCLUDE_OBJECT_DEFINE NAME=LED_EVA_diffussor.stl_id_0_copy_0 CENTER=110,110 POLYGON=[[99.725,109.002],[102.525,105.354],[105.354,102.525],[109.002,99.725],[110.998,99.725],[114.646,102.525],[117.475,105.354],[120.275,109.002],[120.275,110.998],[117.475,114.646],[114.646,117.475],[110.998,120.275],[109.002,120.275],[105.354,117.475],[102.525,114.646],[99.725,110.998],[99.725,109.002]]
M73 P0 R4
;TYPE:Custom
M190 S0 ; Remove this if autoemit_temperature_commands is off in Prusa Slicer 2.6 and later
M109 S0 ; Remove this if autoemit_temperature_commands is off in Prusa Slicer 2.6 and later
_PRINT_START_PHASE_INIT EXTRUDER=255 BED=80 MESH_MIN=101.225,101.225 MESH_MAX=118.775,118.775 LAYERS=40 NOZZLE_SIZE=0.4
; Insert custom gcode here.
_PRINT_START_PHASE_PREHEAT
; Insert custom gcode here.
_PRINT_START_PHASE_PROBING
; Insert custom gcode here.
_PRINT_START_PHASE_EXTRUDER
; Insert custom gcode here.
_PRINT_START_PHASE_PURGE

; This is the place to put slicer purge lines if you haven't set a non-zero
; variable_start_purge_length to have START_PRINT automatically calculate and 
; perform the purge (e.g. if using a Mosaic Palette, which requires the slicer
; to generate the purge).
G90
G21
M83 ; use relative distances for extrusion
; filament start gcode
;LAYER_CHANGE
;Z:0.36
;HEIGHT:0.36
;BEFORE_LAYER_CHANGE
;0.36
BEFORE_LAYER_CHANGE HEIGHT=0.36 LAYER=0
G1 E-.4 F1800
;AFTER_LAYER_CHANGE
;0.36
AFTER_LAYER_CHANGE
SET_VELOCITY_LIMIT ACCEL=3000 ACCEL_TO_DECEL=1500
; printing object LED_EVA_diffussor.stl id:0 copy 0
EXCLUDE_OBJECT_START NAME=LED_EVA_diffussor.stl_id_0_copy_0
G1 Z.4 F9000
G1 X115.467 Y110
G1 Z.4
G1 Z.36
G1 E.4 F1200
;TYPE:Outer wall
;WIDTH:0.56
G1 F3000
G1 X110 Y115.467 E.53066
G1 X106.667 Y112.134 E.32352
G1 X107.881 Y110.92 E.11783
G1 X109.67 Y110.92 E.12279
G1 X109.67 Y109.08 E.1263
G1 X107.881 Y109.08 E.12279
G1 X106.667 Y107.866 E.11783
G1 X107.016 Y107.517 E.03388
G1 X110 Y104.533 E.28964
G1 X115.438 Y109.972 E.52791
G1 E-.4 F1800
G1 Z.76 F9000
G1 X118.495 Y109.74 Z.76
G1 Z.36
G1 E.4 F1200
G1 F3000
G1 X118.495 Y110.261 E.03576
G1 X110.26 Y118.495 E.79934
G1 X109.74 Y118.495 E.03576
G1 X101.505 Y110.261 E.79933
G1 X101.505 Y109.74 E.03576
M73 P1 R4
G1 X109.74 Y101.505 E.79934
G1 X110.26 Y101.505 E.03576
G1 X117.125 Y108.37 E.66639
G1 X118.467 Y109.711 E.1302
G1 X118.351 Y110.097 F9000
;TYPE:Sparse infill
G1 F3000
G1 X110.109 Y101.854 E.80013
G1 X109.884 Y101.854 E.01542
G1 X109.666 Y102.072 E.02115
G1 X117.928 Y110.334 E.80197
G1 X117.598 Y110.664 E.03205
G1 X109.336 Y102.402 E.80197
G1 X109.006 Y102.732 E.03205
G1 X117.268 Y110.994 E.80197
G1 X116.937 Y111.324 E.03205
G1 X115.787 Y110.174 E.11168
G1 X115.457 Y110.504 E.03205
G1 X116.607 Y111.654 E.11168
G1 X116.277 Y111.985 E.03205
G1 X115.126 Y110.834 E.11168
G1 X114.796 Y111.164 E.03205
G1 X115.947 Y112.315 E.11168
G1 X115.617 Y112.645 E.03205
G1 X114.466 Y111.494 E.11168
G1 X114.136 Y111.825 E.03205
G1 X115.286 Y112.975 E.11168
G1 X114.956 Y113.305 E.03205
G1 X113.806 Y112.155 E.11168
G1 X113.476 Y112.485 E.03205
G1 X114.626 Y113.636 E.11168
G1 X114.296 Y113.966 E.03205
G1 X113.145 Y112.815 E.11168
G1 X112.815 Y113.145 E.03205
G1 X113.966 Y114.296 E.11168
G1 X113.635 Y114.626 E.03205
G1 X112.485 Y113.476 E.11168
G1 X112.155 Y113.806 E.03205
G1 X113.305 Y114.956 E.11168
G1 X112.975 Y115.286 E.03205
G1 X111.825 Y114.136 E.11168
G1 X111.494 Y114.466 E.03205
G1 X112.645 Y115.617 E.11168
G1 X112.315 Y115.947 E.03205
G1 X111.164 Y114.796 E.11168
G1 X110.834 Y115.127 E.03205
G1 X111.985 Y116.277 E.11168
G1 X111.654 Y116.607 E.03205
G1 X110.504 Y115.457 E.11168
G1 X110.174 Y115.787 E.03205
G1 X111.324 Y116.937 E.11168
G1 X110.994 Y117.268 E.03205
G1 X102.732 Y109.006 E.80197
M73 P2 R4
G1 X103.063 Y108.676 E.03205
G1 X106.347 Y111.96 E.31882
G1 X106.677 Y111.63 E.03205
G1 X103.393 Y108.346 E.31882
G1 X103.723 Y108.015 E.03205
G1 X107.007 Y111.3 E.31882
G1 X107.338 Y110.97 E.03205
G1 X104.053 Y107.685 E.31882
G1 X104.383 Y107.355 E.03205
G1 X107.668 Y110.639 E.31882
G1 X107.736 Y110.571 E.00667
G1 X108.259 Y110.571 E.0359
G1 X104.714 Y107.025 E.3442
G1 X105.044 Y106.695 E.03205
G1 X108.92 Y110.571 E.37626
G1 X109.321 Y110.571 E.02752
G1 X109.321 Y110.311 E.0178
G1 X108.439 Y109.429 E.08563
G1 X109.099 Y109.429 E.04533
G1 X109.526 Y109.857 E.0415
G1 E-.28 F1800
;WIPE_START
G1 F3000
G1 X109.099 Y109.429 E-.06892
G1 X108.704 Y109.429 E-.04508
;WIPE_END
G1 E-.006 F1800
G1 Z.76 F9000
G1 X109.972 Y104.359 Z.76
G1 Z.36
G1 E.4 F1200
G1 F3000
G1 X108.676 Y103.063 E.1258
G1 X108.346 Y103.393 E.03205
G1 X109.496 Y104.543 E.11168
G1 X109.166 Y104.874 E.03205
G1 X108.015 Y103.723 E.11168
G1 X107.685 Y104.053 E.03205
G1 X108.836 Y105.204 E.11168
G1 X108.506 Y105.534 E.03205
G1 X107.355 Y104.383 E.11168
G1 X107.025 Y104.714 E.03205
G1 X108.175 Y105.864 E.11168
G1 X107.845 Y106.194 E.03205
G1 X106.695 Y105.044 E.11168
G1 X106.364 Y105.374 E.03205
G1 X107.515 Y106.524 E.11168
G1 X107.185 Y106.855 E.03205
G1 X106.034 Y105.704 E.11168
G1 X105.704 Y106.034 E.03205
G1 X106.855 Y107.185 E.11168
G1 X106.524 Y107.515 E.03205
G1 X105.228 Y106.219 E.1258
G1 E-.4 F1800
G1 Z.76 F9000
G1 X101.649 Y109.903 Z.76
G1 Z.36
G1 E.4 F1200
G1 F3000
G1 X109.891 Y118.146 E.80012
M73 P3 R4
G1 X110.116 Y118.146 E.01543
G1 X110.334 Y117.928 E.02114
G1 X102.072 Y109.666 E.80197
G1 X102.402 Y109.336 E.03205
G1 X110.809 Y117.743 E.81608
; stop printing object LED_EVA_diffussor.stl id:0 copy 0
;LAYER_CHANGE
;Z:0.56
;HEIGHT:0.2
;BEFORE_LAYER_CHANGE
;0.56
BEFORE_LAYER_CHANGE HEIGHT=0.56 LAYER=1
G1 E-.28 F1800
;WIPE_START
G1 F3000
G1 X110.102 Y117.036 E-.114
;WIPE_END
G1 E-.006 F1800
EXCLUDE_OBJECT_END NAME=LED_EVA_diffussor.stl_id_0_copy_0
;AFTER_LAYER_CHANGE
;0.56
AFTER_LAYER_CHANGE
M140 S80 ; set bed temperature
; printing object LED_EVA_diffussor.stl id:0 copy 0
EXCLUDE_OBJECT_START NAME=LED_EVA_diffussor.stl_id_0_copy_0
G1 Z.76 F18000
G1 X110 Y115.382 Z.76
G1 Z.56
G1 E.4 F1200
;TYPE:Outer wall
;WIDTH:0.44
G1 F3000
G1 X106.752 Y112.134 E.14408
G1 X107.906 Y110.98 E.05118
G1 X109.73 Y110.98 E.05721
G1 X109.73 Y109.02 E.06148
G1 X107.906 Y109.02 E.05721
G1 X106.752 Y107.866 E.05118
G1 X107.294 Y107.325 E.02402
G1 X110 Y104.618 E.12005
G1 X115.382 Y110 E.23873
G1 X110.028 Y115.354 E.23748
G1 E-.4 F1800
G1 Z.96 F18000
G1 X110.285 Y118.555 Z.96
G1 Z.56
G1 E.4 F1200
G1 F3000
G1 X109.715 Y118.555 E.0179
G1 X101.445 Y110.285 E.36683
G1 X101.445 Y109.715 E.0179
G1 X109.715 Y101.445 E.36683
G1 X110.285 Y101.445 E.0179
G1 X114.91 Y106.069 E.20514
G1 X118.555 Y109.715 E.1617
G1 X118.555 Y110.285 E.0179
G1 X110.314 Y118.527 E.36558
; stop printing object LED_EVA_diffussor.stl id:0 copy 0
M106 S255

;LAYER_CHANGE
;Z:0.76
;HEIGHT:0.2
;BEFORE_LAYER_CHANGE
;0.76
BEFORE_LAYER_CHANGE HEIGHT=0.76 LAYER=2
M73 P4 R4
G1 E-.28 F1800
;WIPE_START
G1 F6000
G1 X109.715 Y118.555 E-.06836
G1 X109.432 Y118.272 E-.04564
;WIPE_END
G1 E-.006 F1800
EXCLUDE_OBJECT_END NAME=LED_EVA_diffussor.stl_id_0_copy_0
;AFTER_LAYER_CHANGE
;0.76
AFTER_LAYER_CHANGE
; printing object LED_EVA_diffussor.stl id:0 copy 0
EXCLUDE_OBJECT_START NAME=LED_EVA_diffussor.stl_id_0_copy_0
G1 Z.96 F18000
G1 X110 Y115.382 Z.96
G1 Z.76
G1 E.4 F1200
G1 F3000
G1 X106.752 Y112.134 E.14408
G1 X107.906 Y110.98 E.05118
G1 X109.73 Y110.98 E.05721
G1 X109.73 Y109.02 E.06148
G1 X107.906 Y109.02 E.05721
G1 X106.752 Y107.866 E.05118
G1 X107.461 Y107.157 E.03147
G1 X110 Y104.618 E.11261
G1 X115.382 Y110 E.23873
G1 X110.028 Y115.354 E.23748
G1 E-.4 F1800
G1 Z1.16 F18000
G1 X110.285 Y118.555 Z1.16
G1 Z.76
G1 E.4 F1200
G1 F3000
G1 X109.715 Y118.555 E.0179
G1 X101.445 Y110.285 E.36683
G1 X101.445 Y109.715 E.0179
G1 X109.715 Y101.445 E.36683
G1 X110.285 Y101.445 E.0179
G1 X113.297 Y104.457 E.13359
G1 X118.555 Y109.715 E.23324
G1 X118.555 Y110.285 E.0179
G1 X110.314 Y118.527 E.36558
G1 X110.067 Y118.433 F18000
;TYPE:Sparse infill
;WIDTH:0.5
;HEIGHT:0.4
G1 F3000
G1 X106.579 Y114.945 E0.32278
M106 S229
G1 X101.773 Y110.138 E0.44476
G1 X101.773 Y109.85 E.01883
G1 X101.964 Y109.66 E.01765
G1 X110.34 Y118.036 E.77513
M73 P5 R4
G1 X110.675 Y117.702 E.03096
G1 X102.298 Y109.325 E.77513
G1 X102.633 Y108.99 E.03096
G1 X111.155 Y117.513 E.78859
G1 E-.28 F1800
;WIPE_START
G1 F5432.693
G1 X110.448 Y116.806 E-.114
;WIPE_END
G1 E-.006 F1800
G1 Z1.16 F18000
G1 X109.608 Y110.612 Z1.16
G1 Z.76
G1 E.4 F1200
G1 F3000
G1 X108.344 Y109.348 E.11696
G1 X109.013 Y109.348 E.04379
G1 X109.608 Y109.943 E.05503
G1 E-.28 F1800
;WIPE_START
G1 F5432.693
G1 X109.013 Y109.348 E-.09589
G1 X108.854 Y109.348 E-.01811
;WIPE_END
G1 E-.006 F1800
G1 Z1.16 F18000
G1 X116.843 Y111.824 Z1.16
G1 Z.76
G1 E.4 F1200
G1 F3000
G1 X115.432 Y110.413 E.13058
G1 X115.098 Y110.748 E.03096
G1 X116.363 Y112.013 E.11712
G1 X116.029 Y112.348 E.03096
G1 X114.763 Y111.082 E.11712
G1 X114.428 Y111.417 E.03096
G1 X115.694 Y112.683 E.11712
G1 X115.359 Y113.017 E.03096
G1 X114.094 Y111.752 E.11712
G1 X113.759 Y112.086 E.03096
G1 X115.025 Y113.352 E.11712
G1 X114.69 Y113.686 E.03096
G1 X113.425 Y112.421 E.11712
G1 X113.09 Y112.755 E.03096
G1 X114.356 Y114.021 E.11712
G1 X114.021 Y114.356 E.03096
G1 X112.755 Y113.09 E.11712
G1 X112.421 Y113.425 E.03096
G1 X113.686 Y114.69 E.11712
G1 X113.352 Y115.025 E.03096
G1 X112.086 Y113.759 E.11712
G1 X111.752 Y114.094 E.03096
G1 X113.017 Y115.36 E.11712
G1 X112.683 Y115.694 E.03096
G1 X111.417 Y114.429 E.11712
G1 X111.082 Y114.763 E.03096
G1 X112.348 Y116.029 E.11712
G1 X112.013 Y116.363 E.03096
G1 X110.748 Y115.098 E.11712
G1 X110.413 Y115.432 E.03096
G1 X111.679 Y116.698 E.11712
G1 X111.344 Y117.033 E.03096
G1 X102.967 Y108.656 E.77513
M73 P6 R4
G1 X103.302 Y108.321 E.03096
G1 X106.702 Y111.721 E.31457
G1 X107.036 Y111.386 E.03096
G1 X103.637 Y107.987 E.31457
G1 X103.971 Y107.652 E.03096
G1 X107.371 Y111.052 E.31457
G1 X107.705 Y110.717 E.03096
G1 X104.306 Y107.317 E.31457
G1 X104.64 Y106.983 E.03096
G1 X108.31 Y110.652 E.33954
G1 X108.979 Y110.652 E.04379
G1 X104.975 Y106.648 E.3705
G1 X105.31 Y106.314 E.03096
G1 X106.575 Y107.579 E.11712
G1 X106.91 Y107.245 E.03096
G1 X105.644 Y105.979 E.11712
G1 X105.979 Y105.644 E.03096
G1 X107.245 Y106.91 E.11712
G1 X107.579 Y106.575 E.03096
G1 X106.314 Y105.31 E.11712
G1 X106.648 Y104.975 E.03096
G1 X107.914 Y106.241 E.11712
G1 X108.248 Y105.906 E.03096
G1 X106.983 Y104.641 E.11712
G1 X107.317 Y104.306 E.03096
G1 X108.583 Y105.572 E.11712
G1 X108.918 Y105.237 E.03096
G1 X107.652 Y103.971 E.11712
G1 X107.987 Y103.637 E.03096
G1 X109.252 Y104.902 E.11712
G1 X109.587 Y104.568 E.03096
G1 X108.321 Y103.302 E.11712
G1 X108.656 Y102.967 E.03096
G1 X117.033 Y111.344 E.77513
G1 X117.367 Y111.01 E.03096
G1 X108.99 Y102.633 E.77513
G1 X109.325 Y102.298 E.03096
G1 X117.702 Y110.675 E.77513
G1 X118.036 Y110.34 E.03096
G1 X109.66 Y101.964 E.77513
G1 X109.85 Y101.773 E.01765
G1 X110.138 Y101.773 E.01882
G1 X118.433 Y110.068 E.76755
; stop printing object LED_EVA_diffussor.stl id:0 copy 0
;LAYER_CHANGE
;Z:0.96
;HEIGHT:0.2
;BEFORE_LAYER_CHANGE
;0.96
BEFORE_LAYER_CHANGE HEIGHT=0.96 LAYER=3
M73 P7 R4
G1 E-.28 F1800
;WIPE_START
G1 F5432.693
G1 X117.726 Y109.361 E-.114
;WIPE_END
G1 E-.006 F1800
EXCLUDE_OBJECT_END NAME=LED_EVA_diffussor.stl_id_0_copy_0
;AFTER_LAYER_CHANGE
;0.96
AFTER_LAYER_CHANGE
; printing object LED_EVA_diffussor.stl id:0 copy 0
EXCLUDE_OBJECT_START NAME=LED_EVA_diffussor.stl_id_0_copy_0
G1 Z1.16 F18000
G1 X115.382 Y110 Z1.16
G1 Z.96
G1 E.4 F1200
;TYPE:Outer wall
;WIDTH:0.44
G1 F3000
G1 X110 Y115.382 E.23873
G1 X106.752 Y112.134 E.14408
G1 X107.906 Y110.98 E.05118
G1 X109.73 Y110.98 E.05721
G1 X109.73 Y109.02 E.06148
G1 X107.906 Y109.02 E.05721
G1 X106.752 Y107.866 E.05118
G1 X107.629 Y106.989 E.03891
G1 X110 Y104.618 E.10516
G1 X115.354 Y109.972 E.23748
G1 E-.4 F1800
G1 Z1.36 F18000
G1 X118.555 Y110.285 Z1.36
G1 Z.96
G1 E.4 F1200
G1 F3000
G1 X110.285 Y118.555 E.36683
G1 X109.715 Y118.555 E.0179
G1 X101.445 Y110.285 E.36683
G1 X101.445 Y109.715 E.0179
G1 X109.715 Y101.445 E.36683
G1 X110.285 Y101.445 E.0179
G1 X111.684 Y102.844 E.06204
G1 X118.555 Y109.715 E.30479
G1 X118.555 Y110.245 E.01665
; stop printing object LED_EVA_diffussor.stl id:0 copy 0
;LAYER_CHANGE
;Z:1.16
;HEIGHT:0.2
;BEFORE_LAYER_CHANGE
;1.16
BEFORE_LAYER_CHANGE HEIGHT=1.16 LAYER=4
G1 E-.28 F1800
;WIPE_START
G1 F6000
G1 X117.85 Y110.954 E-.114
;WIPE_END
G1 E-.006 F1800
EXCLUDE_OBJECT_END NAME=LED_EVA_diffussor.stl_id_0_copy_0
;AFTER_LAYER_CHANGE
;1.16
AFTER_LAYER_CHANGE
; printing object LED_EVA_diffussor.stl id:0 copy 0
EXCLUDE_OBJECT_START NAME=LED_EVA_diffussor.stl_id_0_copy_0
G1 Z1.36 F18000
G1 X115.382 Y110 Z1.36
G1 Z1.16
G1 E.4 F1200
G1 F3000
G1 X110 Y115.382 E.23873
M73 P8 R4
G1 X106.752 Y112.134 E.14408
G1 X107.906 Y110.98 E.05118
G1 X109.73 Y110.98 E.05721
G1 X109.73 Y109.02 E.06148
G1 X107.906 Y109.02 E.05721
G1 X106.752 Y107.866 E.05118
G1 X107.797 Y106.821 E.04636
G1 X110 Y104.618 E.09772
G1 X115.354 Y109.972 E.23748
G1 E-.4 F1800
G1 Z1.56 F18000
G1 X118.574 Y110.293 Z1.56
G1 Z1.16
G1 E.4 F1200
G1 F3000
G1 X110.293 Y118.574 E.36731
G1 X109.707 Y118.574 E.01838
G1 X101.426 Y110.293 E.36731
G1 X101.426 Y109.707 E.01838
G1 X109.707 Y101.426 E.36732
G1 X110.293 Y101.426 E.01838
G1 X118.574 Y109.707 E.36732
G1 X118.574 Y110.253 E.01713
G1 X118.433 Y110.068 F18000
;TYPE:Sparse infill
;WIDTH:0.5
;HEIGHT:0.4
G1 F3000
G1 X110.138 Y101.773 E.76755
G1 X109.85 Y101.773 E.01882
G1 X109.66 Y101.964 E.01765
G1 X118.036 Y110.34 E.77513
G1 X117.702 Y110.675 E.03096
G1 X109.325 Y102.298 E.77513
M73 P9 R4
G1 X108.99 Y102.633 E.03096
G1 X117.367 Y111.01 E.77513
G1 X117.033 Y111.344 E.03096
G1 X108.656 Y102.967 E.77513
G1 X108.321 Y103.302 E.03096
G1 X109.587 Y104.568 E.11712
G1 X109.252 Y104.902 E.03096
G1 X107.987 Y103.637 E.11712
G1 X107.652 Y103.971 E.03096
G1 X108.918 Y105.237 E.11712
G1 X108.583 Y105.572 E.03096
G1 X107.317 Y104.306 E.11712
G1 X106.983 Y104.641 E.03096
G1 X108.248 Y105.906 E.11712
G1 X107.914 Y106.241 E.03096
G1 X106.648 Y104.975 E.11712
G1 X106.314 Y105.31 E.03096
G1 X107.579 Y106.575 E.11712
G1 X107.245 Y106.91 E.03096
G1 X105.979 Y105.644 E.11712
G1 X105.644 Y105.979 E.03096
G1 X106.91 Y107.245 E.11712
G1 X106.575 Y107.579 E.03096
G1 X105.31 Y106.314 E.11712
G1 X104.975 Y106.648 E.03096
G1 X108.979 Y110.652 E.3705
G1 X108.31 Y110.652 E.04379
G1 X104.64 Y106.983 E.33954
G1 X104.306 Y107.317 E.03096
G1 X107.705 Y110.717 E.31457
G1 X107.371 Y111.052 E.03096
G1 X103.971 Y107.652 E.31457
G1 X103.637 Y107.987 E.03096
G1 X107.036 Y111.386 E.31457
G1 X106.702 Y111.721 E.03096
G1 X103.302 Y108.321 E.31457
G1 X102.967 Y108.656 E.03096
G1 X111.344 Y117.033 E.77513
G1 X111.679 Y116.698 E.03096
G1 X110.413 Y115.432 E.11712
G1 X110.748 Y115.098 E.03096
G1 X112.013 Y116.363 E.11712
G1 X112.348 Y116.029 E.03096
G1 X111.082 Y114.763 E.11712
G1 X111.417 Y114.429 E.03096
G1 X112.683 Y115.694 E.11712
G1 X113.017 Y115.36 E.03096
G1 X111.752 Y114.094 E.11712
G1 X112.086 Y113.759 E.03096
G1 X113.352 Y115.025 E.11712
G1 X113.686 Y114.69 E.03096
G1 X112.421 Y113.425 E.11712
G1 X112.755 Y113.09 E.03096
G1 X114.021 Y114.356 E.11712
M73 P10 R4
G1 X114.356 Y114.021 E.03096
G1 X113.09 Y112.755 E.11712
G1 X113.425 Y112.421 E.03096
G1 X114.69 Y113.686 E.11712
G1 X115.025 Y113.352 E.03096
G1 X113.759 Y112.086 E.11712
G1 X114.094 Y111.752 E.03096
G1 X115.359 Y113.017 E.11712
G1 X115.694 Y112.683 E.03096
G1 X114.428 Y111.417 E.11712
G1 X114.763 Y111.082 E.03096
G1 X116.029 Y112.348 E.11712
G1 X116.363 Y112.013 E.03096
G1 X115.098 Y110.748 E.11712
G1 X115.432 Y110.413 E.03096
G1 X116.843 Y111.824 E.13058
G1 E-.28 F1800
;WIPE_START
G1 F5432.693
G1 X116.136 Y111.117 E-.114
;WIPE_END
G1 E-.006 F1800
G1 Z1.56 F18000
G1 X109.608 Y109.943 Z1.56
G1 Z1.16
G1 E.4 F1200
G1 F3000
