; generated by SuperSlicer 2.4 on 2023-08-18 at 17:47:32 UTC


;
;
; 

; external perimeters extrusion width = 0.42mm
; perimeters extrusion width = 0.44mm
; infill extrusion width = 0.44mm
; solid infill extrusion width = 0.44mm
; top infill extrusion width = 0.42mm
; first layer extrusion width = 0.56mm

; external perimeters extrusion width = 0.42mm
; perimeters extrusion width = 0.44mm
; infill extrusion width = 0.44mm
; solid infill extrusion width = 0.44mm
; top infill extrusion width = 0.42mm
; first layer extrusion width = 0.56mm

; external perimeters extrusion width = 0.42mm
; perimeters extrusion width = 0.44mm
; infill extrusion width = 0.44mm
; solid infill extrusion width = 0.44mm
; top infill extrusion width = 0.42mm
; first layer extrusion width = 0.56mm

; object:{"name":"LED_Sheath","id":"LED_Sheath.stl id:0 copy 0","object_center":[111.728366,98.695745,0.000000],"boundingbox_center":[111.728366,98.695745,4.375000],"boundingbox_size":[21.750004,21.750000,8.750000]}
; object:{"name":"LED_Clip","id":"LED_Clip.stl id:1 copy 0","object_center":[119.362349,125.304252,0.000000],"boundingbox_center":[119.362349,125.304252,2.050003],"boundingbox_size":[10.622993,23.750008,4.100006]}
; object:{"name":"LED_EVA_Logo","id":"LED_EVA_Logo.stl id:2 copy 0","object_center":[104.188504,115.624830,0.000000],"boundingbox_center":[104.188504,115.624830,1.750000],"boundingbox_size":[7.724697,9.858582,3.500000]}
; plater:{"center":[112.500001,112.500000,0.000000],"boundingbox_center":[112.500001,112.500000,4.375000],"boundingbox_size":[24.347690,49.358511,8.750000]}

M73 P0 R5
;TYPE:Custom
; custom gcode: start_gcode
M190 S0 ; Remove this if autoemit_temperature_commands is off in Prusa Slicer 2.6 and later
M109 S0 ; Remove this if autoemit_temperature_commands is off in Prusa Slicer 2.6 and later
_PRINT_START_PHASE_INIT EXTRUDER=255 BED=85 MESH_MIN=100.326,89.3207 MESH_MAX=124.674,137.179 LAYERS=43 NOZZLE_SIZE=0.4
; Insert custom gcode here.
_PRINT_START_PHASE_PREHEAT
; Insert custom gcode here.
_PRINT_START_PHASE_PROBING
; Insert custom gcode here.
_PRINT_START_PHASE_EXTRUDER
; Insert custom gcode here.
_PRINT_START_PHASE_PURGE

; This is the place to put slicer purge lines if you haven't set a non-zero
; variable_start_purge_length to have START_PRINT automatically calculate and 
; perform the purge (e.g. if using a Mosaic Palette, which requires the slicer
; to generate the purge).
; custom gcode end: start_gcode
M107
G21 ; set units to millimeters
G90 ; use absolute coordinates
M83 ; use relative distances for extrusion
; custom gcode: start_filament_gcode
; Filament gcode
; custom gcode end: start_filament_gcode
;_TOOLCHANGE 0
;LAYER_CHANGE
;Z:0.36
;HEIGHT:0.36
; custom gcode: before_layer_gcode
;BEFORE_LAYER_CHANGE
;0.36
BEFORE_LAYER_CHANGE HEIGHT=0.36 LAYER=0
; custom gcode end: before_layer_gcode

G10 ; retract
G1 Z0.2 F18000
M73 P6 R5
G1 Z0.36
; custom gcode: layer_gcode
;AFTER_LAYER_CHANGE
;0.36
AFTER_LAYER_CHANGE
; custom gcode end: layer_gcode

G92 E0
M104 S255 ; set temperature
G1 Z0.56
; printing object LED_Sheath.stl id:0 copy 0
M204 S600
G1 X102.603 Y98.278
M73 P6 R4
G1 Z0.36
G11 ; unretract
;TYPE:Thin wall
;WIDTH:0.509893
G1 F4500
G1 X102.613 Y98.178 E0.00615
G1 X102.677 Y98.101 E0.00615
G1 X111.134 Y89.644 E0.73573
G1 X111.211 Y89.581 E0.00615
G1 X111.31 Y89.571 E0.00615
G1 X112.146 Y89.571 E0.05141
G1 X112.246 Y89.581 E0.00615
G1 X112.323 Y89.644 E0.00615
G1 X116.552 Y93.873 E0.36787
G1 X120.78 Y98.101 E0.36787
G1 X120.843 Y98.178 E0.00615
G1 X120.853 Y98.278 E0.00615
G1 X120.853 Y99.114 E0.05141
G1 X120.843 Y99.213 E0.00615
G1 X120.78 Y99.29 E0.00615
G1 X116.552 Y103.519 E0.36787
G1 X112.323 Y107.748 E0.36787
G1 X112.246 Y107.811 E0.00615
G1 X112.146 Y107.821 E0.00615
G1 X111.31 Y107.821 E0.05141
G1 X111.211 Y107.811 E0.00615
G1 X111.134 Y107.748 E0.00615
G1 X102.677 Y99.29 E0.73573
G1 X102.613 Y99.213 E0.00615
G1 X102.603 Y99.114 E0.00615
G1 X102.603 Y98.338 E0.04772
G10 ; retract
;WIPE_START
G1 F14400
M204 S1200
G1 X102.613 Y98.178
G1 X102.677 Y98.101
G1 X103.851 Y96.927
;WIPE_END
G1 Z0.56 F18000
; stop printing object LED_Sheath.stl id:0 copy 0
; printing object LED_EVA_Logo.stl id:2 copy 0
; acceleration to travel
M204 S1500
G1 X104.76 Y112.522
; decel to extrusion
M204 S600
M73 P7 R4
G1 X104.9 Y114.918
; end travel
G1 Z0.36
G11 ; unretract
;TYPE:Internal perimeter
;WIDTH:0.56
G1 F4500
G1 X105.607 Y115.625 E0.06863
G1 X104.9 Y116.332 E0.06863
G1 X104.9 Y114.978 E0.09294
G1 X104.417 Y113.752 F18000
G1 F4500
G1 X106.289 Y115.625 E0.18176
G1 X104.417 Y117.497 E0.18176
G1 X104.417 Y113.812 E0.25293
G1 X103.122 Y112.457 F18000
G1 F4500
G1 X103.744 Y113.079 E0.06042
G1 X102.499 Y113.079 E0.08545
G1 X103.079 Y112.499 E0.0563
G10 ; retract
;WIPE_START
G1 F14400
M204 S1200
G1 X103.744 Y113.079
G1 X102.706 Y113.079
;WIPE_END
G1 Z0.56 F18000
M204 S600
G1 X102.499 Y118.17
G1 Z0.36
G11 ; unretract
G1 F4500
G1 X103.744 Y118.17 E0.08545
G1 X103.122 Y118.793 E0.06042
G1 X102.542 Y118.213 E0.0563
G10 ; retract
;WIPE_START
G1 F14400
M204 S1200
G1 X103.744 Y118.17
G1 X103.237 Y118.677
;WIPE_END
G1 Z0.56 F18000
M204 S600
G1 X103.122 Y111.774
G1 Z0.36
G11 ; unretract
G1 F4500
G1 X106.972 Y115.625 E0.37378
G1 X103.122 Y119.475 E0.37378
G1 X101.334 Y117.688 E0.17355
G1 X103.934 Y117.688 E0.17851
G1 X103.934 Y113.562 E0.28317
G1 X101.334 Y113.562 E0.17851
G1 X103.079 Y111.817 E0.16943
G1 X103.122 Y111.092 F18000
;TYPE:External perimeter
G1 F4500
G1 X107.655 Y115.625 E0.44006
M73 P8 R4
G1 X103.122 Y120.158 E0.44006
G1 X100.722 Y117.759 E0.23292
G1 X101.276 Y117.205 E0.05377
G1 X103.452 Y117.205 E0.14933
G1 X103.452 Y114.045 E0.2169
G1 X101.276 Y114.045 E0.14933
G1 X100.722 Y113.491 E0.05377
G1 X103.079 Y111.134 E0.2288
;WIPE_START
M204 S1200
G1 X103.225 Y111.478 F18000
;WIPE_END
G10 ; retract
;WIPE_START
G1 F14400
G1 X104.583 Y112.836
;WIPE_END
G1 Z0.56 F18000
; stop printing object LED_EVA_Logo.stl id:2 copy 0
; printing object LED_Clip.stl id:1 copy 0
; acceleration to travel
M204 S1500
G1 X115.488 Y115.849
; decel to extrusion
M204 S600
G1 X117.163 Y116.312
; end travel
G1 Z0.36
G11 ; unretract
;TYPE:Internal perimeter
G1 F4500
G1 X118.317 Y115.157 E0.1121
G1 X120.407 Y115.157 E0.14346
G1 X121.562 Y116.312 E0.1121
G1 X120.034 Y116.312 E0.10488
G1 X120.034 Y134.296 E1.23441
G1 X121.562 Y134.296 E0.10488
G1 X120.407 Y135.451 E0.1121
G1 X118.317 Y135.451 E0.14346
G1 X117.163 Y134.296 E0.1121
G1 X118.691 Y134.296 E0.1049
G1 X118.691 Y116.312 E1.23441
G1 X117.223 Y116.312 E0.10078
G1 X115.997 Y116.795 F18000
G1 F4500
G1 X118.117 Y114.675 E0.20582
G1 X120.607 Y114.675 E0.17091
G1 X122.728 Y116.795 E0.20582
M73 P9 R4
G1 X120.517 Y116.795 E0.15174
G1 X120.517 Y133.813 E1.16814
G1 X122.728 Y133.813 E0.15174
G1 X120.607 Y135.934 E0.20582
G1 X118.117 Y135.934 E0.17091
G1 X115.997 Y133.813 E0.20582
G1 X118.208 Y133.813 E0.15176
G1 X118.208 Y116.795 E1.16814
G1 X116.057 Y116.795 E0.14764
G1 X115.13 Y116.98 F18000
G1 F4500
G1 X117.917 Y114.192 E0.27062
G1 X120.807 Y114.192 E0.19836
G1 X123.595 Y116.98 E0.27062
G1 X123.297 Y117.278 E0.02892
G1 X121 Y117.278 E0.1577
G1 X121 Y133.331 E1.10187
G1 X123.297 Y133.331 E0.1577
G1 X123.595 Y133.629 E0.02892
G1 X120.807 Y136.417 E0.27062
G1 X117.917 Y136.417 E0.19836
G1 X115.13 Y133.629 E0.27062
G1 X115.427 Y133.331 E0.02892
G1 X117.725 Y133.331 E0.15772
G1 X117.725 Y117.278 E1.10187
M73 P10 R4
G1 X115.427 Y117.278 E0.15772
G1 X115.172 Y117.022 E0.0248
G1 X114.447 Y116.98 F18000
;TYPE:External perimeter
G1 F4500
G1 X117.717 Y113.709 E0.31748
G1 X121.007 Y113.709 E0.22581
G1 X124.278 Y116.98 E0.31748
G1 X123.497 Y117.761 E0.07578
G1 X121.483 Y117.761 E0.13829
G1 X121.483 Y132.848 E1.0356
G1 X123.497 Y132.848 E0.13829
G1 X124.278 Y133.629 E0.07578
G1 X121.007 Y136.899 E0.31748
G1 X117.717 Y136.899 E0.22581
G1 X114.447 Y133.629 E0.31748
G1 X115.227 Y132.848 E0.07578
G1 X117.243 Y132.848 E0.13831
G1 X117.243 Y117.761 E1.0356
G1 X115.227 Y117.761 E0.13831
G1 X114.489 Y117.022 E0.07166
;WIPE_START
M204 S1200
G1 X114.833 Y116.876 F18000
;WIPE_END
G10 ; retract
;WIPE_START
G1 F14400
G1 X116.191 Y115.519
;WIPE_END
G1 Z0.56 F18000
M204 S600
G1 X117.974 Y115.809
G1 Z0.36
G11 ; unretract
;TYPE:Gap fill
;WIDTH:0.595768
G1 F4500
G1 X118.091 Y115.794 E0.00866
;WIDTH:0.64576
G1 X118.207 Y115.78 E0.00949
;WIDTH:0.695753
G1 X118.324 Y115.765 E0.01033
;WIDTH:0.745746
G1 X118.44 Y115.75 E0.01116
;WIDTH:0.795739
G1 X118.556 Y115.735 E0.012
G1 X118.909 Y115.735 E0.036
G1 X119.363 Y115.878 E0.04859
G1 X119.816 Y115.735 E0.04859
G1 X120.168 Y115.735 E0.03597
G1 X120.285 Y115.75 E0.012
;WIDTH:0.745746
G1 X120.401 Y115.765 E0.01116
;WIDTH:0.695754
G1 X120.518 Y115.78 E0.01033
;WIDTH:0.645761
G1 X120.634 Y115.794 E0.00949
;WIDTH:0.595769
G1 X120.751 Y115.809 E0.00866
G1 X119.363 Y115.878 F18000
;WIDTH:1.082118
G1 F4500
G1 X119.363 Y115.986 E0.01543
;WIDTH:0.984469
G1 X119.363 Y134.622 E2.40397
;WIDTH:1.082123
M73 P11 R4
G1 X119.363 Y134.73 E0.01544
G1 X120.751 Y134.799 F18000
;WIDTH:0.595775
G1 F4500
G1 X120.634 Y134.814 E0.00866
;WIDTH:0.645768
G1 X120.518 Y134.829 E0.00949
;WIDTH:0.695761
G1 X120.401 Y134.844 E0.01033
;WIDTH:0.745754
G1 X120.285 Y134.859 E0.01116
;WIDTH:0.795747
G1 X120.168 Y134.874 E0.012
G1 X119.816 Y134.874 E0.03597
G1 X119.363 Y134.73 E0.04859
G1 X118.909 Y134.874 E0.04859
G1 X118.556 Y134.874 E0.036
G1 X118.44 Y134.859 E0.012
;WIDTH:0.745753
G1 X118.324 Y134.844 E0.01116
;WIDTH:0.695759
G1 X118.207 Y134.829 E0.01033
;WIDTH:0.645765
G1 X118.091 Y134.814 E0.00949
;WIDTH:0.595771
G1 X117.974 Y134.799 E0.00866
M106 S175.95
;LAYER_CHANGE
;Z:0.56
;HEIGHT:0.2
; custom gcode: before_layer_gcode
;BEFORE_LAYER_CHANGE
;0.56
BEFORE_LAYER_CHANGE HEIGHT=0.56 LAYER=1
; custom gcode end: before_layer_gcode

G10 ; retract
;WIPE_START
G1 F14400
M204 S1200
G1 X118.091 Y134.814
;WIPE_END
G1 Z0.56 F18000
; stop printing object LED_Clip.stl id:1 copy 0
G1 Z0.56
; custom gcode: layer_gcode
;AFTER_LAYER_CHANGE
;0.56
AFTER_LAYER_CHANGE
; custom gcode end: layer_gcode

G92 E0
M140 S80 ; set bed temperature
G1 Z0.76
; printing object LED_Sheath.stl id:0 copy 0
; acceleration to travel
M204 S1500
G1 X113.681 Y114.461
; decel to extrusion
M204 S1200
G1 X112.233 Y107.781
; end travel
G1 Z0.56
G11 ; unretract
;TYPE:External perimeter
;WIDTH:0.42
G1 F6300
G1 X120.813 Y99.201 E0.36143
G1 X120.813 Y98.191 E0.03008
G1 X112.233 Y89.611 E0.36143
G1 X111.223 Y89.611 E0.03008
G1 X102.643 Y98.191 E0.36143
G1 X102.643 Y99.201 E0.03008
G1 X111.223 Y107.781 E0.36143
G1 X112.173 Y107.781 E0.02829
;WIPE_START
G1 X112.58 Y107.981 F18000
;WIPE_END
G1 X112.266 Y107.861
G1 F6300
G1 X111.19 Y107.861 E0.03205
G1 X102.563 Y99.234 E0.36341
G1 X102.563 Y98.158 E0.03205
G1 X111.19 Y89.531 E0.36341
G1 X112.266 Y89.531 E0.03205
G1 X120.893 Y98.158 E0.36341
G1 X120.893 Y99.234 E0.03205
G1 X112.309 Y107.818 E0.36162
;WIPE_START
G1 X111.984 Y107.578 F18000
;WIPE_END
G10 ; retract
;WIPE_START
G1 F14400
G1 X111.273 Y107.661
G1 X110.421 Y106.809
;WIPE_END
G1 Z0.76 F18000
; stop printing object LED_Sheath.stl id:0 copy 0
; printing object LED_EVA_Logo.stl id:2 copy 0
; acceleration to travel
M204 S1500
G1 X106.046 Y114.523
; decel to extrusion
M204 S1200
G1 X104.573 Y117.121
; end travel
G1 Z0.56
G11 ; unretract
;TYPE:Internal perimeter
;WIDTH:0.444
G1 F6851.3831
G1 X104.573 Y114.128 E0.09482
M73 P12 R4
G1 X106.069 Y115.625 E0.06705
G1 X104.615 Y117.079 E0.06515
G1 X104.172 Y117.925 F18000
G1 F12600
G1 X104.172 Y113.325 E0.14575
G1 X101.907 Y113.325 E0.07176
G1 X103.122 Y112.11 E0.05443
G1 X104.336 Y113.325 E0.05443
G1 X106.636 Y115.625 E0.10306
G1 X104.172 Y118.09 E0.11043
G1 X103.122 Y119.14 E0.04705
G1 X101.907 Y117.925 E0.05443
G1 X104.112 Y117.925 E0.06985
G1 X103.771 Y117.524 F18000
G1 F12600
G1 X103.771 Y113.726 E0.12033
G1 X101.408 Y113.726 E0.07485
G1 X101.173 Y113.491 E0.01052
G1 X103.122 Y111.543 E0.08729
G1 X107.204 Y115.625 E0.1829
G1 X103.122 Y119.707 E0.1829
G1 X101.173 Y117.759 E0.08729
G1 X101.408 Y117.524 E0.01052
G1 X103.711 Y117.524 E0.07295
G1 X103.382 Y117.135 F18000
;TYPE:External perimeter
;WIDTH:0.42
G1 F6300
G1 X103.382 Y114.115 E0.08996
G1 X101.247 Y114.115 E0.06358
G1 X100.623 Y113.491 E0.02628
G1 X103.122 Y110.993 E0.10524
G1 X107.754 Y115.625 E0.19513
G1 X103.122 Y120.257 E0.19513
G1 X100.623 Y117.759 E0.10524
G1 X101.247 Y117.135 E0.02628
G1 X103.322 Y117.135 E0.06179
;WIPE_START
G1 X103.782 Y117.135 F18000
;WIPE_END
G1 X103.891 Y118.11
;TYPE:Gap fill
;WIDTH:0.0962
G1 F6300
G1 X103.839 Y118.131 E0.00023
;WIDTH:0.137907
G1 X103.788 Y118.152 E0.00042
;WIDTH:0.179614
G1 X103.737 Y118.173 E0.0006
;WIDTH:0.221321
G1 X103.686 Y118.195 E0.00078
;WIDTH:0.263028
G1 X103.634 Y118.216 E0.00096
;WIDTH:0.304734
G1 X103.583 Y118.237 E0.00115
;WIDTH:0.346441
G1 X103.532 Y118.258 E0.00133
;WIDTH:0.388148
G1 X103.48 Y118.279 E0.00151
;WIDTH:0.429855
G1 X103.429 Y118.301 E0.0017
;WIDTH:0.471561
G1 X103.378 Y118.322 E0.00188
;WIDTH:0.513268
G1 X103.327 Y118.343 E0.00206
;WIDTH:0.554975
G1 X103.275 Y118.364 E0.00224
;WIDTH:0.596682
G1 X103.224 Y118.386 E0.00243
;WIDTH:0.638389
G1 X103.173 Y118.407 E0.00261
;WIDTH:0.680095
G1 X103.122 Y118.428 E0.00279
G1 X103.07 Y118.407 E0.00279
;WIDTH:0.638389
G1 X103.019 Y118.386 E0.00261
;WIDTH:0.596682
G1 X102.968 Y118.364 E0.00243
;WIDTH:0.554975
G1 X102.916 Y118.343 E0.00224
;WIDTH:0.513268
G1 X102.865 Y118.322 E0.00206
;WIDTH:0.471561
G1 X102.814 Y118.301 E0.00188
;WIDTH:0.429855
G1 X102.763 Y118.279 E0.0017
;WIDTH:0.388148
G1 X102.711 Y118.258 E0.00151
;WIDTH:0.346441
G1 X102.66 Y118.237 E0.00133
;WIDTH:0.304734
G1 X102.609 Y118.216 E0.00115
;WIDTH:0.263028
G1 X102.558 Y118.195 E0.00096
;WIDTH:0.221321
G1 X102.506 Y118.173 E0.00078
;WIDTH:0.179614
G1 X102.455 Y118.152 E0.0006
;WIDTH:0.137907
G1 X102.404 Y118.131 E0.00042
;WIDTH:0.0962
G1 X102.352 Y118.11 E0.00023
G1 X104.693 Y116.575 F18000
;TYPE:Solid infill
;WIDTH:0.488965
G1 F6300
G1 X105.649 Y115.619 E0.04719
G1 X105.366 Y115.336 E0.01399
G1 X104.866 Y115.836 E0.02469
G1 X104.866 Y115.269 E0.01979
G1 X105.204 Y114.93 E0.01671
G1 X103.891 Y113.14 F18000
;TYPE:Gap fill
;WIDTH:0.0962
G1 F6300
G1 X103.839 Y113.119 E0.00023
;WIDTH:0.137907
G1 X103.788 Y113.098 E0.00042
;WIDTH:0.179614
G1 X103.737 Y113.076 E0.0006
;WIDTH:0.221321
G1 X103.686 Y113.055 E0.00078
;WIDTH:0.263027
G1 X103.634 Y113.034 E0.00096
;WIDTH:0.304734
G1 X103.583 Y113.013 E0.00115
;WIDTH:0.346441
G1 X103.532 Y112.991 E0.00133
;WIDTH:0.388147
G1 X103.48 Y112.97 E0.00151
;WIDTH:0.429854
G1 X103.429 Y112.949 E0.0017
;WIDTH:0.471561
G1 X103.378 Y112.928 E0.00188
;WIDTH:0.513268
G1 X103.327 Y112.906 E0.00206
;WIDTH:0.554974
G1 X103.275 Y112.885 E0.00224
;WIDTH:0.596681
G1 X103.224 Y112.864 E0.00243
;WIDTH:0.638388
G1 X103.173 Y112.843 E0.00261
;WIDTH:0.680094
G1 X103.122 Y112.822 E0.00279
G1 X103.07 Y112.843 E0.00279
;WIDTH:0.638388
G1 X103.019 Y112.864 E0.00261
;WIDTH:0.596681
G1 X102.968 Y112.885 E0.00243
;WIDTH:0.554974
G1 X102.916 Y112.906 E0.00224
;WIDTH:0.513268
G1 X102.865 Y112.928 E0.00206
;WIDTH:0.471561
G1 X102.814 Y112.949 E0.00188
;WIDTH:0.429854
G1 X102.763 Y112.97 E0.0017
;WIDTH:0.388147
G1 X102.711 Y112.991 E0.00151
;WIDTH:0.346441
G1 X102.66 Y113.013 E0.00133
;WIDTH:0.304734
G1 X102.609 Y113.034 E0.00115
;WIDTH:0.263027
G1 X102.558 Y113.055 E0.00096
;WIDTH:0.221321
G1 X102.506 Y113.076 E0.00078
;WIDTH:0.179614
G1 X102.455 Y113.098 E0.0006
;WIDTH:0.137907
G1 X102.404 Y113.119 E0.00042
;WIDTH:0.0962
G1 X102.352 Y113.14 E0.00023
G10 ; retract
;WIPE_START
G1 F14400
G1 X102.404 Y113.119
;WIPE_END
G1 Z0.76 F18000
; stop printing object LED_EVA_Logo.stl id:2 copy 0
; printing object LED_Clip.stl id:1 copy 0
; acceleration to travel
M204 S1500
G1 X111.331 Y115.369
; decel to extrusion
M204 S1200
G1 X116.373 Y116.639
; end travel
M73 P13 R4
G1 Z0.56
G11 ; unretract
;TYPE:Internal perimeter
;WIDTH:0.444
G1 F12600
G1 X118.182 Y114.83 E0.08104
G1 X120.543 Y114.83 E0.0748
G1 X122.352 Y116.639 E0.08104
G1 X120.361 Y116.639 E0.06306
G1 X120.361 Y133.969 E0.54905
G1 X122.352 Y133.969 E0.06306
G1 X120.543 Y135.778 E0.08104
G1 X118.182 Y135.778 E0.0748
