; HEADER_BLOCK_START
; generated by OrcaSlicer 1.6.6 on 2023-09-02 at 12:49:02
; total layer number: 120
; HEADER_BLOCK_END

; THUMBNAIL_BLOCK_START
; THUMBNAIL_BLOCK_END

; external perimeters extrusion width = 0.48mm
; perimeters extrusion width = 0.46mm
; infill extrusion width = 0.50mm
; solid infill extrusion width = 0.48mm
; top infill extrusion width = 0.44mm
; first layer extrusion width = 0.56mm

; external perimeters extrusion width = 0.48mm
; perimeters extrusion width = 0.46mm
; infill extrusion width = 0.50mm
; solid infill extrusion width = 0.48mm
; top infill extrusion width = 0.44mm
; first layer extrusion width = 0.56mm

; EXECUTABLE_BLOCK_START
EXCLUDE_OBJECT_DEFINE NAME=OrcaCube_id_0_copy_0 CENTER=132.5,146.761 POLYGON=[[117.5,131.761],[143.481,131.761],[147.5,131.761],[147.5,157.742],[147.5,161.761],[121.519,161.761],[117.5,161.761],[117.5,135.781],[117.5,131.761]]
EXCLUDE_OBJECT_DEFINE NAME=OrcaPlug_id_1_copy_0 CENTER=132.844,114.237 POLYGON=[[121.844,114.237],[121.852,113.82],[121.876,113.405],[121.915,112.99],[121.97,112.578],[122.04,112.167],[122.126,111.76],[122.228,111.356],[122.344,110.956],[122.476,110.562],[122.623,110.172],[122.784,109.788],[122.959,109.41],[123.149,109.04],[123.353,108.677],[123.57,108.321],[123.8,107.975],[124.044,107.637],[124.3,107.309],[124.568,106.99],[124.848,106.682],[125.14,106.385],[125.442,106.099],[125.756,105.825],[126.079,105.563],[126.412,105.313],[126.754,105.076],[127.105,104.852],[127.465,104.642],[127.832,104.445],[128.206,104.262],[128.586,104.094],[128.973,103.94],[129.366,103.801],[129.763,103.677],[130.165,103.568],[130.571,103.474],[130.979,103.396],[131.391,103.333],[131.805,103.286],[132.22,103.254],[132.636,103.239],[133.052,103.239],[133.468,103.254],[133.883,103.286],[134.297,103.333],[134.709,103.396],[135.117,103.474],[135.523,103.568],[135.925,103.677],[136.322,103.801],[136.715,103.94],[137.102,104.094],[137.482,104.262],[137.856,104.445],[138.223,104.642],[138.583,104.852],[138.934,105.076],[139.276,105.313],[139.609,105.563],[139.932,105.825],[140.246,106.099],[140.548,106.385],[140.84,106.682],[141.12,106.99],[141.388,107.309],[141.644,107.637],[141.888,107.975],[142.118,108.322],[142.335,108.677],[142.539,109.04],[142.729,109.41],[142.904,109.788],[143.065,110.172],[143.212,110.562],[143.344,110.956],[143.46,111.356],[143.562,111.76],[143.648,112.167],[143.718,112.578],[143.773,112.99],[143.812,113.405],[143.836,113.82],[143.844,114.237],[143.836,114.653],[143.812,115.069],[143.773,115.483],[143.718,115.896],[143.648,116.306],[143.562,116.713],[143.46,117.117],[143.344,117.517],[143.212,117.912],[143.065,118.302],[142.904,118.685],[142.729,119.063],[142.539,119.434],[142.335,119.797],[142.118,120.152],[141.888,120.499],[141.644,120.836],[141.388,121.165],[141.12,121.483],[140.84,121.791],[140.548,122.088],[140.246,122.374],[139.932,122.648],[139.609,122.91],[139.276,123.16],[138.934,123.397],[138.583,123.621],[138.223,123.832],[137.856,124.028],[137.482,124.211],[137.102,124.379],[136.715,124.533],[136.322,124.672],[135.925,124.796],[135.523,124.905],[135.117,124.999],[134.709,125.077],[134.297,125.14],[133.883,125.187],[133.468,125.219],[133.052,125.235],[132.636,125.235],[132.22,125.219],[131.805,125.187],[131.391,125.14],[130.979,125.077],[130.571,124.999],[130.165,124.905],[129.763,124.796],[129.366,124.672],[128.973,124.533],[128.586,124.379],[128.206,124.211],[127.832,124.028],[127.465,123.832],[127.105,123.621],[126.754,123.397],[126.412,123.16],[126.079,122.91],[125.756,122.648],[125.442,122.374],[125.14,122.088],[124.848,121.791],[124.568,121.483],[124.3,121.165],[124.044,120.836],[123.8,120.499],[123.57,120.152],[123.353,119.797],[123.149,119.433],[122.959,119.063],[122.784,118.685],[122.623,118.302],[122.476,117.912],[122.344,117.517],[122.228,117.117],[122.126,116.713],[122.04,116.306],[121.97,115.896],[121.915,115.483],[121.875,115.069],[121.852,114.653],[121.844,114.237]]
M73 P0 R23
;TYPE:Custom
M190 S0 ; Remove this if autoemit_temperature_commands is off in Prusa Slicer 2.6 and later
M109 S0 ; Remove this if autoemit_temperature_commands is off in Prusa Slicer 2.6 and later
_PRINT_START_PHASE_INIT EXTRUDER=230 BED=60 MESH_MIN=117.495,103.234 MESH_MAX=147.505,161.766 LAYERS=120 NOZZLE_SIZE=0.4
; Insert custom gcode here.
_PRINT_START_PHASE_PREHEAT
; Insert custom gcode here.
_PRINT_START_PHASE_PROBING
; Insert custom gcode here.
_PRINT_START_PHASE_EXTRUDER
; Insert custom gcode here.
_PRINT_START_PHASE_PURGE

; This is the place to put slicer purge lines if you haven't set a non-zero
; variable_start_purge_length to have START_PRINT automatically calculate and 
; perform the purge (e.g. if using a Mosaic Palette, which requires the slicer
; to generate the purge).
G90
G21
M83 ; use relative distances for extrusion
; filament start gcode
;LAYER_CHANGE
;Z:0.36
;HEIGHT:0.36
;BEFORE_LAYER_CHANGE
;0.36
BEFORE_LAYER_CHANGE HEIGHT=0.36 LAYER=0
G1 E-.4 F1800
;AFTER_LAYER_CHANGE
;0.36
AFTER_LAYER_CHANGE
SET_VELOCITY_LIMIT ACCEL=3000 ACCEL_TO_DECEL=1500
; printing object OrcaCube id:0 copy 0
EXCLUDE_OBJECT_START NAME=OrcaCube_id_0_copy_0
G1 Z.4 F15000
G1 X121.911 Y140.299
G1 Z.4
G1 Z.36
G1 E.4 F1200
;TYPE:Inner wall
;WIDTH:0.56
G1 F3000
G1 X122.405 Y139.542 E.06723
G3 X131.917 Y134.369 I10.089 J7.219 E.83307
G1 X132.371 Y134.356 E.03371
G3 X121.885 Y140.33 I.123 J12.405 E4.85815
G1 X122.314 Y140.564 F15000
G1 F3000
G1 X122.799 Y139.824 E.06579
G3 X131.94 Y134.851 I9.695 J6.934 E.80062
G1 X132.375 Y134.839 E.03237
G3 X122.291 Y140.596 I.119 J11.919 E4.66614
G1 X122.715 Y140.827 F15000
;TYPE:Outer wall
G1 F3000
G3 X131.963 Y135.333 I9.779 J5.93 E.8326
G1 X132.38 Y135.321 E.03103
G3 X122.694 Y140.862 I.114 J11.436 E4.47583
G1 E-.4 F1800
G1 Z.76 F15000
G1 X118.74 Y135.981 Z.76
G1 Z.36
G1 E.4 F1200
;TYPE:Inner wall
G1 F3000
G1 X121.72 Y133.002 E.31324
G1 X143.28 Y133.002 E1.603
G1 X146.26 Y135.981 E.31324
G1 X146.26 Y157.542 E1.603
G1 X143.28 Y160.521 E.31324
G1 X121.72 Y160.521 E1.603
G1 X118.74 Y157.542 E.31324
G1 X118.74 Y136.021 E1.60002
G1 X118.258 Y135.781 F15000
G1 F3000
G1 X121.52 Y132.519 E.34298
G1 X143.48 Y132.519 E1.63273
G1 X146.742 Y135.781 E.34298
G1 X146.742 Y157.742 E1.63273
G1 X143.48 Y161.004 E.34298
G1 X121.52 Y161.004 E1.63273
G1 X118.258 Y157.742 E.34298
G1 X118.258 Y135.821 E1.62976
G1 X117.775 Y135.581 F15000
;TYPE:Outer wall
G1 F3000
G1 X121.32 Y132.036 E.37271
G1 X143.68 Y132.036 E1.66246
G1 X145.323 Y133.679 E.17273
G1 X147.225 Y135.581 E.19998
G1 X147.225 Y157.942 E1.66246
G1 X143.68 Y161.486 E.37271
G1 X121.32 Y161.486 E1.66246
G1 X117.775 Y157.942 E.37271
G1 X117.775 Y135.621 E1.65949
G1 E-.4 F1800
G1 Z.76 F15000
G1 X142.911 Y133.147 Z.76
G1 Z.36
G1 E.4 F1200
;TYPE:Bottom surface
;WIDTH:0.562657
G1 F4500
G1 X145.898 Y136.133 E.31572
G1 X145.898 Y136.819 E.05132
G1 X142.442 Y133.364 E.36533
G1 X141.756 Y133.364 E.05132
G1 X145.898 Y137.506 E.4379
G1 X145.898 Y138.192 E.05132
G1 X141.069 Y133.364 E.51047
G1 X140.383 Y133.364 E.05132
G1 X145.898 Y138.879 E.58305
G1 X145.898 Y139.565 E.05132
G1 X139.696 Y133.364 E.65562
G1 X139.01 Y133.364 E.05132
G1 X145.898 Y140.252 E.7282
G1 X145.898 Y140.938 E.05132
G1 X138.323 Y133.364 E.80077
G1 X137.637 Y133.364 E.05132
G1 X145.898 Y141.625 E.87335
G1 X145.898 Y142.311 E.05132
G1 X136.95 Y133.364 E.94592
G1 X136.264 Y133.364 E.05132
G1 X138.291 Y135.391 E.21431
G2 X137.057 Y134.843 I-4.428 J8.315 E.10101
G1 X135.577 Y133.364 E.15642
G1 X134.891 Y133.364 E.05132
G1 X136.024 Y134.497 E.1198
G2 X135.107 Y134.266 I-2.672 J8.685 E.07073
G1 X134.205 Y133.364 E.09541
G1 X133.518 Y133.364 E.05132
G1 X134.271 Y134.117 E.0796
G2 X133.508 Y134.04 I-1.062 J6.761 E.05734
G1 X132.832 Y133.364 E.07152
G1 X132.145 Y133.364 E.05132
G1 X132.78 Y133.999 E.06713
G1 X132.1 Y134.005 E.05086
G1 X131.459 Y133.364 E.06778
G1 X130.772 Y133.364 E.05132
G1 X131.453 Y134.045 E.07199
G2 X130.827 Y134.105 I.213 J5.532 E.04708
G1 X130.086 Y133.364 E.07833
G1 X129.399 Y133.364 E.05132
G1 X130.237 Y134.201 E.08856
G1 X129.665 Y134.316 E.04361
G1 X128.713 Y133.364 E.10066
G1 X128.026 Y133.364 E.05132
G1 X129.114 Y134.451 E.11495
G2 X128.591 Y134.615 I1.181 J4.669 E.04095
G1 X127.34 Y133.364 E.13231
G1 X126.653 Y133.364 E.05132
G1 X128.076 Y134.786 E.15038
G1 X127.588 Y134.984 E.03939
G1 X125.967 Y133.364 E.17134
G1 X125.281 Y133.364 E.05132
M73 P1 R23
G1 X127.107 Y135.19 E.19308
G2 X126.646 Y135.416 I2.715 J6.111 E.03835
G1 X124.594 Y133.364 E.21698
G1 X123.908 Y133.364 E.05132
G1 X126.204 Y135.66 E.24277
G1 X125.773 Y135.916 E.03744
G1 X123.221 Y133.364 E.26982
G1 X122.535 Y133.364 E.05132
G1 X125.357 Y136.186 E.29839
G1 X124.954 Y136.469 E.03684
G1 X121.859 Y133.374 E.32717
G1 X121.516 Y133.718 E.03629
G1 X124.565 Y136.767 E.32238
G1 X124.188 Y137.076 E.03646
G1 X121.172 Y134.061 E.31879
G1 X120.829 Y134.404 E.03629
G1 X123.823 Y137.398 E.31647
G2 X123.477 Y137.738 I2.819 J3.209 E.03631
G1 X120.486 Y134.747 E.31619
G1 X120.143 Y135.091 E.03629
G1 X123.138 Y138.086 E.3167
G2 X122.816 Y138.451 I2.261 J2.322 E.03639
G1 X119.8 Y135.434 E.31895
G1 X119.456 Y135.777 E.03629
G1 X122.504 Y138.825 E.3222
G2 X122.205 Y139.212 I3.291 J2.85 E.0366
G1 X119.113 Y136.12 E.32686
G1 X119.102 Y136.131 E.00112
G1 X119.102 Y136.796 E.04973
G1 X121.926 Y139.619 E.29847
G1 X121.653 Y140.033 E.03704
G1 X119.102 Y137.483 E.26964
G1 X119.102 Y138.169 E.05132
G1 X121.4 Y140.467 E.24294
G1 X121.155 Y140.908 E.03773
G1 X119.102 Y138.856 E.21699
G1 X119.102 Y139.542 E.05132
G1 X120.928 Y141.367 E.19297
G2 X120.717 Y141.843 I6.17 J3.018 E.03891
G1 X119.102 Y140.228 E.17069
G1 X119.102 Y140.915 E.05132
G1 X120.53 Y142.342 E.1509
G2 X120.35 Y142.848 I3.274 J1.451 E.04021
G1 X119.102 Y141.601 E.13185
G1 X119.102 Y142.288 E.05132
G1 X120.195 Y143.381 E.11553
G2 X120.053 Y143.925 I4.712 J1.522 E.04207
G1 X119.102 Y142.974 E.10049
G1 X119.102 Y143.661 E.05132
G1 X119.942 Y144.5 E.08873
G2 X119.842 Y145.087 I3.843 J.956 E.04453
G1 X119.102 Y144.347 E.07817
G1 X119.102 Y145.034 E.05132
G1 X119.783 Y145.714 E.07191
G2 X119.74 Y146.358 I5.636 J.697 E.04826
G1 X119.102 Y145.72 E.0674
G1 X119.102 Y146.407 E.05132
G1 X119.743 Y147.048 E.06776
G2 X119.773 Y147.764 I6.376 J.094 E.05362
G1 X119.102 Y147.093 E.07091
G1 X119.102 Y147.78 E.05132
G1 X119.865 Y148.542 E.0806
G2 X120.011 Y149.375 I5.56 J-.547 E.06326
G1 X119.102 Y148.466 E.09606
G1 X119.102 Y149.152 E.05132
G1 X120.237 Y150.287 E.11994
G2 X120.569 Y151.305 I10.798 J-2.956 E.08011
G1 X119.102 Y149.839 E.15504
G1 X119.102 Y150.525 E.05132
G1 X121.673 Y153.096 E.27174
G1 E-.28 F1800
;WIPE_START
G1 F4500
G1 X120.966 Y152.389 E-.114
;WIPE_END
G1 E-.006 F1800
G1 Z.76 F15000
G1 X143.322 Y140.422 Z.76
G1 Z.36
G1 E.4 F1200
G1 F4500
G1 X145.898 Y142.997 E.27227
G1 X145.898 Y143.684 E.05132
G1 X144.43 Y142.216 E.15516
G3 X144.767 Y143.24 I-8.931 J3.511 E.08064
G1 X145.898 Y144.37 E.11948
G1 X145.898 Y145.057 E.05132
G1 X144.992 Y144.151 E.09575
G3 X145.136 Y144.981 I-5.434 J1.369 E.06305
G1 X145.898 Y145.743 E.08055
G1 X145.898 Y146.43 E.05132
G1 X145.228 Y145.76 E.07076
G3 X145.26 Y146.478 I-12.116 J.889 E.05372
G1 X145.898 Y147.116 E.06745
G1 X145.898 Y147.803 E.05132
G1 X145.259 Y147.165 E.06746
G3 X145.216 Y147.808 I-4.27 J.036 E.04824
G1 X145.898 Y148.489 E.07203
G1 X145.898 Y149.176 E.05132
G1 X145.152 Y148.43 E.07879
G1 X145.062 Y149.026 E.04507
G1 X145.898 Y149.862 E.08835
G1 X145.898 Y150.549 E.05132
G1 X144.948 Y149.599 E.10035
G3 X144.804 Y150.141 I-4.811 J-.996 E.04194
G1 X145.898 Y151.235 E.11565
G1 X145.898 Y151.921 E.05132
G1 X144.65 Y150.674 E.13189
G1 X144.471 Y151.182 E.04023
G1 X145.898 Y152.608 E.1508
G1 X145.898 Y153.294 E.05132
G1 X144.281 Y151.678 E.17087
G3 X144.071 Y152.154 I-6.396 J-2.539 E.03893
G1 X145.898 Y153.981 E.19309
G1 X145.898 Y154.667 E.05132
G1 X143.841 Y152.611 E.21741
G1 X143.603 Y153.059 E.03794
G1 X145.898 Y155.354 E.24261
G1 X145.898 Y156.04 E.05132
G1 X143.344 Y153.486 E.26999
G1 X143.078 Y153.907 E.0372
G1 X145.898 Y156.727 E.2981
G1 X145.898 Y157.392 E.04972
G1 X145.887 Y157.402 E.00113
G1 X142.795 Y154.311 E.32683
G3 X142.493 Y154.695 I-3.568 J-2.494 E.03657
G1 X145.544 Y157.746 E.32249
G1 X145.2 Y158.089 E.03629
G1 X142.187 Y155.076 E.31855
G3 X141.859 Y155.434 I-2.536 J-1.999 E.03635
G1 X144.857 Y158.432 E.317
G1 X144.514 Y158.775 E.03629
G1 X141.527 Y155.788 E.3158
G3 X141.173 Y156.121 I-2.381 J-2.183 E.03634
G1 X144.171 Y159.119 E.31696
G1 X143.828 Y159.462 E.03629
G1 X140.815 Y156.449 E.3185
G3 X140.439 Y156.76 I-2.952 J-3.184 E.03647
G1 X143.484 Y159.805 E.32192
G1 X143.141 Y160.148 E.03629
G1 X140.05 Y157.057 E.3268
G3 X139.642 Y157.335 I-2.696 J-3.522 E.03695
G1 X142.465 Y160.159 E.29853
G1 X141.779 Y160.159 E.05132
G1 X139.231 Y157.611 E.26933
G1 X138.794 Y157.86 E.03763
G1 X141.092 Y160.159 E.243
G1 X140.406 Y160.159 E.05132
G1 X138.354 Y158.107 E.21691
G1 X137.888 Y158.328 E.03853
G1 X139.719 Y160.159 E.19359
G1 X139.033 Y160.159 E.05132
G1 X137.417 Y158.543 E.17083
G3 X136.924 Y158.737 I-2.734 J-6.238 E.0396
G1 X138.346 Y160.159 E.15037
G1 X137.66 Y160.159 E.05132
G1 X136.411 Y158.91 E.13207
G1 X135.883 Y159.068 E.04121
G1 X136.974 Y160.159 E.11532
G1 X136.287 Y160.159 E.05132
G1 X135.331 Y159.203 E.10105
G1 X134.768 Y159.327 E.04307
G1 X135.601 Y160.159 E.08797
G1 X134.914 Y160.159 E.05132
G1 X134.167 Y159.412 E.07895
G3 X133.553 Y159.484 I-.944 J-5.416 E.04629
G1 X134.228 Y160.159 E.07135
G1 X133.541 Y160.159 E.05132
G1 X132.905 Y159.522 E.0673
G3 X132.215 Y159.519 I-.314 J-6.136 E.05161
G1 X132.855 Y160.159 E.06767
G1 X132.168 Y160.159 E.05132
G1 X131.49 Y159.481 E.07172
G3 X130.722 Y159.399 I.156 J-5.136 E.05778
G1 X131.482 Y160.159 E.08033
G1 X130.795 Y160.159 E.05132
G1 X129.896 Y159.26 E.09506
G3 X128.975 Y159.025 I1.615 J-8.251 E.07115
G1 X130.109 Y160.159 E.11993
G1 X129.422 Y160.159 E.05132
G1 X127.946 Y158.683 E.15607
G3 X126.709 Y158.132 I3.373 J-9.244 E.10129
G1 X128.736 Y160.159 E.21427
G1 X128.05 Y160.159 E.05132
G1 X119.102 Y151.212 E.94591
G1 X119.102 Y151.898 E.05132
G1 X127.363 Y160.159 E.87333
G1 X126.677 Y160.159 E.05132
G1 X119.102 Y152.585 E.80076
G1 X119.102 Y153.271 E.05132
G1 X125.99 Y160.159 E.72819
G1 X125.304 Y160.159 E.05132
G1 X119.102 Y153.958 E.65561
G1 X119.102 Y154.644 E.05132
G1 X124.617 Y160.159 E.58304
G1 X123.931 Y160.159 E.05132
G1 X119.102 Y155.331 E.51046
G1 X119.102 Y156.017 E.05132
G1 X123.244 Y160.159 E.43789
G1 X122.558 Y160.159 E.05132
G1 X119.102 Y156.703 E.36532
G1 X119.102 Y157.39 E.05132
G1 X122.089 Y160.376 E.31571
; stop printing object OrcaCube id:0 copy 0
; printing object OrcaPlug id:1 copy 0
G1 E-.28 F1800
;WIPE_START
G1 F4500
G1 X121.382 Y159.669 E-.114
;WIPE_END
G1 E-.006 F1800
EXCLUDE_OBJECT_END NAME=OrcaCube_id_0_copy_0
EXCLUDE_OBJECT_START NAME=OrcaPlug_id_1_copy_0
G1 Z.76 F15000
G1 X121.116 Y147.402 Z.76
G1 X121.1 Y146.971
G1 X121.1 Y146.551
G1 X121.116 Y146.12
G1 X121.148 Y145.689
G1 X121.197 Y145.261
G1 X121.26 Y144.846
G1 X121.34 Y144.422
G1 X121.437 Y144.001
G1 X121.549 Y143.585
G1 X121.677 Y143.173
G1 X121.817 Y142.777
G1 X121.975 Y142.376
G1 X130.221 Y122.081
G1 X136.856 Y105.733
G1 Z.36
G1 E.4 F1200
;TYPE:Inner wall
;WIDTH:0.56
G1 F3000
G1 X136.828 Y105.796 E.00512
G1 X137.97 Y106.519 E.10047
G3 X130.984 Y123.313 I-5.136 J7.713 E1.89815
G3 X129.281 Y122.863 I4.235 J-19.488 E.13103
G1 X129.253 Y122.927 E.00517
G2 X128.832 Y122.74 I-.517 J.596 E.03474
G1 X128.86 Y122.678 E.00505
G1 X127.718 Y121.954 E.10048
G3 X132.244 Y104.991 I5.14 J-7.714 E1.71437
G3 X134.703 Y105.16 I.52 J10.404 E.1837
G3 X136.407 Y105.61 I-4.286 J19.71 E.13104
G1 X136.435 Y105.547 E.00512
G2 X136.817 Y105.727 I.515 J-.596 E.03179
G1 X136.65 Y106.254 F15000
G1 F3000
G1 X137.703 Y106.921 E.09265
G3 X131.081 Y122.84 I-4.868 J7.311 E1.79924
G3 X129.5 Y122.423 I3.927 J-18.091 E.12163
G1 X132.886 Y114.766 E.62245
G1 X136.634 Y106.291 E.68896
G1 X136.865 Y106.962 F15000
;TYPE:Outer wall
G1 F3000
G3 X140.76 Y116.73 I-4.098 J7.295 E.84543
G3 X130.168 Y122.106 I-7.95 J-2.541 E.98257
G1 X133.328 Y114.961 E.58082
G1 X136.849 Y106.998 E.6473
G1 E-.4 F1800
G1 Z.76 F15000
